/* XPM */
static char *_fe02b79691b4f0eab56fad32d34e97eKXe9ZICVm2oAKya6[] = {
/* columns rows colors chars-per-pixel */
"300 300 256 2 ",
"   c #3D2F1A",
".  c #48391B",
"X  c #4F3B18",
"o  c #493B23",
"O  c #513C24",
"+  c #57441C",
"@  c #6A4D1A",
"#  c #584727",
"$  c #594C34",
"%  c #554B2F",
"&  c #644C28",
"*  c #69542A",
"=  c #76592A",
"-  c #685736",
";  c #745C36",
":  c #654E30",
">  c #796538",
",  c #736332",
"<  c #675B44",
"1  c #6C5D4E",
"2  c #786846",
"3  c #786C55",
"4  c #766C4E",
"5  c #726C5E",
"6  c #835C2B",
"7  c #866A38",
"8  c #8A723B",
"9  c #96763B",
"0  c #8C6930",
"q  c #9F7B3B",
"w  c #856D45",
"e  c #897549",
"r  c #937C4B",
"t  c #977A46",
"y  c #887856",
"u  c #947C55",
"i  c #8B6D4E",
"p  c #A27C46",
"a  c #A67C52",
"s  c #887B65",
"d  c #937D68",
"f  c #A17F64",
"g  c #A4843E",
"h  c #9C834C",
"j  c #9A8349",
"k  c #9B8453",
"l  c #94835B",
"z  c #9C8B5C",
"x  c #998657",
"c  c #918659",
"v  c #A3854B",
"b  c #A38A4C",
"n  c #A78747",
"m  c #A48C53",
"M  c #AB8D54",
"N  c #A38D5B",
"B  c #A78858",
"V  c #AB9255",
"C  c #A5925C",
"Z  c #AB945C",
"A  c #AD995D",
"S  c #A69255",
"D  c #B3975A",
"F  c #B08F50",
"G  c #8C8368",
"H  c #9C8C63",
"J  c #978868",
"K  c #9D9269",
"L  c #988B75",
"P  c #9C9476",
"I  c #8C8574",
"U  c #A58D66",
"Y  c #A59564",
"T  c #AA9563",
"R  c #A59965",
"E  c #AC9A64",
"W  c #A4956A",
"Q  c #AA966B",
"!  c #A6996C",
"~  c #AB9B6C",
"^  c #B29C64",
"/  c #B29C6B",
"(  c #B69866",
")  c #A49572",
"_  c #A59C73",
"`  c #AB9D73",
"'  c #A59C7B",
"]  c #AB9D7B",
"[  c #A79578",
"{  c #B29D73",
"}  c #B49C79",
"|  c #AA8D6D",
" . c #ACA16C",
".. c #B4A26C",
"X. c #B9A368",
"o. c #ACA274",
"O. c #ACA37B",
"+. c #A9A479",
"@. c #B3A374",
"#. c #B3A47B",
"$. c #B4AA7D",
"%. c #BBAB7C",
"&. c #BAA677",
"*. c #BAB27D",
"=. c #A9A069",
"-. c #C4A978",
";. c #C5AD75",
":. c #C29D71",
">. c #9C9484",
",. c #A79B85",
"<. c #B29C88",
"1. c #ADA582",
"2. c #AEA983",
"3. c #ABA689",
"4. c #B3A582",
"5. c #B3AB85",
"6. c #BBAC83",
"7. c #B3AD8B",
"8. c #BBAD8B",
"9. c #B6A589",
"0. c #BDB184",
"q. c #B6B18D",
"w. c #BCB38C",
"e. c #B9B689",
"r. c #ACA695",
"t. c #B7AC95",
"y. c #B6B292",
"u. c #BBB493",
"i. c #BCB59A",
"p. c #BEBA9B",
"a. c #BCB995",
"s. c #AEB496",
"d. c #BBB7A4",
"f. c #B7AFA6",
"g. c #C3AC86",
"h. c #C4B284",
"j. c #C3B48B",
"k. c #C9B88A",
"l. c #C3B593",
"z. c #C3BA94",
"x. c #CBBC94",
"c. c #C3BC9C",
"v. c #CBBD9B",
"b. c #C6B599",
"n. c #D3BC97",
"m. c #CFB58D",
"M. c #C4BDA2",
"N. c #C7BBA6",
"B. c #CABBAE",
"V. c #E0BF92",
"C. c #BEC1A6",
"Z. c #C5C19D",
"A. c #CCC29D",
"S. c #CBC295",
"D. c #D3C39C",
"F. c #D7C69A",
"G. c #D0C38E",
"H. c #C6C2A3",
"J. c #CBC4A4",
"K. c #CCC5AA",
"L. c #CDCAAB",
"P. c #C9C7A7",
"I. c #D3C4A3",
"U. c #D3CAA5",
"Y. c #D3CCAC",
"T. c #DBCDAB",
"R. c #D8C8A6",
"E. c #D9D2AC",
"W. c #CBC8B5",
"Q. c #D3CDB3",
"!. c #D7CCB7",
"~. c #D4D1B4",
"^. c #DBD4B4",
"/. c #D5D3BB",
"(. c #DBD5BB",
"). c #DDD9BD",
"_. c #DAD9B8",
"`. c #CDD1B7",
"'. c #E2CCA7",
"]. c #E5D4AB",
"[. c #E3DBBC",
"{. c #E6D8B7",
"}. c #EBD5B7",
"|. c #FCE5AB",
" X c #FEECAB",
".X c #FDE7A6",
"XX c #FEF0AE",
"oX c #E9E1BC",
"OX c #FEEEB3",
"+X c #FCECBC",
"@X c #F8E6B6",
"#X c #FEF3B4",
"$X c #FEF9BC",
"%X c #FEF5B9",
"&X c #E1E1AD",
"*X c #E2C99A",
"=X c #DBD5C2",
"-X c #DDDBC4",
";X c #DDDDCB",
":X c #D7D5C6",
">X c #D5D0C8",
",X c #E3DCC3",
"<X c #E2DDCB",
"1X c #E8DAC5",
"2X c #E4DDD3",
"3X c #EFD9C8",
"4X c #DEE1CB",
"5X c #DEE3D3",
"6X c #E5E2C4",
"7X c #EBE3C4",
"8X c #E4E3CC",
"9X c #EBE5CB",
"0X c #EDE9CD",
"qX c #EBE9C8",
"wX c #FCEDC4",
"eX c #F3EBCC",
"rX c #F6E9C7",
"tX c #FDFCC4",
"yX c #FCF1CD",
"uX c #FEFECC",
"iX c #FCF1C4",
"pX c #E4E4D3",
"aX c #EBE5D3",
"sX c #ECEBD4",
"dX c #EBECDB",
"fX c #E7E7D9",
"gX c #F3EDD4",
"hX c #F4ECD9",
"jX c #EDF2DB",
"kX c #FCF4D4",
"lX c #FDFED3",
"zX c #F4F3DC",
"xX c #FDF6DA",
"cX c #FEFBDC",
"vX c #F5F2D6",
"bX c #ECEDE2",
"nX c #EAE8E4",
"mX c #F2EDE4",
"MX c #EEF2E2",
"NX c #EDF2E8",
"BX c #F3F4E4",
"VX c #FDFEE4",
"CX c #F4F5EA",
"ZX c #F6FAEC",
"AX c #FCFEEB",
"SX c #F9F6E6",
"DX c #FDFEF3",
"FX c #FDFDFD",
"GX c gray99",
"HX c white",
"JX c #FEFEFE",
"KX c #FDFEFD",
"LX c #FFFFFF",
"PX c #F7F7F4",
"IX c #EFFDF0",
"UX c #E0E3E3",
/* pixels */
"FXFXFXFXFXFXFXFXFXFXFXFXFXFXFXFXFXFXFXFXFXFXFXFXFXFXFXFXFXFXFXFXFXFXFXFXFXFXFXFXFXFXFXFXFXFXFXFXFXFXFXFXFXFXFXFXFXFXFXFXFXFXFXFXFXFXFXFXFXFXFXFXFXFXFXFXFXFXFXFXFXFXFXFXFXFXFXFXFXFXFXFXFXFXFXFXFXFXFXFXFXFXFXFXFXFXFXFXFXFXFXFXFXFXFXFXFXFXFXFXFXFXFXFXFXFXFXFXFXFXFXFXFXFXFXFXFXFXFXFXFXFXFXFXFXFXFXFXFXFXFXFXFXFXFXFXFXFXFXFXFXFXFXFXFXFXFXFXFXFXFXFXFXKXKXKXKXFXFXFXFXFXFXFXFXFXFXFXFXFXFXFXFXFXFXFXFXFXFXFXFXFXFXFXFXFXFXFXFXFXFXFXFXFXFXFXFXFXFXFXFXFXFXFXFXFXFXFXFXFXFXFXFXFXFXFXFXFXFXFXFXFXFXFXFXFXFXFXFXFXFXFXFXFXFXFXFXFXFXFXFXFXFXFXFXFXFXFXFXFXFXFXFXFXFXFXFXFXFXFXFXFXFXFXFXFXFXFXFXFXFXFXFXFXFXFXFXFXFXFX",
"FXFXFXFXFXFXFXFXFXFXFXFXFXFXFXFXFXFXFXFXFXFXFXFXFXFXFXFXFXFXFXFXFXFXFXFXFXFXFXFXFXFXFXFXFXFXFXFXFXFXFXFXFXFXFXFXFXFXFXFXFXFXFXFXFXFXFXFXFXFXFXFXFXFXFXFXFXFXFXFXFXFXFXFXFXFXFXFXFXFXFXFXFXFXFXFXFXFXFXFXFXFXFXFXFXFXFXFXFXFXFXFXFXFXFXFXFXFXFXFXFXFXFXFXFXFXFXFXFXFXFXFXFXFXFXFXFXFXFXFXFXFXFXFXFXFXFXFXFXFXFXFXFXFXFXFXFXFXFXFXFXFXFXFXFXFXFXFXFXFXFXFXFXFXFXFXFXFXFXFXFXFXFXFXFXFXFXFXFXFXFXFXFXFXFXFXFXFXFXFXFXFXFXFXFXFXFXFXFXFXFXFXFXFXFXFXFXFXFXFXFXFXFXFXFXFXFXFXFXFXFXFXFXFXFXFXFXFXFXFXFXFXFXFXFXFXFXFXFXFXFXFXFXFXFXFXFXFXFXFXFXFXFXFXFXFXFXFXFXFXFXFXFXFXFXFXFXFXFXFXFXFXFXFXFXFXFXFXFXFXFXFXFXFXFXFXFXFXFXFX",
"FXFXFXFXFXFXFXFXFXFXFXFXFXFXFXFXFXFXFXFXFXFXFXFXFXFXFXFXFXFXFXFXFXFXFXFXFXFXFXFXFXFXFXFXFXFXFXFXFXFXFXFXFXFXFXFXFXFXFXFXFXFXFXFXFXFXFXFXFXFXFXFXFXFXFXFXFXFXFXFXFXFXFXFXFXFXFXFXFXFXFXFXFXFXFXFXFXFXFXFXFXFXFXFXFXFXFXFXFXFXFXFXFXFXFXFXFXFXFXFXFXFXFXFXFXFXFXFXFXFXFXFXFXFXFXFXFXFXFXFXFXFXFXFXFXFXFXFXFXFXFXFXFXFXFXFXFXFXFXFXFXFXFXFXFXFXFXFXFXFXFXFXFXKXKXKXKXFXFXFXFXFXFXFXFXFXFXFXFXFXFXFXFXFXFXFXFXFXFXFXFXFXFXFXFXFXFXFXFXFXFXFXFXFXFXFXFXFXFXFXFXFXFXFXFXFXFXFXFXFXFXFXFXFXFXFXFXFXFXFXFXFXFXFXFXFXFXFXFXFXFXFXFXFXFXFXFXFXFXFXFXFXFXFXFXFXFXFXFXFXFXFXFXFXFXFXFXFXFXFXFXFXFXFXFXFXFXFXFXFXFXFXFXFXFXFXFXFXFXFX",
"FXFXFXFXFXFXFXFXFXFXFXFXFXFXFXFXFXFXFXFXFXFXFXFXFXFXFXFXFXFXFXFXFXFXFXFXFXFXFXFXFXFXFXFXFXFXFXFXFXFXFXFXFXFXFXFXFXFXFXFXFXFXFXFXFXFXFXFXFXFXFXFXFXFXFXFXFXFXFXFXFXFXFXFXFXFXFXFXFXFXFXFXFXFXFXFXFXFXFXFXFXFXFXFXFXFXFXFXFXFXFXFXFXFXFXFXFXFXFXFXFXFXFXFXFXFXFXFXFXFXFXFXFXFXFXFXFXFXFXFXFXFXFXFXFXFXFXFXFXFXFXFXFXFXFXFXFXFXFXFXFXFXFXFXFXFXFXFXFXFXFXFXFXFXFXFXFXFXFXFXFXFXFXFXFXFXFXFXFXFXFXFXFXFXFXFXFXFXFXFXFXFXFXFXFXFXFXFXFXFXFXFXFXFXFXFXFXFXFXFXFXFXFXFXFXFXFXFXFXFXFXFXFXFXFXFXFXFXFXFXFXFXFXFXFXFXFXFXFXFXFXFXFXFXFXFXFXFXFXFXFXFXFXFXFXFXFXFXFXFXFXFXFXFXFXFXFXFXFXFXFXFXFXFXFXFXFXFXFXFXFXFXFXFXFXFXFXFXFXFX",
"FXFXFXFXFXFXFXFXFXFXFXFXFXFXFXFXFXFXFXFXFXFXFXFXFXFXFXFXFXFXFXFXFXFXFXFXFXFXFXFXFXFXFXFXFXFXFXFXFXFXFXFXFXFXFXFXFXFXFXFXFXFXFXFXFXFXFXFXFXFXFXFXFXFXFXFXFXFXFXFXFXFXFXFXFXFXFXFXFXFXFXFXFXFXFXFXFXFXFXFXFXFXFXFXFXFXFXFXFXFXFXFXFXFXFXFXFXFXFXFXFXFXFXFXFXFXFXFXFXFXFXFXFXFXFXFXFXFXFXFXFXFXFXFXFXFXFXFXFXFXFXFXFXFXFXFXFXFXFXFXFXFXFXFXFXFXFXFXFXFXFXFXFXFXFXFXFXFXFXFXFXFXFXFXFXFXFXFXFXFXFXFXFXFXFXFXFXFXFXFXFXFXFXFXFXFXFXFXFXFXFXFXFXFXFXFXFXFXFXFXFXFXFXFXFXFXFXFXFXFXFXFXFXFXFXFXFXFXFXFXFXFXFXFXFXFXFXFXFXFXFXFXFXFXFXFXFXFXFXFXFXFXFXFXFXFXFXFXFXFXFXFXFXFXFXFXFXFXFXFXFXFXFXFXFXFXFXFXFXFXFXFXFXFXFXFXFXFXFXFX",
"FXFXFXFXFXFXFXFXFXFXFXFXFXFXFXFXFXFXFXFXFXFXFXFXFXFXFXFXFXFXFXFXFXFXFXFXFXFXFXFXFXFXFXFXFXFXFXFXFXFXFXFXFXFXFXFXFXFXFXFXFXFXFXFXFXFXFXFXFXFXFXFXFXFXFXFXFXFXFXFXFXFXFXFXFXFXFXFXFXFXFXFXFXFXFXFXFXFXFXFXFXFXFXFXFXFXFXFXFXFXFXFXFXFXFXFXFXFXFXFXFXFXFXFXFXFXFXFXFXFXFXFXFXFXFXFXFXFXFXFXGXGXPXKXKXKXKXPXGXFXnXDXDXKXFXFXFXDXPXDXKXGXFXFXKXFXFXFXFXFXFXFXFXFXFXFXFXFXFXFXFXFXFXFXFXFXFXFXFXFXFXFXFXFXFXFXFXFXFXFXFXFXFXFXFXFXFXFXFXFXFXFXFXFXFXFXFXFXFXFXFXFXFXFXFXFXFXFXFXFXFXFXFXFXFXFXFXFXFXFXFXFXFXFXFXFXFXFXFXFXFXFXFXFXFXFXFXFXFXFXFXFXFXFXFXFXFXFXFXFXFXFXFXFXFXFXFXFXFXFXFXFXFXFXFXFXFXFXFXFXFXFXFXFXFXFXFXFXFXFX",
"FXFXFXFXFXFXFXFXFXFXFXFXFXFXFXFXFXFXFXFXFXFXFXFXFXFXFXFXFXFXFXFXFXFXFXFXFXFXFXFXFXFXFXFXFXFXFXFXFXFXFXFXFXFXFXFXFXFXFXFXFXFXFXFXFXFXFXFXFXFXFXFXFXFXFXFXFXFXFXFXFXFXFXFXFXFXFXFXFXFXFXFXFXFXFXFXFXFXFXFXFXFXFXFXFXFXFXFXFXFXFXFXFXFXFXFXFXFXFXFXFXFXFXFXFXFXFXFXFXFXFXFXFXFXFXFXFXFXFXGXGXGXFXPX>X2XKXGXnXUXf.r.:XDXPXPXKXKXZXCXKXFXGXFXDXGXFXFXFXFXFXFXGXFXFXFXFXFXFXFXFXFXFXFXFXFXFXFXFXFXFXFXFXFXFXFXFXFXFXFXFXFXFXFXFXFXFXFXFXFXFXFXFXFXFXFXFXFXFXFXFXFXFXFXFXFXFXFXFXFXFXFXFXFXFXFXFXFXFXFXFXFXFXFXFXFXFXFXFXFXFXFXFXFXFXFXFXFXFXFXFXFXFXFXFXFXFXFXFXFXFXFXFXFXFXFXFXFXFXFXFXFXFXFXFXFXFXFXFXFXFXFXFXFXFXFXFXFXFXFX",
"FXFXFXFXFXFXFXFXFXFXFXFXFXFXFXFXFXFXFXFXFXFXFXFXFXFXFXFXFXFXFXFXFXFXFXFXFXFXFXFXFXFXFXFXFXFXFXFXFXFXFXFXFXFXFXFXFXFXFXFXFXFXFXFXFXFXFXFXFXFXFXFXFXFXFXFXFXFXFXFXFXFXFXFXFXFXFXFXFXFXFXFXFXFXFXFXFXFXFXFXFXFXFXFXFXFXFXFXFXFXFXFXFXFXFXFXFXFXFXFXFXFXFXFXFXFXFXFXFXFXFXFXFXFXFXPXPXFXGXPXFXDXCX2Xf.W.nXPXPXnX>Xr.d.bXDXPXbXdXB.f.fXFXPXDXKXFXFXGXFXFXFXFXFXFXFXFXFXFXFXFXFXFXFXFXFXFXFXFXFXFXFXFXFXFXFXFXFXFXFXFXFXFXFXFXFXFXFXFXFXFXFXFXFXFXFXFXFXFXFXFXFXFXFXFXFXFXFXFXFXFXFXFXFXFXFXFXFXFXFXFXFXFXFXFXFXFXFXFXFXFXFXFXFXFXFXFXFXFXFXFXFXFXFXFXFXFXFXFXFXFXFXFXFXFXFXFXFXFXFXFXFXFXFXFXFXFXFXFXFXFXFXFXFXFXFXFXFXFXFXFX",
"FXFXFXFXFXFXFXFXFXFXFXFXFXFXFXFXFXFXFXFXFXFXFXFXFXFXFXFXFXFXFXFXFXFXFXFXFXFXFXFXFXFXFXFXFXFXFXFXFXFXFXFXFXFXFXFXFXFXFXFXFXFXFXFXFXFXFXFXFXFXFXFXFXFXFXFXFXFXFXFXFXFXFXFXFXFXFXFXFXFXFXFXFXFXFXFXFXFXFXFXFXFXFXFXFXFXFXFXFXFXFXFXFXFXFXFXFXFXFXFXFXFXFXFXFXFXFXFXFXFXFXFXFXPXDXDXKXKXKXDXPXnX2X>X>XpXbXnXbXB.r.P d.hXbX>Xr.d.r.I d.GXFXKXDXFXPXPXFXFXGXGXFXFXFXFXFXFXFXFXFXFXFXFXFXFXFXFXFXFXFXFXFXFXFXFXFXFXFXFXFXFXFXFXFXFXFXFXFXFXFXFXFXFXFXFXFXFXFXFXFXFXFXFXFXFXFXFXFXFXFXFXFXFXFXFXFXFXFXFXFXFXFXFXFXFXFXFXFXFXFXFXFXFXFXFXFXFXFXFXFXFXFXFXFXFXFXFXFXFXFXFXFXFXFXFXFXFXFXFXFXFXFXFXFXFXFXFXFXFXFXFXFXFXFXFXFXFXFXFX",
"FXFXFXFXFXFXFXFXFXFXFXFXFXFXFXFXFXFXFXFXFXFXFXFXFXFXFXFXFXFXFXFXFXFXFXFXFXFXFXFXFXFXFXFXFXFXFXFXFXFXFXFXFXFXFXFXFXFXFXFXFXFXFXFXFXFXFXFXFXFXFXFXFXFXFXFXFXFXFXFXFXFXFXFXFXFXFXFXFXFXFXFXFXFXFXFXFXFXFXFXFXFXFXFXFXFXFXFXFXFXFXFXFXFXFXFXFXFXFXFXFXFXFXFXFXFXFXFXFXFXFXFXFXKXKXKXbX2XnXKXDXCX;Xd.d.fXCXfX>XB.t.t.r.d.>XN.>.I r.I >.>XmXCXCXKXKXGXFXKXGXGXFXFXFXFXFXFXFXFXFXFXFXFXFXFXFXFXFXFXFXFXFXFXFXFXFXFXFXFXFXFXFXFXFXFXFXFXFXFXFXFXFXFXFXFXFXFXFXFXFXFXFXFXFXFXFXFXFXFXFXFXFXFXFXFXFXFXFXFXFXFXFXFXFXFXFXFXFXFXFXFXFXFXFXFXFXFXFXFXFXFXFXFXFXFXFXFXFXFXFXFXFXFXFXFXFXFXFXFXFXFXFXFXFXFXFXFXFXFXFXFXFXFXFXFXFXFXFXFX",
"FXFXFXFXFXFXFXFXFXFXFXFXFXFXFXFXFXFXFXFXFXFXFXFXFXFXFXFXFXFXFXFXFXFXFXFXFXFXFXFXFXFXFXFXFXFXFXFXFXFXFXFXFXFXFXFXFXFXFXFXFXFXFXFXFXFXFXFXFXFXFXFXFXFXFXFXFXFXFXFXFXFXFXFXFXFXFXFXFXFXFXFXFXFXFXFXFXFXFXFXFXFXFXFXFXFXFXFXFXFXFXFXFXFXFXFXFXFXFXFXFXFXFXFXFXFXFXFXFXFXFXFXFXDXZXnX>Xf.>XNXNX2X:Xd.W.bXCX2XW.2XB.3.3 3 r.N.r.I r.>.L r.r.r.W.nXDXKXGXDXFXFXGXFXFXFXFXFXFXFXFXFXFXFXFXFXFXFXFXFXFXFXFXFXFXFXFXFXFXFXFXFXFXFXFXFXFXFXFXFXFXFXFXFXFXFXFXFXFXFXFXFXFXFXFXFXFXFXFXFXFXFXFXFXFXFXFXFXFXFXFXFXFXFXFXFXFXFXFXFXFXFXFXFXFXFXFXFXFXFXFXFXFXFXFXFXFXFXFXFXFXFXFXFXFXFXFXFXFXFXFXFXFXFXFXFXFXFXFXFXFXFXFXFXFXFXFXFXFXFX",
"FXFXFXFXFXFXFXFXFXFXFXFXFXFXFXFXFXFXFXFXFXFXFXFXFXFXFXFXFXFXFXFXFXFXFXFXFXFXFXFXFXFXFXFXFXFXFXFXFXFXFXFXFXFXFXFXFXFXFXFXFXFXFXFXFXFXFXFXFXFXFXFXFXFXFXFXFXFXFXFXFXFXFXFXFXFXFXFXFXFXFXFXFXFXFXFXFXFXFXFXFXFXFXFXFXFXFXFXFXFXFXFXFXFXFXFXFXFXFXFXFXFXFXFXFXFXFXFXFXFXFXFXFXDXDXfX>X>XpXCXmXfXpXW.>XdXdXfXbX<X,.3 G 3.N.B.W.r.r.t.K.>XB.B.aX>XfXCXDXKXFXFXGXFXFXFXFXFXFXFXFXFXFXFXFXFXFXFXFXFXFXFXFXFXFXFXFXFXFXFXFXFXFXFXFXFXFXFXFXFXFXFXFXFXFXFXFXFXFXFXFXFXFXFXFXFXFXFXFXFXFXFXFXFXFXFXFXFXFXFXFXFXFXFXFXFXFXFXFXFXFXFXFXFXFXFXFXFXFXFXFXFXFXFXFXFXFXFXFXFXFXFXFXFXFXFXFXFXFXFXFXFXFXFXFXFXFXFXFXFXFXFXFXFXFXFXFXFXFXFX",
"FXFXFXFXFXFXFXFXFXFXFXFXFXFXFXFXFXFXFXFXFXFXFXFXFXFXFXFXFXFXFXFXFXFXFXFXFXFXFXFXFXFXFXFXFXFXFXFXFXFXFXFXFXFXFXFXFXFXFXFXFXFXFXFXFXFXFXFXFXFXFXFXFXFXFXFXFXFXFXFXFXFXFXFXFXFXFXFXFXFXFXFXFXFXFXFXFXFXFXFXFXFXFXFXFXFXFXFXFXFXFXFXFXFXFXFXFXFXFXFXFXFXFXFXFXFXFXFXFXFXFXFXFXDXbXd.r.W.fXfXfX:X2XW.>XfXfX2X2X!.N.r.!.aX!.W.:XW.t.M.=X2X:XB.i.d.>XfXKXFXGXGXFXFXFXFXFXFXFXFXFXFXFXFXFXFXFXFXFXFXFXFXFXFXFXFXFXFXFXFXFXFXFXFXFXFXFXFXFXFXFXFXFXFXFXFXFXFXFXFXFXFXFXFXFXFXFXFXFXFXFXFXFXFXFXFXFXFXFXFXFXFXFXFXFXFXFXFXFXFXFXFXFXFXFXFXFXFXFXFXFXFXFXFXFXFXFXFXFXFXFXFXFXFXFXFXFXFXFXFXFXFXFXFXFXFXFXFXFXFXFXFXFXFXFXFXFXFXFXFX",
"FXFXFXFXFXFXFXFXFXFXFXFXFXFXFXFXFXFXFXFXFXFXFXFXFXFXFXFXFXFXFXFXFXFXFXFXFXFXFXFXFXFXFXFXFXFXFXFXFXFXFXFXFXFXFXFXFXFXFXFXFXFXFXFXFXFXFXFXFXFXFXFXFXFXFXFXFXFXFXFXFXFXFXFXFXFXFXFXFXFXFXFXFXFXFXFXFXFXFXFXFXFXFXFXFXFXFXFXFXFXFXFXFXFXFXFXFXFXFXFXFXFXFXFXFXFXPXKXFXGXKXFXGXmX:X!.4XZXZXdXt.<.W.W.5XfX:XdX=Xr.N.f.<X;XW.aX1Xt.r.,.t.=XB.,.9.1.I W.DXGXFXFXGXFXFXGXFXFXFXFXFXFXFXFXFXFXFXFXFXFXFXFXFXFXFXFXFXFXFXFXFXFXFXFXFXFXFXFXFXFXFXFXFXFXFXFXFXFXFXFXFXFXFXFXFXFXFXFXFXFXFXFXFXFXFXFXFXFXFXFXFXFXFXFXFXFXFXFXFXFXFXFXFXFXFXFXFXFXFXFXFXFXFXFXFXFXFXFXFXFXFXFXFXFXFXFXFXFXFXFXFXFXFXFXFXFXFXFXFXFXFXFXFXFXFXFXFXFXFXFX",
"FXFXFXFXFXFXFXFXFXFXFXFXFXFXFXFXFXFXFXFXFXFXFXFXFXFXFXFXFXFXFXFXFXFXFXFXFXFXFXFXFXFXFXFXFXFXFXFXFXFXFXFXFXFXFXFXFXFXFXFXFXFXFXFXFXFXFXFXFXFXFXFXFXFXFXFXFXFXFXFXFXFXFXFXFXFXFXFXFXFXFXFXFXFXFXFXFXFXFXFXFXFXFXFXFXFXFXFXFXFXFXFXFXFXFXFXFXFXFXFXFXFXFXFXFXGXFXFXDXKXFXKXCXbXdXsXdXDXdXW.N.N.t.:XbXfXbX!.I ,.N.L f.pXW.d.N.s G L I ,.3.L #.P 3 d.DXKXPXGXFXGXGXGXFXFXFXFXFXFXFXFXFXFXFXFXFXFXFXFXFXFXFXFXFXFXFXFXFXFXFXFXFXFXFXFXFXFXFXFXFXFXFXFXFXFXFXFXFXFXFXFXFXFXFXFXFXFXFXFXFXFXFXFXFXFXFXFXFXFXFXFXFXFXFXFXFXFXFXFXFXFXFXFXFXFXFXFXFXFXFXFXFXFXFXFXFXFXFXFXFXFXFXFXFXFXFXFXFXFXFXFXFXFXFXFXFXFXFXFXFXFXFXFXFXFXFXFX",
"FXFXFXFXFXFXFXFXFXFXFXFXFXFXFXFXFXFXFXFXFXFXFXFXFXFXFXFXFXFXFXFXFXFXFXFXFXFXFXFXFXFXFXFXFXFXFXFXFXFXFXFXFXFXFXFXFXFXFXFXFXFXFXFXFXFXFXFXFXFXFXFXFXFXFXFXFXFXFXFXFXFXFXFXFXFXFXFXFXFXFXFXFXFXFXFXFXFXFXFXFXFXFXFXFXFXFXFXFXFXFXFXFXFXFXFXFXFXFXFXFXFXFXFXFXDXFXKXPXKXKXCXPXfX2XpX;XbXbX:X=Xb.d.bXCXfX2Xd.P K.<.3 ,.:X`.d.r.J J [ 3 2 u J 6.i.G ,.fXKXKXKXPXGXFXGXFXFXFXFXFXFXFXFXFXFXFXFXFXFXFXFXFXFXFXFXFXFXFXFXFXFXFXFXFXFXFXFXFXFXFXFXFXFXFXFXFXFXFXFXFXFXFXFXFXFXFXFXFXFXFXFXFXFXFXFXFXFXFXFXFXFXFXFXFXFXFXFXFXFXFXFXFXFXFXFXFXFXFXFXFXFXFXFXFXFXFXFXFXFXFXFXFXFXFXFXFXFXFXFXFXFXFXFXFXFXFXFXFXFXFXFXFXFXFXFXFXFXFXFX",
"FXFXFXFXFXFXFXFXFXFXFXFXFXFXFXFXFXFXFXFXFXFXFXFXFXFXFXFXFXFXFXFXFXFXFXFXFXFXFXFXFXFXFXFXFXFXFXFXFXFXFXFXFXFXFXFXFXFXFXFXFXFXFXFXFXFXFXFXFXFXFXFXFXFXFXFXFXFXFXFXFXFXFXFXFXFXFXFXFXFXFXFXFXFXFXFXFXFXFXFXFXFXFXFXFXFXFXFXFXFXFXFXFXFXFXFXFXFXFXFXFXFXFXFXFXFXFXDXPXNX2XfXCXfX2XdXfX2X2X=Xt.<.=XbXbX2X!.!.I.9.s 3 L ,.d.B.r.] [ [ 3 $ - - y 3.P P d.>XpXZXDXFXFXGXFXFXGXFXFXFXFXFXFXFXFXFXFXFXFXFXFXFXFXFXFXFXFXFXFXFXFXFXFXFXFXFXFXFXFXFXFXFXFXFXFXFXFXFXFXFXFXFXFXFXFXFXFXFXFXFXFXFXFXFXFXFXFXFXFXFXFXFXFXFXFXFXFXFXFXFXFXFXFXFXFXFXFXFXFXFXFXFXFXFXFXFXFXFXFXFXFXFXFXFXFXFXFXFXFXFXFXFXFXFXFXFXFXFXFXFXFXFXFXFXFXFXFXFX",
"FXFXFXFXFXFXFXFXFXFXFXFXFXFXFXFXFXFXFXFXFXFXFXFXFXFXFXFXFXFXFXFXFXFXFXFXFXFXFXFXFXFXFXFXFXFXFXFXFXFXFXFXFXFXFXFXFXFXFXFXFXFXFXFXFXFXFXFXFXFXFXFXFXFXFXFXFXFXFXFXFXFXFXFXFXFXFXFXFXFXFXFXFXFXFXFXFXFXFXFXFXFXFXFXFXFXFXFXFXFXFXFXFXFXFXFXFXFXFXFXFXFXFXFXFXFXGXDXNX>X>X:XfXbXdXdXdX:X>X!.<.K.dXbXfX>X:X{.] y J I s >.B.d.,.s L ,.>.>.L s L ,.3.L I r.d.W.;XPXKXGXKXFXGXFXFXFXFXFXFXFXFXFXFXFXFXFXFXFXFXFXFXFXFXFXFXFXFXFXFXFXFXFXFXFXFXFXFXFXFXFXFXFXFXFXFXFXFXFXFXFXFXFXFXFXFXFXFXFXFXFXFXFXFXFXFXFXFXFXFXFXFXFXFXFXFXFXFXFXFXFXFXFXFXFXFXFXFXFXFXFXFXFXFXFXFXFXFXFXFXFXFXFXFXFXFXFXFXFXFXFXFXFXFXFXFXFXFXFXFXFXFXFXFXFX",
"FXFXFXFXFXFXFXFXFXFXFXFXFXFXFXFXFXFXFXFXFXFXFXFXFXFXFXFXFXFXFXFXFXFXFXFXFXFXFXFXFXFXFXFXFXFXFXFXFXFXFXFXFXFXFXFXFXFXFXFXFXFXFXFXFXFXFXFXFXFXFXFXFXFXFXFXFXFXFXFXFXFXFXFXFXFXFXFXFXFXFXFXFXFXFXFXFXFXFXFXFXFXFXFXFXFXFXFXFXFXFXFXFXFXFXFXFXFXFXFXFXFXFXFXFXFXKXKXnX>X:XfXpXdX2XB.>XfXfXaX3X!.;XnXnXnX<Xi.L ,.t.r.r.!.;XW.t.r.B.W.!.:XN.3.1.M.M.9.,.t.r.,.s.fXDXKXFXFXFXFXFXFXFXFXFXFXFXFXFXFXFXFXFXFXFXFXFXFXFXFXFXFXFXFXFXFXFXFXFXFXFXFXFXFXFXFXFXFXFXFXFXFXFXFXFXFXFXFXFXFXFXFXFXFXFXFXFXFXFXFXFXFXFXFXFXFXFXFXFXFXFXFXFXFXFXFXFXFXFXFXFXFXFXFXFXFXFXFXFXFXFXFXFXFXFXFXFXFXFXFXFXFXFXFXFXFXFXFXFXFXFXFXFXFXFXFXFXFXFXFX",
"FXFXFXFXFXFXFXFXFXFXFXFXFXFXFXFXFXFXFXFXFXFXFXFXFXFXFXFXFXFXFXFXFXFXFXFXFXFXFXFXFXFXFXFXFXFXFXFXFXFXFXFXFXFXFXFXFXFXFXFXFXFXFXFXFXFXFXFXFXFXFXFXFXFXFXFXFXFXFXFXFXFXFXFXFXFXFXFXFXFXFXFXFXFXFXFXFXFXFXFXFXFXFXFXFXFXFXFXFXFXFXFXFXFXFXFXFXFXFXFXFXFXFXFXFXKXFXDXnXfXbXbX<X8X!.f.:XPXDX2X1Xf.d.fXnXnX2XN.M.d.d.=XdX2X`.W.W.r.r.W.:X:XM.,.9.y.7.N.K.M.3.P y.>XPXKXKXFXFXFXFXFXFXFXFXFXFXFXFXFXFXFXFXFXFXFXFXFXFXFXFXFXFXFXFXFXFXFXFXFXFXFXFXFXFXFXFXFXFXFXFXFXFXFXFXFXFXFXFXFXFXFXFXFXFXFXFXFXFXFXFXFXFXFXFXFXFXFXFXFXFXFXFXFXFXFXFXFXFXFXFXFXFXFXFXFXFXFXFXFXFXFXFXFXFXFXFXFXFXFXFXFXFXFXFXFXFXFXFXFXFXFXFXFXFXFXFXFXFXFX",
"FXFXFXFXFXFXFXFXFXFXFXFXFXFXFXFXFXFXFXFXFXFXFXFXFXFXFXFXFXFXFXFXFXFXFXFXFXFXFXFXFXFXFXFXFXFXFXFXFXFXFXFXFXFXFXFXFXFXFXFXFXFXFXFXFXFXFXFXFXFXFXFXFXFXFXFXFXFXFXFXFXFXFXFXFXFXFXFXFXFXFXFXFXFXFXFXFXFXFXFXFXFXFXFXFXFXFXFXFXFXFXFXFXFXFXFXFXFXFXFXFXFXFXFXFXFXKXbXbXDXCX:XW.=XN.!.aXnXnXB.,.W.B.nXUX>X2X<Xr.r.N.2XmX;XW.W.K.,.I W.zX8XM.L <.P 3 ,.b.y.3.L L >XDXKXDXKXFXFXFXFXFXFXFXFXFXFXFXFXFXFXFXFXFXFXFXFXFXFXFXFXFXFXFXFXFXFXFXFXFXFXFXFXFXFXFXFXFXFXFXFXFXFXFXFXFXFXFXFXFXFXFXFXFXFXFXFXFXFXFXFXFXFXFXFXFXFXFXFXFXFXFXFXFXFXFXFXFXFXFXFXFXFXFXFXFXFXFXFXFXFXFXFXFXFXFXFXFXFXFXFXFXFXFXFXFXFXFXFXFXFXFXFXFXFXFXFXFXFX",
"FXFXFXFXFXFXFXFXFXFXFXFXFXFXFXFXFXFXFXFXFXFXFXFXFXFXFXFXFXFXFXFXFXFXFXFXFXFXFXFXFXFXFXFXFXFXFXFXFXFXFXFXFXFXFXFXFXFXFXFXFXFXFXFXFXFXFXFXFXFXFXFXFXFXFXFXFXFXFXFXFXFXFXFXFXFXFXFXFXFXFXFXFXFXFXFXFXFXFXFXFXFXFXFXFXFXFXFXFXFXFXFXFXFXFXFXFXFXFXFXFXFXFXFXFXPXFXnXCXZXpXhX9XK.Q.hX2X<X<Xt.s.Q.>XDXZXW.K.(.,.[ t./.fX<XW.M.,.J L I.7Xb.) L L H H H [ ] 4.L L d.PXGXFXFXFXPXKXFXFXFXFXFXFXFXFXFXFXFXFXFXFXFXFXFXFXFXFXFXFXFXFXFXFXFXFXFXFXFXFXFXFXFXFXFXFXFXFXFXFXFXFXFXFXFXFXFXFXFXFXFXFXFXFXFXFXFXFXFXFXFXFXFXFXFXFXFXFXFXFXFXFXFXFXFXFXFXFXFXFXFXFXFXFXFXFXFXFXFXFXFXFXFXFXFXFXFXFXFXFXFXFXFXFXFXFXFXFXFXFXFXFXFXFXFXFXFX",
"FXFXFXFXFXFXFXFXFXFXFXFXFXFXFXFXFXFXFXFXFXFXFXFXFXFXFXFXFXFXFXFXFXFXFXFXFXFXFXFXFXFXFXFXFXFXFXFXFXFXFXFXFXFXFXFXFXFXFXFXFXFXFXFXFXFXFXFXFXFXFXFXFXFXFXFXFXFXFXFXFXFXFXFXFXFXFXFXFXFXFXFXFXFXFXFXFXFXFXFXFXFXFXFXFXFXFXFXFXFXFXFXFXFXFXFXFXFXFXFXFXFXFXFXFXFXDXfXbXZXdX=XK.t.=XzXmX2X!.W.W.N.2XPXbX;XK.r.P b.,.s.<X<XN.,.G ) y ] I.8.J J l ! y y [ ,.4.G 3 f.DXKXGXFXFXFXFXFXFXFXFXFXFXFXFXFXFXFXFXFXFXFXFXFXFXFXFXFXFXFXFXFXFXFXFXFXFXFXFXFXFXFXFXFXFXFXFXFXFXFXFXFXFXFXFXFXFXFXFXFXFXFXFXFXFXFXFXFXFXFXFXFXFXFXFXFXFXFXFXFXFXFXFXFXFXFXFXFXFXFXFXFXFXFXFXFXFXFXFXFXFXFXFXFXFXFXFXFXFXFXFXFXFXFXFXFXFXFXFXFXFXFXFXFXFXFX",
"FXFXFXFXFXFXFXFXFXFXFXFXFXFXFXFXFXFXFXFXFXFXFXFXFXFXFXFXFXFXFXFXFXFXFXFXFXFXFXFXFXFXFXFXFXFXFXFXFXFXFXFXFXFXFXFXFXFXFXFXFXFXFXFXFXFXFXFXFXFXFXFXFXFXFXFXFXFXFXFXFXFXFXFXFXFXFXFXFXFXFXFXFXFXFXFXFXFXFXFXFXFXFXFXFXFXFXFXFXFXFXFXFXFXFXFXFXFXFXFXGXFXFXGXPXCXnX;XpXbX<XB.d.W.BXZXbX2X<XW.t.>.;XPXfXW.3.P t.N.s >.zXaXt.P 9.4.i y 9.#.U U Q o.2 - 2 J b.[ < f.SXKXDXGXFXGXGXFXFXFXFXFXFXFXFXFXFXFXFXFXFXFXFXFXFXFXFXFXFXFXFXFXFXFXFXFXFXFXFXFXFXFXFXFXFXFXFXFXFXFXFXFXFXFXFXFXFXFXFXFXFXFXFXFXFXFXFXFXFXFXFXFXFXFXFXFXFXFXFXFXFXFXFXFXFXFXFXFXFXFXFXFXFXFXFXFXFXFXFXFXFXFXFXFXFXFXFXFXFXFXFXFXFXFXFXFXFXFXFXFXFXFXFXFXFXFX",
"FXFXFXFXFXFXFXFXFXFXFXFXFXFXFXFXFXFXFXFXFXFXFXFXFXFXFXFXFXFXFXFXFXFXFXFXFXFXFXFXFXFXFXFXFXFXFXFXFXFXFXFXFXFXFXFXFXFXFXFXFXFXFXFXFXFXFXFXFXFXFXFXFXFXFXFXFXFXFXFXFXFXFXFXFXFXFXFXFXFXFXFXFXFXFXFXFXFXFXFXFXFXFXFXFXFXFXFXFXFXFXFXFXFXFXFXFXFXFXKXGXGXKXPXnXnXbXmXSXdX:X:X<XdXdXfX>X>XW.r.>.f.>X2XfXN.t.t.b.s 3 r.!.W.i.P ,.s - < J J y y e y 2 ; ; i 1.[ y ,.!.<XbXDXFXPXFXFXFXFXFXFXFXFXFXFXFXFXFXFXFXFXFXFXFXFXFXFXFXFXFXFXFXFXFXFXFXFXFXFXFXFXFXFXFXFXFXFXFXFXFXFXFXFXFXFXFXFXFXFXFXFXFXFXFXFXFXFXFXFXFXFXFXFXFXFXFXFXFXFXFXFXFXFXFXFXFXFXFXFXFXFXFXFXFXFXFXFXFXFXFXFXFXFXFXFXFXFXFXFXFXFXFXFXFXFXFXFXFXFXFXFXFXFXFXFX",
"FXFXFXFXFXFXFXFXFXFXFXFXFXFXFXFXFXFXFXFXFXFXFXFXFXFXFXFXFXFXFXFXFXFXFXFXFXFXFXFXFXFXFXFXFXFXFXFXFXFXFXFXFXFXFXFXFXFXFXFXFXFXFXFXFXFXFXFXFXFXFXFXFXFXFXFXFXFXFXFXFXFXFXFXFXFXFXFXFXFXFXFXFXFXFXFXFXFXFXFXFXFXFXFXFXFXFXFXFXFXFXFXFXFXFXFXFXFXFXGXGXKXDXNXfXfXmXfXdX:XB.2XSXmX2X:X>X>XN.N.>X2XB.f.!.d.M.i.,.s I r.f.B.M.J J L I ,.c.t.] J 3 2 2 y J K G 3 J ,.,.3.W.mXKXPXFXFXFXFXFXFXFXFXFXFXFXFXFXFXFXFXFXFXFXFXFXFXFXFXFXFXFXFXFXFXFXFXFXFXFXFXFXFXFXFXFXFXFXFXFXFXFXFXFXFXFXFXFXFXFXFXFXFXFXFXFXFXFXFXFXFXFXFXFXFXFXFXFXFXFXFXFXFXFXFXFXFXFXFXFXFXFXFXFXFXFXFXFXFXFXFXFXFXFXFXFXFXFXFXFXFXFXFXFXFXFXFXFXFXFXFXFXFXFXFX",
"FXFXFXFXFXFXFXFXFXFXFXFXFXFXFXFXFXFXFXFXFXFXFXFXFXFXFXFXFXFXFXFXFXFXFXFXFXFXFXFXFXFXFXFXFXFXFXFXFXFXFXFXFXFXFXFXFXFXFXFXFXFXFXFXFXFXFXFXFXFXFXFXFXFXFXFXFXFXFXFXFXFXFXFXFXFXFXFXFXFXFXFXFXFXFXFXFXFXFXFXFXFXFXFXFXFXFXFXFXFXFXFXFXFXFXFXFXFXKXGXKXDXPXbXfXbXfXW.>XW.f.2XdXfXnXW.5XbX2XSXdX2XW.r.t.M.K.N.d.B.f.f.d.2X!.i.!.pXaXzXhX-X~.Y.i.P L J O.4.J 4 L <.G G 1.W.mXPXGXFXFXFXFXFXFXFXFXFXFXFXFXFXFXFXFXFXFXFXFXFXFXFXFXFXFXFXFXFXFXFXFXFXFXFXFXFXFXFXFXFXFXFXFXFXFXFXFXFXFXFXFXFXFXFXFXFXFXFXFXFXFXFXFXFXFXFXFXFXFXFXFXFXFXFXFXFXFXFXFXFXFXFXFXFXFXFXFXFXFXFXFXFXFXFXFXFXFXFXFXFXFXFXFXFXFXFXFXFXFXFXFXFXFXFXFXFXFXFX",
"FXFXFXFXFXFXFXFXFXFXFXFXFXFXFXFXFXFXFXFXFXFXFXFXFXFXFXFXFXFXFXFXFXFXFXFXFXFXFXFXFXFXFXFXFXFXFXFXFXFXFXFXFXFXFXFXFXFXFXFXFXFXFXFXFXFXFXFXFXFXFXFXFXFXFXFXFXFXFXFXFXFXFXFXFXFXFXFXFXFXFXFXFXFXFXFXFXFXFXFXFXFXFXFXFXFXFXFXFXFXFXFXFXFXFXFXFXFXGXGXKXPXCXmXmXAX2XW.:X:X>XdXdX>X;Xf.>XmXmXSXW.;X>Xr.r.0XhX-XpX1X!.f.f.;XSXSXAXSXaX<X/.K.K.Q.K.i.b.5.' K ) J P L G J J L <XKXFXFXFXFXFXFXFXFXFXFXFXFXFXFXFXFXFXFXFXFXFXFXFXFXFXFXFXFXFXFXFXFXFXFXFXFXFXFXFXFXFXFXFXFXFXFXFXFXFXFXFXFXFXFXFXFXFXFXFXFXFXFXFXFXFXFXFXFXFXFXFXFXFXFXFXFXFXFXFXFXFXFXFXFXFXFXFXFXFXFXFXFXFXFXFXFXFXFXFXFXFXFXFXFXFXFXFXFXFXFXFXFXFXFXFXFXFXFXFXFX",
"FXFXFXFXFXFXFXFXFXFXFXFXFXFXFXFXFXFXFXFXFXFXFXFXFXFXFXFXFXFXFXFXFXFXFXFXFXFXFXFXFXFXFXFXFXFXFXFXFXFXFXFXFXFXFXFXFXFXFXFXFXFXFXFXFXFXFXFXFXFXFXFXFXFXFXFXFXFXFXFXFXFXFXFXFXFXFXFXFXFXFXFXFXFXFXFXFXFXFXFXFXFXFXFXFXFXFXFXFXFXFXFXFXFXFXFXFXFXGXKXDXCXnXbXZXdX>XW.2X2X2X2XfX>XB.f.>XdX2X2X;Xr.B.f.r.gXsXW.>X1XB.>.f.2XZXSXdXaX=X(./.K.M.p.t.M.i.1.K _ u.' y d ] w.l < N.GXGXFXFXFXFXFXFXFXFXFXFXFXFXFXFXFXFXFXFXFXFXFXFXFXFXFXFXFXFXFXFXFXFXFXFXFXFXFXFXFXFXFXFXFXFXFXFXFXFXFXFXFXFXFXFXFXFXFXFXFXFXFXFXFXFXFXFXFXFXFXFXFXFXFXFXFXFXFXFXFXFXFXFXFXFXFXFXFXFXFXFXFXFXFXFXFXFXFXFXFXFXFXFXFXFXFXFXFXFXFXFXFXFXFXFXFXFXFXFXFX",
"FXFXFXFXFXFXFXFXFXFXFXFXFXFXFXFXFXFXFXFXFXFXFXFXFXFXFXFXFXFXFXFXFXFXFXFXFXFXFXFXFXFXFXFXFXFXFXFXFXFXFXFXFXFXFXFXFXFXFXFXFXFXFXFXFXFXFXFXFXFXFXFXFXFXFXFXFXFXFXFXFXFXFXFXFXFXFXFXFXFXFXFXFXFXFXFXFXFXFXFXFXFXFXFXFXFXFXFXFXFXFXFXFXFXFXFXFXFXGXPXDXZXdX2X;XB.:X>X>XbX2X>X>X>XW.B.fXDXfX1X(.>.f.r.B.nXfX;XW.pXB.d r.2XKXPXmXpX-X/.P.Z.p.y.7.3.u.q.y u @._ c w l { U 1 <.GXGXGXFXGXFXFXPXFXFXGXFXFXFXFXFXFXFXFXFXFXFXFXFXFXFXFXFXFXFXFXFXFXFXFXFXFXFXFXFXFXFXFXFXFXFXFXFXFXFXFXFXFXFXFXFXFXFXFXFXFXFXFXFXFXFXFXFXFXFXFXFXFXFXFXFXFXFXFXFXFXFXFXFXFXFXFXFXFXFXFXFXFXFXFXFXFXFXFXFXFXFXFXFXFXFXFXFXFXFXFXFXFXFXFXFXFXFXFXFXFX",
"FXFXFXFXFXFXFXFXFXFXFXFXFXFXFXFXFXFXFXFXFXFXFXFXFXFXFXFXFXFXFXFXFXFXFXFXFXFXFXFXFXFXFXFXFXFXFXFXFXFXFXFXFXFXFXFXFXFXFXFXFXFXFXFXFXFXFXFXFXFXFXFXFXFXFXFXFXFXFXFXFXFXFXFXFXFXFXFXFXFXFXFXFXFXFXFXFXFXFXFXFXFXFXFXFXFXFXFXFXFXFXFXFXFXFXFXFXPXbXdXbXfX;X2XmX2X2X>X>XSXDXfX>X:Xr.B.CXCXSX2X<.L B.f.W.fXfXaX!.^.,.d B.BXDXBXmX;X:X`.H.p.y.3.1.1.y.c.J ; u _ y ; e &.u 4 K.DXFXKXFXGXPXGXFXFXPXGXFXFXFXFXFXFXFXFXFXFXFXFXFXFXFXFXFXFXFXFXFXFXFXFXFXFXFXFXFXFXFXFXFXFXFXFXFXFXFXFXFXFXFXFXFXFXFXFXFXFXFXFXFXFXFXFXFXFXFXFXFXFXFXFXFXFXFXFXFXFXFXFXFXFXFXFXFXFXFXFXFXFXFXFXFXFXFXFXFXFXFXFXFXFXFXFXFXFXFXFXFXFXFXFXFXFXFXFXFXFX",
"FXFXFXFXFXFXFXFXFXFXFXFXFXFXFXFXFXFXFXFXFXFXFXFXFXFXFXFXFXFXFXFXFXFXFXFXFXFXFXFXFXFXFXFXFXFXFXFXFXFXFXFXFXFXFXFXFXFXFXFXFXFXFXFXFXFXFXFXFXFXFXFXFXFXFXFXFXFXFXFXFXFXFXFXFXFXFXFXFXFXFXFXFXFXFXFXFXFXFXFXFXFXFXFXFXFXFXFXFXFXFXFXFXFXFXFXFXCXfX:X;X;X:XpXCXDX:X>X>XmXpXpXdXf.>.>XDXCXfXB.>.r.t.,.W.pX/.Q.9.[ J [ !.zXAXDXmX2X:XW.H.i.7.3.' 3.1.J.w.2 w 4.J ; u 6.e 2 t.Q.!.pXPXKXPXPXFXFXPXGXFXFXFXFXFXFXFXFXFXFXFXFXFXFXFXFXFXFXFXFXFXFXFXFXFXFXFXFXFXFXFXFXFXFXFXFXFXFXFXFXFXFXFXFXFXFXFXFXFXFXFXFXFXFXFXFXFXFXFXFXFXFXFXFXFXFXFXFXFXFXFXFXFXFXFXFXFXFXFXFXFXFXFXFXFXFXFXFXFXFXFXFXFXFXFXFXFXFXFXFXFXFXFXFXFXFXFXFXFXFX",
"FXFXFXFXFXFXFXFXFXFXFXFXFXFXFXFXFXFXFXFXFXFXFXFXFXFXFXFXFXFXFXFXFXFXFXFXFXFXFXFXFXFXFXFXFXFXFXFXFXFXFXFXFXFXFXFXFXFXFXFXFXFXFXFXFXFXFXFXFXFXFXFXFXFXFXFXFXFXFXFXFXFXFXFXFXFXFXFXFXFXFXFXFXFXFXFXFXFXFXFXFXFXFXFXFXFXFXFXFXFXFXFXKXKXFXFXGXZX;XB.d.W.;XnXCXmX>X>X>XNXmX2XW.>.r.;XmXbX;XB.N.<.s I W.-XW.K.[ f U b.<XdXDXDXbXpX:XW.p.y.7.1.' 3.P c.J.y y 4.3 : u O.y - 3 L L d.8XDXKXKXPXFXFXGXFXFXFXFXFXFXFXFXFXFXFXFXFXFXFXFXFXFXFXFXFXFXFXFXFXFXFXFXFXFXFXFXFXFXFXFXFXFXFXFXFXFXFXFXFXFXFXFXFXFXFXFXFXFXFXFXFXFXFXFXFXFXFXFXFXFXFXFXFXFXFXFXFXFXFXFXFXFXFXFXFXFXFXFXFXFXFXFXFXFXFXFXFXFXFXFXFXFXFXFXFXFXFXFXFXFXFXFXFXFX",
"FXFXFXFXFXFXFXFXFXFXFXFXFXFXFXFXFXFXFXFXFXFXFXFXFXFXFXFXFXFXFXFXFXFXFXFXFXFXFXFXFXFXFXFXFXFXFXFXFXFXFXFXFXFXFXFXFXFXFXFXFXFXFXFXFXFXFXFXFXFXFXFXFXFXFXFXFXFXFXFXFXFXFXFXFXFXFXFXFXFXFXFXFXFXFXFXFXFXFXFXFXFXFXFXFXFXFXFXFXFXFXFXKXKXKXDXDXmX;X>X>X;X:X2XbX>XB.>X2XNX2XW.>.t.=XdXmXnX2X>Xf.>.L r.W.W.!.N.9.| J d.dXNXNXZXBX8X/.M.8.1.O.O.O.' ' c.z.y i L - - i J J c y J 4.7.N.=XCXKXPXPXFXGXFXFXFXFXFXFXFXFXFXFXFXFXFXFXFXFXFXFXFXFXFXFXFXFXFXFXFXFXFXFXFXFXFXFXFXFXFXFXFXFXFXFXFXFXFXFXFXFXFXFXFXFXFXFXFXFXFXFXFXFXFXFXFXFXFXFXFXFXFXFXFXFXFXFXFXFXFXFXFXFXFXFXFXFXFXFXFXFXFXFXFXFXFXFXFXFXFXFXFXFXFXFXFXFXFXFXFXFXFXFX",
"FXFXFXFXFXFXFXFXFXFXFXFXFXFXFXFXFXFXFXFXFXFXFXFXFXFXFXFXFXFXFXFXFXFXFXFXFXFXFXFXFXFXFXFXFXFXFXFXFXFXFXFXFXFXFXFXFXFXFXFXFXFXFXFXFXFXFXFXFXFXFXFXFXFXFXFXFXFXFXFXFXFXFXFXFXFXFXFXFXFXFXFXFXFXFXFXFXFXFXFXFXFXFXFXFXFXFXFXFXKXFXFXDXDXDXPXPXbXfXmXSX2Xd.B.2XW.>X2X2X>Xd.B.W.aXhX!.>XpX>XB.B.!.=X<XB.W.!.r.t.<.,.W.fXdXpXdXBX).Y.u.4.[ ` ] O.[ ) a.a.y ; u d 4 2 P 8.u.5.J J 7.3.>.B.DXKXDXGXGXFXFXFXFXFXFXFXFXFXFXFXFXFXFXFXFXFXFXFXFXFXFXFXFXFXFXFXFXFXFXFXFXFXFXFXFXFXFXFXFXFXFXFXFXFXFXFXFXFXFXFXFXFXFXFXFXFXFXFXFXFXFXFXFXFXFXFXFXFXFXFXFXFXFXFXFXFXFXFXFXFXFXFXFXFXFXFXFXFXFXFXFXFXFXFXFXFXFXFXFXFXFXFXFXFXFXFXFXFXFX",
"FXFXFXFXFXFXFXFXFXFXFXFXFXFXFXFXFXFXFXFXFXFXFXFXFXFXFXFXFXFXFXFXFXFXFXFXFXFXFXFXFXFXFXFXFXFXFXFXFXFXFXFXFXFXFXFXFXFXFXFXFXFXFXFXFXFXFXFXFXFXFXFXFXFXFXFXFXFXFXFXFXFXFXFXFXFXFXFXFXFXFXFXFXFXFXFXFXFXFXFXFXFXFXFXFXFXFXFXFXKXFXDXPXCXCXCXCXmXmXmXpXB.r.B.dXfXSX2Xf.W.fXCXBXdXB.>.>.d.W.>XDXaX!.N.<.f.W.B.>XW.!.;X=X2XaX<X-XU.v.6.} Q ! _ _ [ K e.q.4 : y <.' G J P L [ [ G J ' G L 2XKXGXKXGXFXFXFXFXFXFXFXFXFXFXFXFXFXFXFXFXFXFXFXFXFXFXFXFXFXFXFXFXFXFXFXFXFXFXFXFXFXFXFXFXFXFXFXFXFXFXFXFXFXFXFXFXFXFXFXFXFXFXFXFXFXFXFXFXFXFXFXFXFXFXFXFXFXFXFXFXFXFXFXFXFXFXFXFXFXFXFXFXFXFXFXFXFXFXFXFXFXFXFXFXFXFXFXFXFXFXFXFXFXFX",
"FXFXFXFXFXFXFXFXFXFXFXFXFXFXFXFXFXFXFXFXFXFXFXFXFXFXFXFXFXFXFXFXFXFXFXFXFXFXFXFXFXFXFXFXFXFXFXFXFXFXFXFXFXFXFXFXFXFXFXFXFXFXFXFXFXFXFXFXFXFXFXFXFXFXFXFXFXFXFXFXFXFXFXFXFXFXFXFXFXFXFXFXFXFXFXFXFXFXFXFXFXFXFXFXFXFXFXFXFXGXKXPXbXnXbXBXCX2XnXbX2X>X>XdXSXsXpXf.>.>XCXPXCX!.>.,.r.f.5XDXmX/.,.d d >.W.BXNX<XW.d.r.1XhX[.H.l.g.&.{ Q W K H U W e.K : : w J ,.3.P ' J L i.L ; ,.P d B.bXPXKXGXFXFXFXFXFXFXFXFXFXFXFXFXFXFXFXFXFXFXFXFXFXFXFXFXFXFXFXFXFXFXFXFXFXFXFXFXFXFXFXFXFXFXFXFXFXFXFXFXFXFXFXFXFXFXFXFXFXFXFXFXFXFXFXFXFXFXFXFXFXFXFXFXFXFXFXFXFXFXFXFXFXFXFXFXFXFXFXFXFXFXFXFXFXFXFXFXFXFXFXFXFXFXFXFXFXFXFXFXFXFX",
"FXFXFXFXFXFXFXFXFXFXFXFXFXFXFXFXFXFXFXFXFXFXFXFXFXFXFXFXFXFXFXFXFXFXFXFXFXFXFXFXFXFXFXFXFXFXFXFXFXFXFXFXFXFXFXFXFXFXFXFXFXFXFXFXFXFXFXFXFXFXFXFXFXFXFXFXFXFXFXFXFXFXFXFXFXFXFXFXFXFXFXFXFXFXFXFXFXFXFXFXFXFXFXFXFXFXFXFXFXPXPXPXnX5XdXbX2XmXDXdXdXCXbXBXdX2XB.N.!.mXDXZXfX!.M.N.d.>XnXnXfXM.<.d s ,.<XdXzX].8.P P t.b.!.B.3.O.W u u k > w r e W y . $ i d J 9.9.L y L <.L 1 G L y P r.nXFXGXFXPXFXFXGXFXFXFXFXFXFXFXFXFXFXFXFXFXFXFXFXFXFXFXFXFXFXFXFXFXFXFXFXFXFXFXFXFXFXFXFXFXFXFXFXFXFXFXFXFXFXFXFXFXFXFXFXFXFXFXFXFXFXFXFXFXFXFXFXFXFXFXFXFXFXFXFXFXFXFXFXFXFXFXFXFXFXFXFXFXFXFXFXFXFXFXFXFXFXFXFXFXFXFXFXFXFXFXFXFX",
"FXFXFXFXFXFXFXFXFXFXFXFXFXFXFXFXFXFXFXFXFXFXFXFXFXFXFXFXFXFXFXFXFXFXFXFXFXFXFXFXFXFXFXFXFXFXFXFXFXFXFXFXFXFXFXFXFXFXFXFXFXFXFXFXFXFXFXFXFXFXFXFXFXFXFXFXFXFXFXFXFXFXFXFXFXFXFXFXFXFXFXFXFXFXFXFXFXFXFXFXFXFXFXFXFXFXFXFXFXGXPXfX;XfXdX2X:X2XfXBXdX2XCXCXbXaX1X!.!.fXnXfX;XB.<.f.W.5X5X5XfX(.9.d L d.;X<X9Xn.4.5.' y s b.f.3.P J u e e e > > y l < # : i y y y G G s 3 4 I r.9.3.,.3.>.>XFXFXFXPXKXFXGXFXFXFXFXFXFXFXFXFXFXFXFXFXFXFXFXFXFXFXFXFXFXFXFXFXFXFXFXFXFXFXFXFXFXFXFXFXFXFXFXFXFXFXFXFXFXFXFXFXFXFXFXFXFXFXFXFXFXFXFXFXFXFXFXFXFXFXFXFXFXFXFXFXFXFXFXFXFXFXFXFXFXFXFXFXFXFXFXFXFXFXFXFXFXFXFXFXFXFXFXFXFXFXFXFX",
"FXFXFXFXFXFXFXFXFXFXFXFXFXFXFXFXFXFXFXFXFXFXFXFXFXFXFXFXFXFXFXFXFXFXFXFXFXFXFXFXFXFXFXFXFXFXFXFXFXFXFXFXFXFXFXFXFXFXFXFXFXFXFXFXFXFXFXFXFXFXFXFXFXFXFXFXFXFXFXFXFXFXFXFXFXFXFXFXFXFXFXFXFXFXFXFXFXFXFXFXFXFXFXFXFXFXFXFXFXnXCXbXbXSXfXW.W.fXaXfXdX:XmXCXfX<X>Xf.N.nXfX2XdXK.t.B.W.2X2XfX:XK.9.[ 9.(.fX-X/.n.8.7.P y d M.f.L s s L L ) ` U i w 2 4 3 G ) ) y < y P 3.[ s t.N.Q.c.8.y.r.>XbXFXFXGXKXKXGXFXFXFXFXFXFXFXFXFXFXFXFXFXFXFXFXFXFXFXFXFXFXFXFXFXFXFXFXFXFXFXFXFXFXFXFXFXFXFXFXFXFXFXFXFXFXFXFXFXFXFXFXFXFXFXFXFXFXFXFXFXFXFXFXFXFXFXFXFXFXFXFXFXFXFXFXFXFXFXFXFXFXFXFXFXFXFXFXFXFXFXFXFXFXFXFXFXFXFXFXFXFXFXFXFX",
"FXFXFXFXFXFXFXFXFXFXFXFXFXFXFXFXFXFXFXFXFXFXFXFXFXFXFXFXFXFXFXFXFXFXFXFXFXFXFXFXFXFXFXFXFXFXFXFXFXFXFXFXFXFXFXFXFXFXFXFXFXFXFXFXFXFXFXFXFXFXFXFXFXFXFXFXFXFXFXFXFXFXFXFXFXFXFXFXFXFXFXFXFXFXFXFXFXFXFXFXFXFXFXFXFXFXFXFXKXbXbXbXCXbX2X:X:XmXmXW.2X>X2XnX2X>XB.t.f.fXmXBXBX=XW.N.r.>XnXCX2X=Xi.t.d.<X2X=X!.I.l.' L r.N.B.f.f.r.L r.K.v.l.b.4.y 3 P y.J.Y.u.q.G P 7.i.Y.c.y.,.i.u.u.3.,.B.pXNXDXFXFXKXKXFXDXFXFXFXFXFXFXFXFXFXFXFXFXFXFXFXFXFXFXFXFXFXFXFXFXFXFXFXFXFXFXFXFXFXFXFXFXFXFXFXFXFXFXFXFXFXFXFXFXFXFXFXFXFXFXFXFXFXFXFXFXFXFXFXFXFXFXFXFXFXFXFXFXFXFXFXFXFXFXFXFXFXFXFXFXFXFXFXFXFXFXFXFXFXFXFXFXFXFXFXFXFXFXFX",
"FXFXFXFXFXFXFXFXFXFXFXFXFXFXFXFXFXFXFXFXFXFXFXFXFXFXFXFXFXFXFXFXFXFXFXFXFXFXFXFXFXFXFXFXFXFXFXFXFXFXFXFXFXFXFXFXFXFXFXFXFXFXFXFXFXFXFXFXFXFXFXFXFXFXFXFXFXFXFXFXFXFXFXFXFXFXFXFXFXFXFXFXFXFXFXFXFXFXFXFXFXFXFXFXFXFXFXGXDXCXfXbXCXdXfXmXSXSX<XN.<XB.>XnXnX2X<X<XW.:XSXSX=XM.N.i.r.5XnXmXaXW.,.t.=XbX:X!.1XY.M.y.i.;X;XW.f.aXW.r.K.,X(.Q.K.M.,.L 7.H.Q.^.c.Z.' P 1.y.c.y.P G L G 1.1.I >.d.W.pXKXFXFXFXKXGXFXFXFXFXFXFXFXFXFXFXFXFXFXFXFXFXFXFXFXFXFXFXFXFXFXFXFXFXFXFXFXFXFXFXFXFXFXFXFXFXFXFXFXFXFXFXFXFXFXFXFXFXFXFXFXFXFXFXFXFXFXFXFXFXFXFXFXFXFXFXFXFXFXFXFXFXFXFXFXFXFXFXFXFXFXFXFXFXFXFXFXFXFXFXFXFXFXFXFXFXFXFXFX",
"FXFXFXFXFXFXFXFXFXFXFXFXFXFXFXFXFXFXFXFXFXFXFXFXFXFXFXFXFXFXFXFXFXFXFXFXFXFXFXFXFXFXFXFXFXFXFXFXFXFXFXFXFXFXFXFXFXFXFXFXFXFXFXFXFXFXFXFXFXFXFXFXFXFXFXFXFXFXFXFXFXFXFXFXFXFXFXFXFXFXFXFXFXFXFXFXFXFXFXFXFXFXFXFXFXFXKXDXPXmX2XdXbX:X=XmXSXaXK.(.1Xr.>XnXDXhX!.aX=X>XbX<Xi.,.i.N.W.bXnX2X!.,.P B.SXCX;X:X,XH.9.M.=XsX;XW.B.!.<.,.N.(.9X9XB.8.u.P G 9.Z.q.+.5.' 3 G 3.P J L J 3 2 P 7.G L 9.>.W.ZXFXFXFXGXKXFXFXFXFXFXFXFXFXFXFXFXFXFXFXFXFXFXFXFXFXFXFXFXFXFXFXFXFXFXFXFXFXFXFXFXFXFXFXFXFXFXFXFXFXFXFXFXFXFXFXFXFXFXFXFXFXFXFXFXFXFXFXFXFXFXFXFXFXFXFXFXFXFXFXFXFXFXFXFXFXFXFXFXFXFXFXFXFXFXFXFXFXFXFXFXFXFXFXFXFXFXFXFX",
"FXFXFXFXFXFXFXFXFXFXFXFXFXFXFXFXFXFXFXFXFXFXFXFXFXFXFXFXFXFXFXFXFXFXFXFXFXFXFXFXFXFXFXFXFXFXFXFXFXFXFXFXFXFXFXFXFXFXFXFXFXFXFXFXFXFXFXFXFXFXFXFXFXFXFXFXFXFXFXFXFXFXFXFXFXFXFXFXFXFXFXFXFXFXFXFXFXFXFXFXFXFXFXFXFXKXDXCXNXbXpXpX>Xd.B.<XhX=XY.[.B.f.fXmXPX1X9./.=X;XfXW.d.B.i.M.:X;X;X;XN.9.<.R.aX:X>X!.R.[ J [ 8.Q.(.W.N.t.J J [ b.3X<Xt.P 7.J 2 u ] J c ' L 1 y [ G c W H > 2 ] l.3 s b.y i.SXKXFXFXGXFXFXFXFXFXFXFXFXFXFXFXFXFXFXFXFXFXFXFXFXFXFXFXFXFXFXFXFXFXFXFXFXFXFXFXFXFXFXFXFXFXFXFXFXFXFXFXFXFXFXFXFXFXFXFXFXFXFXFXFXFXFXFXFXFXFXFXFXFXFXFXFXFXFXFXFXFXFXFXFXFXFXFXFXFXFXFXFXFXFXFXFXFXFXFXFXFXFXFXFXFXFXFXFX",
"FXFXFXFXFXFXFXFXFXFXFXFXFXFXFXFXFXFXFXFXFXFXFXFXFXFXFXFXFXFXFXFXFXFXFXFXFXFXFXFXFXFXFXFXFXFXFXFXFXFXFXFXFXFXFXFXFXFXFXFXFXFXFXFXFXFXFXFXFXFXFXFXFXFXFXFXFXFXFXFXFXFXFXFXFXFXFXFXFXFXFXFXFXFXFXFXFXFXFXFXFXFXFXFXKXKXPXCXbXbXbXdX2X:X<XaX9XQ.9XY.<.!.AXbXfXN.[ ^.:X;XdX!.(.=XL ,.dX;X`.Q.b.g.u ) Y.H.H.y.' u H u w 8.E.v.b.9.[ d i ] 1X!.r.P 1.[ 2 - i y 4 J y - 2 G L _ ` z 2 - y 5.G J d 4 t.SXKXGXFXGXFXFXFXFXFXFXFXFXFXFXFXFXFXFXFXFXFXFXFXFXFXFXFXFXFXFXFXFXFXFXFXFXFXFXFXFXFXFXFXFXFXFXFXFXFXFXFXFXFXFXFXFXFXFXFXFXFXFXFXFXFXFXFXFXFXFXFXFXFXFXFXFXFXFXFXFXFXFXFXFXFXFXFXFXFXFXFXFXFXFXFXFXFXFXFXFXFXFXFXFXFXFXFXFX",
"FXFXFXFXFXFXFXFXFXFXFXFXFXFXFXFXFXFXFXFXFXFXFXFXFXFXFXFXFXFXFXFXFXFXFXFXFXFXFXFXFXFXFXFXFXFXFXFXFXFXFXFXFXFXFXFXFXFXFXFXFXFXFXFXFXFXFXFXFXFXFXFXFXFXFXFXFXFXFXFXFXFXFXFXFXFXFXFXFXFXFXFXFXFXFXFXFXFXFXFXFXFXFXFXDXPXpXdXBXpXdXfXCXfXhXxX1X2XW.t.K.aXAXhXK.) b.B.t.(.zXsX9X<.y >.=X/.t.[ J 8 ; L N.N.b.6.` | u r u { '.F.} Q U w * H n.n.4.l W J 2 < < < 2 2 2 y y 3 y y 2 y L y < P 3.I s >.d.!.PXFXPXFXFXFXFXFXFXFXFXFXFXFXFXFXFXFXFXFXFXFXFXFXFXFXFXFXFXFXFXFXFXFXFXFXFXFXFXFXFXFXFXFXFXFXFXFXFXFXFXFXFXFXFXFXFXFXFXFXFXFXFXFXFXFXFXFXFXFXFXFXFXFXFXFXFXFXFXFXFXFXFXFXFXFXFXFXFXFXFXFXFXFXFXFXFXFXFXFXFXFXFXFXFXFXFXFX",
"FXFXFXFXFXFXFXFXFXFXFXFXFXFXFXFXFXFXFXFXFXFXFXFXFXFXFXFXFXFXFXFXFXFXFXFXFXFXFXFXFXFXFXFXFXFXFXFXFXFXFXFXFXFXFXFXFXFXFXFXFXFXFXFXFXFXFXFXFXFXFXFXFXFXFXFXFXFXFXFXFXFXFXFXFXFXFXFXFXFXFXFXFXFXFXFXFXFXFXFXFXFXFXFXKXPXfXBXCXdXdXbX>X:XaX<X(.W.!.!.,XhXmX2XK.x.n.b.t./.sX0XQ.d d 3.W.W.N.9.d > u N.!.N.4.U W y 2 J #.@.j.6.u w w w 2 H { H 2 2 w 2 2 y s y 3 i L ' L L y ; 2 K ' P y L 7.3.s G ,.f.2XKXFXFXGXFXFXFXFXFXFXFXFXFXFXFXFXFXFXFXFXFXFXFXFXFXFXFXFXFXFXFXFXFXFXFXFXFXFXFXFXFXFXFXFXFXFXFXFXFXFXFXFXFXFXFXFXFXFXFXFXFXFXFXFXFXFXFXFXFXFXFXFXFXFXFXFXFXFXFXFXFXFXFXFXFXFXFXFXFXFXFXFXFXFXFXFXFXFXFXFXFXFXFXFXFXFXFX",
"FXFXFXFXFXFXFXFXFXFXFXFXFXFXFXFXFXFXFXFXFXFXFXFXFXFXFXFXFXFXFXFXFXFXFXFXFXFXFXFXFXFXFXFXFXFXFXFXFXFXFXFXFXFXFXFXFXFXFXFXFXFXFXFXFXFXFXFXFXFXFXFXFXFXFXFXFXFXFXFXFXFXFXFXFXFXFXFXFXFXFXFXFXFXFXFXFXFXFXFXFXFXGXFXKXPXbXAXBXfXBXsXW./.=X=X:X2XaXaX<X<X2X3X1XA.x.b.N.=X<X,XN.d L d.2XpX=X!.t.d i.3X1XQ.b.] [ 2 < ) I.w.j.m.| i w u l W U u > 2 i u L <.t.P y [ b.c.1.1.J y ! 1.1.1.J G ' 8.P 3 G 3.2XDXPXFXFXFXFXFXFXFXFXFXFXFXFXFXFXFXFXFXFXFXFXFXFXFXFXFXFXFXFXFXFXFXFXFXFXFXFXFXFXFXFXFXFXFXFXFXFXFXFXFXFXFXFXFXFXFXFXFXFXFXFXFXFXFXFXFXFXFXFXFXFXFXFXFXFXFXFXFXFXFXFXFXFXFXFXFXFXFXFXFXFXFXFXFXFXFXFXFXFXFXFXFXFXFXFXFX",
"FXFXFXFXFXFXFXFXFXFXFXFXFXFXFXFXFXFXFXFXFXFXFXFXFXFXFXFXFXFXFXFXFXFXFXFXFXFXFXFXFXFXFXFXFXFXFXFXFXFXFXFXFXFXFXFXFXFXFXFXFXFXFXFXFXFXFXFXFXFXFXFXFXFXFXFXFXFXFXFXFXFXFXFXFXFXFXFXFXFXFXFXFXFXFXFXFXFXFXFXFXFXGXFXDXCXbXSXaX>XzX,X{.!.N.fXmXmX1X1X=X!.3X1X!.l.b.!.2XhX<X!.!.9.t.=XdXdX:XN.N.<.!.:XQ.c.u.b.9.L J t.^.l.j.T.g.u J 6.l.b.6.Q e J } j.8.i.t.,.J 8.B.J.3.) J u ! ' P ' J y y ] O.4 y ,.<XDXPXPXFXFXFXFXFXFXFXFXFXFXFXFXFXFXFXFXFXFXFXFXFXFXFXFXFXFXFXFXFXFXFXFXFXFXFXFXFXFXFXFXFXFXFXFXFXFXFXFXFXFXFXFXFXFXFXFXFXFXFXFXFXFXFXFXFXFXFXFXFXFXFXFXFXFXFXFXFXFXFXFXFXFXFXFXFXFXFXFXFXFXFXFXFXFXFXFXFXFXFXFXFXFXFXFX",
"FXFXFXFXFXFXFXFXFXFXFXFXFXFXFXFXFXFXFXFXFXFXFXFXFXFXFXFXFXFXFXFXFXFXFXFXFXFXFXFXFXFXFXFXFXFXFXFXFXFXFXFXFXFXFXFXFXFXFXFXFXFXFXFXFXFXFXFXFXFXFXFXFXFXFXFXFXFXFXFXFXFXFXFXFXFXFXFXFXFXFXFXFXFXFXFXFXFXFXFXFXFXGXFXPXCXdXdXW.N.3X1X1XN.N.mXPXhXN.T.T.B.3X9X^.N.M.aXSXDX=Xr.!.N.!.hX=X=XaXr.L t.:X>XW.,.L N.9.,.i.!.(.c.8.n.6.J 1.~.(.K.u.4.U J 6.A.9.,.[ [ H ) 9.u.] K l e y G y K K > - _ ] y y G B.ZXKXFXGXFXFXFXFXFXFXFXFXFXFXFXFXFXFXFXFXFXFXFXFXFXFXFXFXFXFXFXFXFXFXFXFXFXFXFXFXFXFXFXFXFXFXFXFXFXFXFXFXFXFXFXFXFXFXFXFXFXFXFXFXFXFXFXFXFXFXFXFXFXFXFXFXFXFXFXFXFXFXFXFXFXFXFXFXFXFXFXFXFXFXFXFXFXFXFXFXFXFXFXFXFXFXFX",
"FXFXFXFXFXFXFXFXFXFXFXFXFXFXFXFXFXFXFXFXFXFXFXFXFXFXFXFXFXFXFXFXFXFXFXFXFXFXFXFXFXFXFXFXFXFXFXFXFXFXFXFXFXFXFXFXFXFXFXFXFXFXFXFXFXFXFXFXFXFXFXFXFXFXFXFXFXFXFXFXFXFXFXFXFXFXFXFXFXFXFXFXFXFXFXFXFXFXFXFXFXFXKXKXPXCXfX<Xf.N.}.3XB.,.B.hXPXrXv.T.N.i.,XhXgX!.B.bXAXDX=XL t.b.1XSXB.!.hX9.y M.1X:X2XN.9.B.L G c.,X,XN.i.t.} [ v.9XW.s.3.5.4.i W z.2.,.P _ H y U J y l l w e c 2 W _ - - 4.` 2 y y P ;XKXFXGXFXFXFXFXFXFXFXFXFXFXFXFXFXFXFXFXFXFXFXFXFXFXFXFXFXFXFXFXFXFXFXFXFXFXFXFXFXFXFXFXFXFXFXFXFXFXFXFXFXFXFXFXFXFXFXFXFXFXFXFXFXFXFXFXFXFXFXFXFXFXFXFXFXFXFXFXFXFXFXFXFXFXFXFXFXFXFXFXFXFXFXFXFXFXFXFXFXFXFXFXFXFXFX",
"FXFXFXFXFXFXFXFXFXFXFXFXFXFXFXFXFXFXFXFXFXFXFXFXFXFXFXFXFXFXFXFXFXFXFXFXFXFXFXFXFXFXFXFXFXFXFXFXFXFXFXFXFXFXFXFXFXFXFXFXFXFXFXFXFXFXFXFXFXFXFXFXFXFXFXFXFXFXFXFXFXFXFXFXFXFXFXFXFXFXFXFXFXFXFXFXFXFXFXFXFXFXFXDXCXCXdX2XW.^.1X3Xb.r.>X2XmXB.b.T.b.B.aX<X8X1X=XSXSXkXN.| 9.t.1XhXK.K.N.J i 8.T.!.=XK.b.t.3 y 8.7X-Xd.i.3.L H x.[.K.t.1.] ` w u 4.5.3.L W x e r 4 , 2 l w , e 2 H ) e > [ [ y J i s >XKXGXFXFXFXFXFXFXFXFXFXFXFXFXFXFXFXFXFXFXFXFXFXFXFXFXFXFXFXFXFXFXFXFXFXFXFXFXFXFXFXFXFXFXFXFXFXFXFXFXFXFXFXFXFXFXFXFXFXFXFXFXFXFXFXFXFXFXFXFXFXFXFXFXFXFXFXFXFXFXFXFXFXFXFXFXFXFXFXFXFXFXFXFXFXFXFXFXFXFXFXFXFXFXFXFX",
"FXFXFXFXFXFXFXFXFXFXFXFXFXFXFXFXFXFXFXFXFXFXFXFXFXFXFXFXFXFXFXFXFXFXFXFXFXFXFXFXFXFXFXFXFXFXFXFXFXFXFXFXFXFXFXFXFXFXFXFXFXFXFXFXFXFXFXFXFXFXFXFXFXFXFXFXFXFXFXFXFXFXFXFXFXFXFXFXFXFXFXFXFXFXFXFXFXFXFXFXFXFXFXDXbXCXbXdX<XeXkX=Xf.B.>XfX2Xb.b.R.t.=XAX:X<XgX8XjX4Xv.[ T &.,.!.3X!.b.L i l ` I.K.f.,.P [ s e ) Y.W.s.d.t.L r &.D.y.7.1.! U i i W _ [ u H B 7 , e y e Q Y * * 2 e W } 2 i U } [ i s 2XKXPXFXFXFXFXFXFXFXFXFXFXFXFXFXFXFXFXFXFXFXFXFXFXFXFXFXFXFXFXFXFXFXFXFXFXFXFXFXFXFXFXFXFXFXFXFXFXFXFXFXFXFXFXFXFXFXFXFXFXFXFXFXFXFXFXFXFXFXFXFXFXFXFXFXFXFXFXFXFXFXFXFXFXFXFXFXFXFXFXFXFXFXFXFXFXFXFXFXFXFXFXFXFXFXFX",
"FXFXFXFXFXFXFXFXFXFXFXFXFXFXFXFXFXFXFXFXFXFXFXFXFXFXFXFXFXFXFXFXFXFXFXFXFXFXFXFXFXFXFXFXFXFXFXFXFXFXFXFXFXFXFXFXFXFXFXFXFXFXFXFXFXFXFXFXFXFXFXFXFXFXFXFXFXFXFXFXFXFXFXFXFXFXFXFXFXFXFXFXFXFXFXFXFXFXFXFXFXKXPXPXKXDXdXjXjXfXBX5X;XBXdXzXaXn.n.<.N.gXgX9XN.(.!.hX^.@.k.g.) L U.}.n.} | u 8 U D.T.O.) ' } u - L N.M.d.3.J H 7 U D.w._ W J U 7 = x K y 2 e x 7 & e z y } } w ; ; 2 l $.l - y _ ' L ,.2XKXFXFXFXFXFXFXFXFXFXFXFXFXFXFXFXFXFXFXFXFXFXFXFXFXFXFXFXFXFXFXFXFXFXFXFXFXFXFXFXFXFXFXFXFXFXFXFXFXFXFXFXFXFXFXFXFXFXFXFXFXFXFXFXFXFXFXFXFXFXFXFXFXFXFXFXFXFXFXFXFXFXFXFXFXFXFXFXFXFXFXFXFXFXFXFXFXFXFXFXFXFXFXFXFXFX",
"FXFXFXFXFXFXFXFXFXFXFXFXFXFXFXFXFXFXFXFXFXFXFXFXFXFXFXFXFXFXFXFXFXFXFXFXFXFXFXFXFXFXFXFXFXFXFXFXFXFXFXFXFXFXFXFXFXFXFXFXFXFXFXFXFXFXFXFXFXFXFXFXFXFXFXFXFXFXFXFXFXFXFXFXFXFXFXFXFXFXFXFXFXFXFXFXFXFXFXFXFXGXNXfXfXdXfXBXBXzXdXpXfXbXzXaX1X}.9.<.!.SXhX^.<.!.<.K.rX}.F.} i 1.D.n.n.<.U | @.n.I.l.] ) L G 2 < L M.i.t.<.J d ; i ] O.) ) J H w & w u i 2 w x ; 7 e w e z z u w , e z ~ H e 2 e o.1.,.W.mXGXPXFXFXFXFXFXFXFXFXFXFXFXFXFXFXFXFXFXFXFXFXFXFXFXFXFXFXFXFXFXFXFXFXFXFXFXFXFXFXFXFXFXFXFXFXFXFXFXFXFXFXFXFXFXFXFXFXFXFXFXFXFXFXFXFXFXFXFXFXFXFXFXFXFXFXFXFXFXFXFXFXFXFXFXFXFXFXFXFXFXFXFXFXFXFXFXFXFXFXFXFXFXFXFX",
"FXFXFXFXFXFXFXFXFXFXFXFXFXFXFXFXFXFXFXFXFXFXFXFXFXFXFXFXFXFXFXFXFXFXFXFXFXFXFXFXFXFXFXFXFXFXFXFXFXFXFXFXFXFXFXFXFXFXFXFXFXFXFXFXFXFXFXFXFXFXFXFXFXFXFXFXFXFXFXFXFXFXFXFXFXFXFXFXFXFXFXFXFXFXFXFXFXFXFXFXFXFXPX2X2X8XdXZXmXaX2XdXdX<XzX1X1X!.t.N.:XSX(.4.g.n.f <.I.l.} <.b.Q.}.g.U U 9.B.{.I.l.,.J d L L L L <.i.,.L L d i 4 y L G 3 y y y i 2 i 2 2 i u r 7 r w w l z z ~ l w e x &.&.N > x @._ G r.pXFXFXFXFXFXFXFXFXFXFXFXFXFXFXFXFXFXFXFXFXFXFXFXFXFXFXFXFXFXFXFXFXFXFXFXFXFXFXFXFXFXFXFXFXFXFXFXFXFXFXFXFXFXFXFXFXFXFXFXFXFXFXFXFXFXFXFXFXFXFXFXFXFXFXFXFXFXFXFXFXFXFXFXFXFXFXFXFXFXFXFXFXFXFXFXFXFXFXFXFXFXFXFXFXFX",
"FXFXFXFXFXFXFXFXFXFXFXFXFXFXFXFXFXFXFXFXFXFXFXFXFXFXFXFXFXFXFXFXFXFXFXFXFXFXFXFXFXFXFXFXFXFXFXFXFXFXFXFXFXFXFXFXFXFXFXFXFXFXFXFXFXFXFXFXFXFXFXFXFXFXFXFXFXFXFXFXFXFXFXFXFXFXFXFXFXFXFXFXFXFXFXFXFXFXFXFXFXFXPXdX<X8XgXhX>X1XaXSXaX!.3XK.3X1X<XfX2XdXi.[ n.:.U <.p.8.l.!.hX3XrXm.x } }.1X!.H.t.<.U d t.N.B.!.M.r.d 3 I L d P P L 3 1 G L J J J y - 2 J [ z / N r z Y Y @.@.T w , r ;.-.k 7 &.Y y L W.CXFXPXFXFXFXFXFXFXFXFXFXFXFXFXFXFXFXFXFXFXFXFXFXFXFXFXFXFXFXFXFXFXFXFXFXFXFXFXFXFXFXFXFXFXFXFXFXFXFXFXFXFXFXFXFXFXFXFXFXFXFXFXFXFXFXFXFXFXFXFXFXFXFXFXFXFXFXFXFXFXFXFXFXFXFXFXFXFXFXFXFXFXFXFXFXFXFXFXFXFXFXFXFXFXFX",
"FXFXFXFXFXFXFXFXFXFXFXFXFXFXFXFXFXFXFXFXFXFXFXFXFXFXFXFXFXFXFXFXFXFXFXFXFXFXFXFXFXFXFXFXFXFXFXFXFXFXFXFXFXFXFXFXFXFXFXFXFXFXFXFXFXFXFXFXFXFXFXFXFXFXFXFXFXFXFXFXFXFXFXFXFXFXFXFXFXFXFXFXFXFXFXFXFXFXFXFXFXFXPXhX<X,X<X1XN.1XhXkX!.N.!.t.1XSXaXmXmX2XB.v.m.U 9.Q.).~.,XgXxXhXB.m.{ g.}.B.!.[.t.] [ ) N.K.W.-Xt.>.G s ,.N.i.M.r.L 3 s <.t.,.l.` l 4 y L g.k.-.C r k r e N R U > > m X.m t t ;.r w 9.dXDXPXGXFXFXFXFXFXFXFXFXFXFXFXFXFXFXFXFXFXFXFXFXFXFXFXFXFXFXFXFXFXFXFXFXFXFXFXFXFXFXFXFXFXFXFXFXFXFXFXFXFXFXFXFXFXFXFXFXFXFXFXFXFXFXFXFXFXFXFXFXFXFXFXFXFXFXFXFXFXFXFXFXFXFXFXFXFXFXFXFXFXFXFXFXFXFXFXFXFXFXFXFXFXFXFX",
"FXFXFXFXFXFXFXFXFXFXFXFXFXFXFXFXFXFXFXFXFXFXFXFXFXFXFXFXFXFXFXFXFXFXFXFXFXFXFXFXFXFXFXFXFXFXFXFXFXFXFXFXFXFXFXFXFXFXFXFXFXFXFXFXFXFXFXFXFXFXFXFXFXFXFXFXFXFXFXFXFXFXFXFXFXFXFXFXFXFXFXFXFXFXFXFXFXFXFXFXFXFXDXdX2X<X8X,XB.I.1X}.b.b.N.b.aXzXaX>X2X1XK.v.9.8.^.xXsX).^.9XgX3X<.g.} | m.g.}.^.) u U J ] N.=Xp.P L L L u.Q.Y.T.9.L s s [ b.b.R.#.l y y l g.G.j M t 7 8 7 8 A t * t X.m 7 m C m r l b.zXDXGXFXFXFXFXFXFXFXFXFXFXFXFXFXFXFXFXFXFXFXFXFXFXFXFXFXFXFXFXFXFXFXFXFXFXFXFXFXFXFXFXFXFXFXFXFXFXFXFXFXFXFXFXFXFXFXFXFXFXFXFXFXFXFXFXFXFXFXFXFXFXFXFXFXFXFXFXFXFXFXFXFXFXFXFXFXFXFXFXFXFXFXFXFXFXFXFXFXFXFXFXFXFXFXFX",
"FXFXFXFXFXFXFXFXFXFXFXFXFXFXFXFXFXFXFXFXFXFXFXFXFXFXFXFXFXFXFXFXFXFXFXFXFXFXFXFXFXFXFXFXFXFXFXFXFXFXFXFXFXFXFXFXFXFXFXFXFXFXFXFXFXFXFXFXFXFXFXFXFXFXFXFXFXFXFXFXFXFXFXFXFXFXFXFXFXFXFXFXFXFXFXFXFXFXFXFXFXDXDXmXnXdXsXeX{.w.I.R.j.b.<.B.xXSX<XN.T.N.9.,.t.[.gXzXaX1X{.{.[.I.} m.} w U %.n.g.H x x w G B.,X[ J | J d } l.l.%.H u u 2 u g.T.&.Y r 7 > e ^ S 7 M t = t b t A 7 * r / t 7 T k > r W c.zXDXPXGXFXFXFXFXFXFXFXFXFXFXFXFXFXFXFXFXFXFXFXFXFXFXFXFXFXFXFXFXFXFXFXFXFXFXFXFXFXFXFXFXFXFXFXFXFXFXFXFXFXFXFXFXFXFXFXFXFXFXFXFXFXFXFXFXFXFXFXFXFXFXFXFXFXFXFXFXFXFXFXFXFXFXFXFXFXFXFXFXFXFXFXFXFXFXFXFXFXFXFXFXFXFXFX",
"FXFXFXFXFXFXFXFXFXFXFXFXFXFXFXFXFXFXFXFXFXFXFXFXFXFXFXFXFXFXFXFXFXFXFXFXFXFXFXFXFXFXFXFXFXFXFXFXFXFXFXFXFXFXFXFXFXFXFXFXFXFXFXFXFXFXFXFXFXFXFXFXFXFXFXFXFXFXFXFXFXFXFXFXFXFXFXFXFXFXFXFXFXFXFXFXFXFXFXFXFXCXCXbXCXCXhXeX{.k.F.].n.n.d N.xXSXM.9.'.} P t.1XgXgX<X1X!.n.R.E.k.%.n.} : i :.} Q / { r = y b.t.W U | u w u } } N r t t 7 e &.k.N t t 7 7 t D 9 t M 0 @ 9 X.v j j t m E T N ( e e x J ,.2XKXPXGXFXFXFXFXFXFXFXFXFXFXFXFXFXFXFXFXFXFXFXFXFXFXFXFXFXFXFXFXFXFXFXFXFXFXFXFXFXFXFXFXFXFXFXFXFXFXFXFXFXFXFXFXFXFXFXFXFXFXFXFXFXFXFXFXFXFXFXFXFXFXFXFXFXFXFXFXFXFXFXFXFXFXFXFXFXFXFXFXFXFXFXFXFXFXFXFXFXFXFXFXFXFXFX",
"FXFXFXFXFXFXFXFXFXFXFXFXFXFXFXFXFXFXFXFXFXFXFXFXFXFXFXFXFXFXFXFXFXFXFXFXFXFXFXFXFXFXFXFXFXFXFXFXFXFXFXFXFXFXFXFXFXFXFXFXFXFXFXFXFXFXFXFXFXFXFXFXFXFXFXFXFXFXFXFXFXFXFXFXFXFXFXFXFXFXFXFXFXFXFXFXFXFXKXKXKXPXCXSXzXzX9XK.{.{.7XyX}.{ | R.kXaX[ 4.I.) t.,X<X[.kXn.g.m.| ( F.g.m.h.k = 7 T ( N Q U w ; w U <.U ( B 7 = t Z B B Z B 8 = 7 v T m m h 0 = 0 v D n q 0 0 9 g n g D D Z E ../ X.X.t u 2 3 W.KXFXFXFXFXFXFXFXFXFXFXFXFXFXFXFXFXFXFXFXFXFXFXFXFXFXFXFXFXFXFXFXFXFXFXFXFXFXFXFXFXFXFXFXFXFXFXFXFXFXFXFXFXFXFXFXFXFXFXFXFXFXFXFXFXFXFXFXFXFXFXFXFXFXFXFXFXFXFXFXFXFXFXFXFXFXFXFXFXFXFXFXFXFXFXFXFXFXFXFXFXFXFXFXFXFX",
"FXFXFXFXFXFXFXFXFXFXFXFXFXFXFXFXFXFXFXFXFXFXFXFXFXFXFXFXFXFXFXFXFXFXFXFXFXFXFXFXFXFXFXFXFXFXFXFXFXFXFXFXFXFXFXFXFXFXFXFXFXFXFXFXFXFXFXFXFXFXFXFXFXFXFXFXFXFXFXFXFXFXFXFXFXFXFXFXFXFXFXFXFXFXFXFXFXKXKXKXKXPXCXdXzXsX!.Y.{.7XqXyX[.n.n.7XhX!.<.l.b.l.1X2X:X^.{.j.g.%.w i } { ( B t 7 t ( ( v u t e t B B u u u t 7 7 u B u t r t 7 = 7 t t h v t 0 6 0 p M n p 9 9 n n F n D X...&.&.&.-.&.r > : s :XKXGXFXFXFXFXFXFXFXFXFXFXFXFXFXFXFXFXFXFXFXFXFXFXFXFXFXFXFXFXFXFXFXFXFXFXFXFXFXFXFXFXFXFXFXFXFXFXFXFXFXFXFXFXFXFXFXFXFXFXFXFXFXFXFXFXFXFXFXFXFXFXFXFXFXFXFXFXFXFXFXFXFXFXFXFXFXFXFXFXFXFXFXFXFXFXFXFXFXFXFXFXFXFXFXFX",
"FXFXFXFXFXFXFXFXFXFXFXFXFXFXFXFXFXFXFXFXFXFXFXFXFXFXFXFXFXFXFXFXFXFXFXFXFXFXFXFXFXFXFXFXFXFXFXFXFXFXFXFXFXFXFXFXFXFXFXFXFXFXFXFXFXFXFXFXFXFXFXFXFXFXFXFXFXFXFXFXFXFXFXFXFXFXFXFXFXFXFXFXFXFXFXFXFXKXKXKXKXCXdX;XsX,XB.'.}.gX9XeX7X[.1XhXsXT.N.l.} R.kXaX`.[.I.6.g.Q ; w } :.M v v v M ( M B v v B Z Z a t r t t t r v v t t h h t t t h t t t t 9 9 9 9 9 9 9 9 t b M M b ^ .. .$.j.k.k.&.B ; 2 t.mXKXPXFXFXFXFXFXFXFXFXFXFXFXFXFXFXFXFXFXFXFXFXFXFXFXFXFXFXFXFXFXFXFXFXFXFXFXFXFXFXFXFXFXFXFXFXFXFXFXFXFXFXFXFXFXFXFXFXFXFXFXFXFXFXFXFXFXFXFXFXFXFXFXFXFXFXFXFXFXFXFXFXFXFXFXFXFXFXFXFXFXFXFXFXFXFXFXFXFXFXFXFXFXFXFXFX",
"FXFXFXFXFXFXFXFXFXFXFXFXFXFXFXFXFXFXFXFXFXFXFXFXFXFXFXFXFXFXFXFXFXFXFXFXFXFXFXFXFXFXFXFXFXFXFXFXFXFXFXFXFXFXFXFXFXFXFXFXFXFXFXFXFXFXFXFXFXFXFXFXFXFXFXFXFXFXFXFXFXFXFXFXFXFXFXFXFXFXFXFXFXFXFXFXFXKXKXKXKXCXpX/.,X1XB.R.}.vX1X[.[.[.9XaX0X}.v.g.g.3X9X-Xd.!.b.-.-.M 7 x #.( T ( X.X.:./ ( / &.-.&.E C C E N k k k r t t t h h m m m C C h v v p t p p 9 9 t t h m V A A A ~  .o.5.j.D.S.#.N w L 2XKXGXDXFXFXFXFXFXFXFXFXFXFXFXFXFXFXFXFXFXFXFXFXFXFXFXFXFXFXFXFXFXFXFXFXFXFXFXFXFXFXFXFXFXFXFXFXFXFXFXFXFXFXFXFXFXFXFXFXFXFXFXFXFXFXFXFXFXFXFXFXFXFXFXFXFXFXFXFXFXFXFXFXFXFXFXFXFXFXFXFXFXFXFXFXFXFXFXFXFXFXFXFXFXFXFXFX",
"FXFXFXFXFXFXFXFXFXFXFXFXFXFXFXFXFXFXFXFXFXFXFXFXFXFXFXFXFXFXFXFXFXFXFXFXFXFXFXFXFXFXFXFXFXFXFXFXFXFXFXFXFXFXFXFXFXFXFXFXFXFXFXFXFXFXFXFXFXFXFXFXFXFXFXFXFXFXFXFXFXFXFXFXFXFXFXFXFXFXFXFXFXFXFXFXFXKXKXKXKXDXdX-X(.1X!.v.}.kX].'.].qXeX1X1Xn.g.n.3XkXQ.(.3.d [ :.( n p ( &.&.h.x.F.F.F.F.F.D.x.k.j.6.%.6.j.&.@.E Y z x k N C N N N C E Z k D B h t v M M M Z Z A E E E / ..~ o.$.e.w.A.F.0.N e L aXKXKXFXGXFXFXFXFXFXFXFXFXFXFXFXFXFXFXFXFXFXFXFXFXFXFXFXFXFXFXFXFXFXFXFXFXFXFXFXFXFXFXFXFXFXFXFXFXFXFXFXFXFXFXFXFXFXFXFXFXFXFXFXFXFXFXFXFXFXFXFXFXFXFXFXFXFXFXFXFXFXFXFXFXFXFXFXFXFXFXFXFXFXFXFXFXFXFXFXFXFXFXFXFXFXFXFX",
"FXFXFXFXFXFXFXFXFXFXFXFXFXFXFXFXFXFXFXFXFXFXFXFXFXFXFXFXFXFXFXFXFXFXFXFXFXFXFXFXFXFXFXFXFXFXFXFXFXFXFXFXFXFXFXFXFXFXFXFXFXFXFXFXFXFXFXFXFXFXFXFXFXFXFXFXFXFXFXFXFXFXFXFXFXFXFXFXFXFXFXFXFXFXFXFXFXKXKXKXKXKXCXaX,XhX9XI.}.yX*Xm.*XkXxXT.].m.4.'.xX[.u.^.] < | -.( F :.;.k.Y.{.{.{.{.[.[.[.{.Y.K.A.A.Z.S.z.x.x.0.#.$.$.$.$.%.@...~ R ~ E C E C m N C D D V A A A C C Y R  .@.O.$.5.w.R.E.$.z 2 4 N.PXFXFXPXFXFXFXFXFXFXFXFXFXFXFXFXFXFXFXFXFXFXFXFXFXFXFXFXFXFXFXFXFXFXFXFXFXFXFXFXFXFXFXFXFXFXFXFXFXFXFXFXFXFXFXFXFXFXFXFXFXFXFXFXFXFXFXFXFXFXFXFXFXFXFXFXFXFXFXFXFXFXFXFXFXFXFXFXFXFXFXFXFXFXFXFXFXFXFXFXFXFXFXFXFXFXFX",
"FXFXFXFXFXFXFXFXFXFXFXFXFXFXFXFXFXFXFXFXFXFXFXFXFXFXFXFXFXFXFXFXFXFXFXFXFXFXFXFXFXFXFXFXFXFXFXFXFXFXFXFXFXFXFXFXFXFXFXFXFXFXFXFXFXFXFXFXFXFXFXFXFXFXFXFXFXFXFXFXFXFXFXFXFXFXFXFXFXFXFXFXFXFXFXFXFXKXKXKXKXDXDXBXhXSXSX9X7XoX*X;.m.yXvXx.F.-.4.^.1XJ.8.n.U ; | -.-.m.*X].@X7X7X6X,X,X,X(.(.^.~.Q.Y.K.J.Z.c.z.c.w.q.w.w.6.q.6.$.#.o.~ ~  .R R R R R R T C m C C C C Y R  .o.@.o.+.5.j.T.E.o.u ; - t.PXFXFXGXFXFXFXFXFXFXFXFXFXFXFXFXFXFXFXFXFXFXFXFXFXFXFXFXFXFXFXFXFXFXFXFXFXFXFXFXFXFXFXFXFXFXFXFXFXFXFXFXFXFXFXFXFXFXFXFXFXFXFXFXFXFXFXFXFXFXFXFXFXFXFXFXFXFXFXFXFXFXFXFXFXFXFXFXFXFXFXFXFXFXFXFXFXFXFXFXFXFXFXFXFXFXFX",
"FXFXFXFXFXFXFXFXFXFXFXFXFXFXFXFXFXFXFXFXFXFXFXFXFXFXFXFXFXFXFXFXFXFXFXFXFXFXFXFXFXFXFXFXFXFXFXFXFXFXFXFXFXFXFXFXFXFXFXFXFXFXFXFXFXFXFXFXFXFXFXFXFXFXFXFXFXFXFXFXFXFXFXFXFXFXFXFXFXFXFXFXFXFXFXFXFXKXKXKXKXPXDXSXAXAXSXSX6X{.'.V.m.1X(.4.n.| | R.Y.H.b.{ w 8 N / -.].wXoXeX7X7X,X,X9X,X(.=XQ.Q.Y.J.J.J.Z.c.u.c.a.u.a.q.5.q.O.O.O.O._ !  .! R R R Y C C C C S C C C R R ~ o.E o.0.e.j.R.'.&.w ; 2 B.KXFXPXFXFXFXFXFXFXFXFXFXFXFXFXFXFXFXFXFXFXFXFXFXFXFXFXFXFXFXFXFXFXFXFXFXFXFXFXFXFXFXFXFXFXFXFXFXFXFXFXFXFXFXFXFXFXFXFXFXFXFXFXFXFXFXFXFXFXFXFXFXFXFXFXFXFXFXFXFXFXFXFXFXFXFXFXFXFXFXFXFXFXFXFXFXFXFXFXFXFXFXFXFXFXFXFX",
"FXFXFXFXFXFXFXFXFXFXFXFXFXFXFXFXFXFXFXFXFXFXFXFXFXFXFXFXFXFXFXFXFXFXFXFXFXFXFXFXFXFXFXFXFXFXFXFXFXFXFXFXFXFXFXFXFXFXFXFXFXFXFXFXFXFXFXFXFXFXFXFXFXFXFXFXFXFXFXFXFXFXFXFXFXFXFXFXFXFXFXFXFXFXFXFXFXFXKXKXDXIXzXyX7X,XdXSXBX7X*X;.:.}.!.b.b.<.l.{.1Xn.:.( p 8 N k.].7XeXaXsX9X9X8X8X,X,X[.(.!.Q.Q.K.J.J.v.c.a.a.u.u.t.8.7.9.#.#.#.{ { ` ~ ~ ~ Q Q Y Y Y Y C Z Y Y T Y R ~ @. .&.6.%.j.S.'.-.> - f.KXDXGXFXPXFXFXFXFXFXFXFXFXFXFXFXFXFXFXFXFXFXFXFXFXFXFXFXFXFXFXFXFXFXFXFXFXFXFXFXFXFXFXFXFXFXFXFXFXFXFXFXFXFXFXFXFXFXFXFXFXFXFXFXFXFXFXFXFXFXFXFXFXFXFXFXFXFXFXFXFXFXFXFXFXFXFXFXFXFXFXFXFXFXFXFXFXFXFXFXFXFXFXFXFXFXFXFX",
"FXFXFXFXFXFXFXFXFXFXFXFXFXFXFXFXFXFXFXFXFXFXFXFXFXFXFXFXFXFXFXFXFXFXFXFXFXFXFXFXFXFXFXFXFXFXFXFXFXFXFXFXFXFXFXFXFXFXFXFXFXFXFXFXFXFXFXFXFXFXFXFXFXFXFXFXFXFXFXFXFXFXFXFXFXFXFXFXFXFXFXFXFXFXFXFXFXFXKXKXDXSX7Xn.} [ i.=XSXeX'.;.-.}.[.R.j.t.3XVX1X<.| ( B k &.R.[.eXgXsX9X0X9X8X8X6X,X-X=X!.Q.L.K.H.J.H.c.z.a.u.w.8.7.7.5.#.#.#.@.o.` ~ ~ ~ ~ T T T T Y Y C C Y Y R R ~  . .@.#.0.S.U.&X%.- ' dXGXPXGXPXFXFXFXFXFXFXFXFXFXFXFXFXFXFXFXFXFXFXFXFXFXFXFXFXFXFXFXFXFXFXFXFXFXFXFXFXFXFXFXFXFXFXFXFXFXFXFXFXFXFXFXFXFXFXFXFXFXFXFXFXFXFXFXFXFXFXFXFXFXFXFXFXFXFXFXFXFXFXFXFXFXFXFXFXFXFXFXFXFXFXFXFXFXFXFXFXFXFXFXFXFXFXFXFX",
"FXFXFXFXFXFXFXFXFXFXFXFXFXFXFXFXFXFXFXFXFXFXFXFXFXFXFXFXFXFXFXFXFXFXFXFXFXFXFXFXFXFXFXFXFXFXFXFXFXFXFXFXFXFXFXFXFXFXFXFXFXFXFXFXFXFXFXFXFXFXFXFXFXFXFXFXFXFXFXFXFXFXFXFXFXFXFXFXFXFXFXFXFXFXFXFXFXFXKXKXDXrX'.| t Q j.R.3XvX{.n.F.rXrX}.&.W.SXxXT.| B } U { n.}.rXeXzXsX8X9X9X8X8X<X-X=X(.~.Q.L.K.H.H.c.c.c.a.e.7.5.5.4.4.o.o.#.o.o.o.~ R Y Y T T T T T Y C R R R R ! !  .o.#.o.q.z.U.oX#.> u.DXGXPXFXCXFXFXFXFXFXFXFXFXFXFXFXFXFXFXFXFXFXFXFXFXFXFXFXFXFXFXFXFXFXFXFXFXFXFXFXFXFXFXFXFXFXFXFXFXFXFXFXFXFXFXFXFXFXFXFXFXFXFXFXFXFXFXFXFXFXFXFXFXFXFXFXFXFXFXFXFXFXFXFXFXFXFXFXFXFXFXFXFXFXFXFXFXFXFXFXFXFXFXFXFXFXFXFXFX",
"FXFXFXFXFXFXFXFXFXFXFXFXFXFXFXFXFXFXFXFXFXFXFXFXFXFXFXFXFXFXFXFXFXFXFXFXFXFXFXFXFXFXFXFXFXFXFXFXFXFXFXFXFXFXFXFXFXFXFXFXFXFXFXFXFXFXFXFXFXFXFXFXFXFXFXFXFXFXFXFXFXFXFXFXFXFXFXFXFXFXFXFXFXFXFXFXFXFXKXDXDX@Xm.a ( '.@X}.}.kXeX].].rXrX].( =X0XR.g.( a | U x.].rXgXsXsXsXpX8X8X4X4X-X=X(./.~.Q.L.P.H.H.c.c.z.w.q.5.5.5.$.#.o.o.o.o.o.~ ~ R Y Y T T C C C C R R R R R ~ ~ ~ o.$.O.e.u.P.{.] 2 I 2XGXGXFXDXGXFXFXFXFXFXFXFXFXFXFXFXFXFXFXFXFXFXFXFXFXFXFXFXFXFXFXFXFXFXFXFXFXFXFXFXFXFXFXFXFXFXFXFXFXFXFXFXFXFXFXFXFXFXFXFXFXFXFXFXFXFXFXFXFXFXFXFXFXFXFXFXFXFXFXFXFXFXFXFXFXFXFXFXFXFXFXFXFXFXFXFXFXFXFXFXFXFXFXFXFXFXFXFX",
"FXFXFXFXFXFXFXFXFXFXFXFXFXFXFXFXFXFXFXFXFXFXFXFXFXFXFXFXFXFXFXFXFXFXFXFXFXFXFXFXFXFXFXFXFXFXFXFXFXFXFXFXFXFXFXFXFXFXFXFXFXFXFXFXFXFXFXFXFXFXFXFXFXFXFXFXFXFXFXFXFXFXFXFXFXFXFXFXFXFXFXFXFXFXFXFXFXFXKXDXDXrXg.B m.wXkXyX@X1XyX1X{.rX].m.:.W.T.%.( F 0 B } R.{.rXvXgXsXpXpX8X8X4X4X-X-X)./.~.Y.L.J.J.J.Z.c.e.q.6.6.$.$.#.O.o.o.o.o.o.~ ~ R T T T T Y C C C C C C Y R E ~  . .@.#.e.a.E.{.L % 5 :XFXGXKXKXDXFXFXFXFXFXFXFXFXFXFXFXFXFXFXFXFXFXFXFXFXFXFXFXFXFXFXFXFXFXFXFXFXFXFXFXFXFXFXFXFXFXFXFXFXFXFXFXFXFXFXFXFXFXFXFXFXFXFXFXFXFXFXFXFXFXFXFXFXFXFXFXFXFXFXFXFXFXFXFXFXFXFXFXFXFXFXFXFXFXFXFXFXFXFXFXFXFXFXFXFXFXFXFX",
"FXFXFXFXFXFXFXFXFXFXFXFXFXFXFXFXFXFXFXFXFXFXFXFXFXFXFXFXFXFXFXFXFXFXFXFXFXFXFXFXFXFXFXFXFXFXFXFXFXFXFXFXFXFXFXFXFXFXFXFXFXFXFXFXFXFXFXFXFXFXFXFXFXFXFXFXFXFXFXFXFXFXFXFXFXFXFXFXFXFXFXFXFXFXFXFXFXFXKXKXDXrX%.N F.yXrX}.n.j.}.rX3XyXR.:.-.!.T.&.M p 0 Z k.T.[.eXvXzXsXsX0X0X9X9X6X,X).^.~.Y.U.A.Z.Z.Z.v.b.6.5.$.$.$.$.#.o.o.` ` ` ` @.@.@.~ ~ R T T T Y C C C C A E E .... ...~ *.z.{.U.y % r.CXFXPXKXDXDXFXFXFXFXFXFXFXFXFXFXFXFXFXFXFXFXFXFXFXFXFXFXFXFXFXFXFXFXFXFXFXFXFXFXFXFXFXFXFXFXFXFXFXFXFXFXFXFXFXFXFXFXFXFXFXFXFXFXFXFXFXFXFXFXFXFXFXFXFXFXFXFXFXFXFXFXFXFXFXFXFXFXFXFXFXFXFXFXFXFXFXFXFXFXFXFXFXFXFXFXFXFXFX",
"FXFXFXFXFXFXFXFXFXFXFXFXFXFXFXFXFXFXFXFXFXFXFXFXFXFXFXFXFXFXFXFXFXFXFXFXFXFXFXFXFXFXFXFXFXFXFXFXFXFXFXFXFXFXFXFXFXFXFXFXFXFXFXFXFXFXFXFXFXFXFXFXFXFXFXFXFXFXFXFXFXFXFXFXFXFXFXFXFXFXFXFXFXFXFXFXFXFXKXKXDXrX%.u n.yX'.g.( / n.7X9XgXn.} n.aX1X#.v v v / G.{.7XkXvXgXsX0X9X0X9X6X[.^.^.Y.U.A.x.x.z.b.b.l.j.6.5.#.#.$.$.#.@.` ~ Q ~ ` #.%.6.~ ~ Y Y T T Y Y Z A E A A A A A A A A ..;.{.x.i G 8XKXGXGXDXDXDXFXFXFXFXFXFXFXFXFXFXFXFXFXFXFXFXFXFXFXFXFXFXFXFXFXFXFXFXFXFXFXFXFXFXFXFXFXFXFXFXFXFXFXFXFXFXFXFXFXFXFXFXFXFXFXFXFXFXFXFXFXFXFXFXFXFXFXFXFXFXFXFXFXFXFXFXFXFXFXFXFXFXFXFXFXFXFXFXFXFXFXFXFXFXFXFXFXFXFXFXFXFXFX",
"FXFXFXFXFXFXFXFXFXFXFXFXFXFXFXFXFXFXFXFXFXFXFXFXFXFXFXFXFXFXFXFXFXFXFXFXFXFXFXFXFXFXFXFXFXFXFXFXFXFXFXFXFXFXFXFXFXFXFXFXFXFXFXFXFXFXFXFXFXFXFXFXFXFXFXFXFXFXFXFXFXFXFXFXFXFXFXFXFXFXFXFXFXFXFXFXFXFXKXKXDXwXm.a m.@Xm.( ( ( h.[.,X[.b.4.@XSX3X4.u Z ( &.F.{.rXkXgX9X9XeXeX8X6X[.^.T.U.J.v.x.j.j.j.j.j.g.6.8.4.#.#.#.#.#.@.` Q Q ` @.%.g.j.~ Q Y Y Y T Y C V Z ^ A V M b b n F F V &.{.x.l ~.AXDXGXFXGXKXPXFXFXFXFXFXFXFXFXFXFXFXFXFXFXFXFXFXFXFXFXFXFXFXFXFXFXFXFXFXFXFXFXFXFXFXFXFXFXFXFXFXFXFXFXFXFXFXFXFXFXFXFXFXFXFXFXFXFXFXFXFXFXFXFXFXFXFXFXFXFXFXFXFXFXFXFXFXFXFXFXFXFXFXFXFXFXFXFXFXFXFXFXFXFXFXFXFXFXFXFXFXFXFX",
"FXFXFXFXFXFXFXFXFXFXFXFXFXFXFXFXFXFXFXFXFXFXFXFXFXFXFXFXFXFXFXFXFXFXFXFXFXFXFXFXFXFXFXFXFXFXFXFXFXFXFXFXFXFXFXFXFXFXFXFXFXFXFXFXFXFXFXFXFXFXFXFXFXFXFXFXFXFXFXFXFXFXFXFXFXFXFXFXFXFXFXFXFXFXFXFXFXFXFXFXFXkXR.a :.@XR.g.V.n.T.1X[.R.:.} 3XSX1Xg.v M -.g.T.oXqXgXsXaX8X7X7X6X).Y.J.v.k.0.%.;.:.X.:.:.:.( D D X.:.X.@.@.@.} E ~ ` ` Q @.-.^ C k x C R Y C T ^ T B u e 7 7 8 j n F n A wX4.<.GXGXGXKXFXFXFXFXFXFXFXFXFXFXFXFXFXFXFXFXFXFXFXFXFXFXFXFXFXFXFXFXFXFXFXFXFXFXFXFXFXFXFXFXFXFXFXFXFXFXFXFXFXFXFXFXFXFXFXFXFXFXFXFXFXFXFXFXFXFXFXFXFXFXFXFXFXFXFXFXFXFXFXFXFXFXFXFXFXFXFXFXFXFXFXFXFXFXFXFXFXFXFXFXFXFXFXFXFXFXFX",
"FXFXFXFXFXFXFXFXFXFXFXFXFXFXFXFXFXFXFXFXFXFXFXFXFXFXFXFXFXFXFXFXFXFXFXFXFXFXFXFXFXFXFXFXFXFXFXFXFXFXFXFXFXFXFXFXFXFXFXFXFXFXFXFXFXFXFXFXFXFXFXFXFXFXFXFXFXFXFXFXFXFXFXFXFXFXFXFXFXFXFXFXFXFXFXFXKXFXFXFXFXSX].T ( }.{.I.}.@X7XeXrXm.U } {.0XI.{ v F ( h.}.rXrXgXsXsX9X7X[.^.U.v.z.j.h.%.&.( D M B M M F n F D ( ( / / / / ~ E E ~ Q T Z C m m S C C Y T E m h e 7 7 7 8 h M F F b ..].L <.GXGXGXGXFXFXFXFXFXFXFXFXFXFXFXFXFXFXFXFXFXFXFXFXFXFXFXFXFXFXFXFXFXFXFXFXFXFXFXFXFXFXFXFXFXFXFXFXFXFXFXFXFXFXFXFXFXFXFXFXFXFXFXFXFXFXFXFXFXFXFXFXFXFXFXFXFXFXFXFXFXFXFXFXFXFXFXFXFXFXFXFXFXFXFXFXFXFXFXFXFXFXFXFXFXFXFXFXFXFXFX",
"FXFXFXFXFXFXFXFXFXFXFXFXFXFXFXFXFXFXFXFXFXFXFXFXFXFXFXFXFXFXFXFXFXFXFXFXFXFXFXFXFXFXFXFXFXFXFXFXFXFXFXFXFXFXFXFXFXFXFXFXFXFXFXFXFXFXFXFXFXFXFXFXFXFXFXFXFXFXFXFXFXFXFXFXFXFXFXFXFXFXFXFXFXFXFXFXFXFXFXFXFXAX3X&.T T.rX7XyXkXrX{.wXm.x b.,X{.j.T p n D m.@XrXeXgXsXsX9X[.{.F.x.j.h.g.h.h.g.&./ T B m p p 9 9 p v M D D ( ( ^ ^ E R E Z S V m Z Z C C E E B 8 7 = = 7 t b D A X.D S &.S.[ N.GXGXKXKXFXFXFXFXFXFXFXFXFXFXFXFXFXFXFXFXFXFXFXFXFXFXFXFXFXFXFXFXFXFXFXFXFXFXFXFXFXFXFXFXFXFXFXFXFXFXFXFXFXFXFXFXFXFXFXFXFXFXFXFXFXFXFXFXFXFXFXFXFXFXFXFXFXFXFXFXFXFXFXFXFXFXFXFXFXFXFXFXFXFXFXFXFXFXFXFXFXFXFXFXFXFXFXFXFXFXFX",
"FXFXFXFXFXFXFXFXFXFXFXFXFXFXFXFXFXFXFXFXFXFXFXFXFXFXFXFXFXFXFXFXFXFXFXFXFXFXFXFXFXFXFXFXFXFXFXFXFXFXFXFXFXFXFXFXFXFXFXFXFXFXFXFXFXFXFXFXFXFXFXFXFXFXFXFXFXFXFXFXFXFXFXFXFXFXFXFXFXFXFXFXFXFXFXFXFXFXFXFXFXDXgXm.C G.yXkXxXrXD.g.*XV.} {.xX[.x.( p p ( G.@XrXeXeX0X9X,X^.R.x.k.m.x.x.D.D.D.R.D.k.g.&.( B t 9 7 0 9 v V D X.X.X.^ Y E E C A A Z C Z E E j 7 = ; > 8 k N A X...&.X.A 0.J.K.aXGXGXKXFXKXKXFXFXFXFXFXFXFXFXFXFXFXFXFXFXFXFXFXFXFXFXFXFXFXFXFXFXFXFXFXFXFXFXFXFXFXFXFXFXFXFXFXFXFXFXFXFXFXFXFXFXFXFXFXFXFXFXFXFXFXFXFXFXFXFXFXFXFXFXFXFXFXFXFXFXFXFXFXFXFXFXFXFXFXFXFXFXFXFXFXFXFXFXFXFXFXFXFXFXFXFXFXFXFXFXFX",
"FXFXFXFXFXFXFXFXFXFXFXFXFXFXFXFXFXFXFXFXFXFXFXFXFXFXFXFXFXFXFXFXFXFXFXFXFXFXFXFXFXFXFXFXFXFXFXFXFXFXFXFXFXFXFXFXFXFXFXFXFXFXFXFXFXFXFXFXFXFXFXFXFXFXFXFXFXFXFXFXFXFXFXFXFXFXFXFXFXFXFXFXFXFXFXFXFXFXFXFXFXAXkXF.Z ;.+XyXeXR.| t ( *Xn.[.SX[.v.{ B B { '.@XrXrX0X0XoX^.U.A.A.D.D.U.T.).[.[.,X).^.U.v.h.@.E k w = = 8 h M D ;.;.X.C R E C S A C S A E k 7 @ = 7 r k C E A E @.&.%.@.z._.BXKXGXGXKXFXFXFXFXFXFXFXFXFXFXFXFXFXFXFXFXFXFXFXFXFXFXFXFXFXFXFXFXFXFXFXFXFXFXFXFXFXFXFXFXFXFXFXFXFXFXFXFXFXFXFXFXFXFXFXFXFXFXFXFXFXFXFXFXFXFXFXFXFXFXFXFXFXFXFXFXFXFXFXFXFXFXFXFXFXFXFXFXFXFXFXFXFXFXFXFXFXFXFXFXFXFXFXFXFXFXFXFX",
"FXFXFXFXFXFXFXFXFXFXFXFXFXFXFXFXFXFXFXFXFXFXFXFXFXFXFXFXFXFXFXFXFXFXFXFXFXFXFXFXFXFXFXFXFXFXFXFXFXFXFXFXFXFXFXFXFXFXFXFXFXFXFXFXFXFXFXFXFXFXFXFXFXFXFXFXFXFXFXFXFXFXFXFXFXFXFXFXFXFXFXFXFXFXFXFXFXFXFXFXFXDXxX}.-.X.].wX[.g.t 6 a '.{.1XxX{.l.} } ( -.].wXeXrXqX7X{.E.R.n.R.Y.^.[.6X9X9X9X;X=X~.Y.J.z.6.#.` l > ; > 8 r m :.;.;./ R E E C C C E ^ B 7 = & 7 t j x C R R  .O.0.k.0.Z.9XDXFXGXGXKXKXFXFXFXFXFXFXFXFXFXFXFXFXFXFXFXFXFXFXFXFXFXFXFXFXFXFXFXFXFXFXFXFXFXFXFXFXFXFXFXFXFXFXFXFXFXFXFXFXFXFXFXFXFXFXFXFXFXFXFXFXFXFXFXFXFXFXFXFXFXFXFXFXFXFXFXFXFXFXFXFXFXFXFXFXFXFXFXFXFXFXFXFXFXFXFXFXFXFXFXFXFXFXFXFXFXFXFX",
"FXFXFXFXFXFXFXFXFXFXFXFXFXFXFXFXFXFXFXFXFXFXFXFXFXFXFXFXFXFXFXFXFXFXFXFXFXFXFXFXFXFXFXFXFXFXFXFXFXFXFXFXFXFXFXFXFXFXFXFXFXFXFXFXFXFXFXFXFXFXFXFXFXFXFXFXFXFXFXFXFXFXFXFXFXFXFXFXFXFXFXFXFXFXFXFXFXFXFXFXFXDXSXqXm.( n.wX{.( 7 6 v T.[.<XgXT.8.} } { g.}.@XeXrXqX[.].T.R.R.T.^.{.7X9X9X9X9X-X).~.L.A.z.6.o.{ Y r 7 = 7 t a D -.m.h.o.E E E S Z ^ M e = * ; 8 t h h S R ~ #.2.z.S.0.P.zXKXPXGXGXKXKXFXFXFXFXFXFXFXFXFXFXFXFXFXFXFXFXFXFXFXFXFXFXFXFXFXFXFXFXFXFXFXFXFXFXFXFXFXFXFXFXFXFXFXFXFXFXFXFXFXFXFXFXFXFXFXFXFXFXFXFXFXFXFXFXFXFXFXFXFXFXFXFXFXFXFXFXFXFXFXFXFXFXFXFXFXFXFXFXFXFXFXFXFXFXFXFXFXFXFXFXFXFXFXFXFXFXFX",
"FXFXFXFXFXFXFXFXFXFXFXFXFXFXFXFXFXFXFXFXFXFXFXFXFXFXFXFXFXFXFXFXFXFXFXFXFXFXFXFXFXFXFXFXFXFXFXFXFXFXFXFXFXFXFXFXFXFXFXFXFXFXFXFXFXFXFXFXFXFXFXFXFXFXFXFXFXFXFXFXFXFXFXFXFXFXFXFXFXFXFXFXFXFXFXFXFXFXFXFXFXGXZXhXT.( m.yX1X( 9 9 T Y.`.9X9XI.j.} { | h.@X{.eXrX7X{.T.R.R.'.E.{.[.7XqX9X9X9X6X).^.Y.U.z.%.o.T T B w 6 6 t a a :.n.G.@.Y E Z C Z C r 6 & = 7 t j h z C R _ O.5.A.A.q.~.ZXGXGXGXKXKXFXFXFXFXFXFXFXFXFXFXFXFXFXFXFXFXFXFXFXFXFXFXFXFXFXFXFXFXFXFXFXFXFXFXFXFXFXFXFXFXFXFXFXFXFXFXFXFXFXFXFXFXFXFXFXFXFXFXFXFXFXFXFXFXFXFXFXFXFXFXFXFXFXFXFXFXFXFXFXFXFXFXFXFXFXFXFXFXFXFXFXFXFXFXFXFXFXFXFXFXFXFXFXFXFXFXFXFX",
"FXFXFXFXFXFXFXFXFXFXFXFXFXFXFXFXFXFXFXFXFXFXFXFXFXFXFXFXFXFXFXFXFXFXFXFXFXFXFXFXFXFXFXFXFXFXFXFXFXFXFXFXFXFXFXFXFXFXFXFXFXFXFXFXFXFXFXFXFXFXFXFXFXFXFXFXFXFXFXFXFXFXFXFXFXFXFXFXFXFXFXFXFXFXFXFXFXFXFXFXFXKXDXSX[.g.-.].+X^ e e H v.l.T.3Xn.m.T a T m.@X+XrX7X{.E.U.F.F.R.^.{.oXqXeX9X9XsX6X-X^.Y.A.l.%.{ A m V h 0 6 7 a p ( n.R.j.~ C Z S X.S 7 = & = 9 t j k C Y ! o.O.j.S.A.z.).DXFXFXFXFXFXFXFXFXFXFXFXFXFXFXFXFXFXFXFXFXFXFXFXFXFXFXFXFXFXFXFXFXFXFXFXFXFXFXFXFXFXFXFXFXFXFXFXFXFXFXFXFXFXFXFXFXFXFXFXFXFXFXFXFXFXFXFXFXFXFXFXFXFXFXFXFXFXFXFXFXFXFXFXFXFXFXFXFXFXFXFXFXFXFXFXFXFXFXFXFXFXFXFXFXFXFXFXFXFXFXFXFXFX",
"FXFXFXFXFXFXFXFXFXFXFXFXFXFXFXFXFXFXFXFXFXFXFXFXFXFXFXFXFXFXFXFXFXFXFXFXFXFXFXFXFXFXFXFXFXFXFXFXFXFXFXFXFXFXFXFXFXFXFXFXFXFXFXFXFXFXFXFXFXFXFXFXFXFXFXFXFXFXFXFXFXFXFXFXFXFXFXFXFXFXFXFXFXFXFXFXFXFXFXFXFXKXGXZX7Xm.:.V.@Xk.k l J 9.I.1X1XR.m.T B ( *X@X@XrXoX{.T.F.F.F.F.].oX7XrXeXkXsX-X8X-X~.Y.v.j.#.{ C m m h 0 6 7 a m &.F.T.x.@.T Z C ..h > * & = 9 t j k C Y R o.#.j.j.j.a.,XDXFXFXFXFXFXFXFXFXFXFXFXFXFXFXFXFXFXFXFXFXFXFXFXFXFXFXFXFXFXFXFXFXFXFXFXFXFXFXFXFXFXFXFXFXFXFXFXFXFXFXFXFXFXFXFXFXFXFXFXFXFXFXFXFXFXFXFXFXFXFXFXFXFXFXFXFXFXFXFXFXFXFXFXFXFXFXFXFXFXFXFXFXFXFXFXFXFXFXFXFXFXFXFXFXFXFXFXFXFXFXFXFXFX",
"FXFXFXFXFXFXFXFXFXFXFXFXFXFXFXFXFXFXFXFXFXFXFXFXFXFXFXFXFXFXFXFXFXFXFXFXFXFXFXFXFXFXFXFXFXFXFXFXFXFXFXFXFXFXFXFXFXFXFXFXFXFXFXFXFXFXFXFXFXFXFXFXFXFXFXFXFXFXFXFXFXFXFXFXFXFXFXFXFXFXFXFXFXFXFXFXFXFXFXFXFXFXGXDXgX'.-.-.}.}.Q U U <.[.kX0XT.x.&.T -.*X@X@XwXoX].R.F.F.F.F.G.F.F.U.{.eXvXgX8X,XQ.I.b.g.@.~ C m m v t 7 6 a M -.F.T.D.%.T T R E e * & & 6 9 t v N Y Y ~ #.6.h.$.#.p.aXDXGXFXFXFXFXFXFXFXFXFXFXFXFXFXFXFXFXFXFXFXFXFXFXFXFXFXFXFXFXFXFXFXFXFXFXFXFXFXFXFXFXFXFXFXFXFXFXFXFXFXFXFXFXFXFXFXFXFXFXFXFXFXFXFXFXFXFXFXFXFXFXFXFXFXFXFXFXFXFXFXFXFXFXFXFXFXFXFXFXFXFXFXFXFXFXFXFXFXFXFXFXFXFXFXFXFXFXFXFXFXFXFXFX",
"FXFXFXFXFXFXFXFXFXFXFXFXFXFXFXFXFXFXFXFXFXFXFXFXFXFXFXFXFXFXFXFXFXFXFXFXFXFXFXFXFXFXFXFXFXFXFXFXFXFXFXFXFXFXFXFXFXFXFXFXFXFXFXFXFXFXFXFXFXFXFXFXFXFXFXFXFXFXFXFXFXFXFXFXFXFXFXFXFXFXFXFXFXFXFXFXFXFXFXFXFXFXFXKXzX}.m.{ *XwXm.[ | g.eXvXvXoXR.j.{ g.].@XyXwXoX].'.'.'.'.'.h.-.&.g.v.T.9XhX,X(.Q.J.l.%.Q Y C m m b p 0 = t D ;.G.T.T.w.Q Y @.~ > @ * = 7 9 N C E T Y ~ @.6.%.o.] M.hXDXGXFXFXFXFXFXFXFXFXFXFXFXFXFXFXFXFXFXFXFXFXFXFXFXFXFXFXFXFXFXFXFXFXFXFXFXFXFXFXFXFXFXFXFXFXFXFXFXFXFXFXFXFXFXFXFXFXFXFXFXFXFXFXFXFXFXFXFXFXFXFXFXFXFXFXFXFXFXFXFXFXFXFXFXFXFXFXFXFXFXFXFXFXFXFXFXFXFXFXFXFXFXFXFXFXFXFXFXFXFXFXFXFX",
"FXFXFXFXFXFXFXFXFXFXFXFXFXFXFXFXFXFXFXFXFXFXFXFXFXFXFXFXFXFXFXFXFXFXFXFXFXFXFXFXFXFXFXFXFXFXFXFXFXFXFXFXFXFXFXFXFXFXFXFXFXFXFXFXFXFXFXFXFXFXFXFXFXFXFXFXFXFXFXFXFXFXFXFXFXFXFXFXFXFXFXFXFXFXFXFXFXFXFXFXFXFXFXFXBXgX'.-.-.@XoX9.<.R.kXsXzXvX[.I.j.R.rXrXeXwXoX].].].].].].*XV.k.x.D.I.J.K.~.~.Y.A.k.%. .Y Z Z S M M 0 6 p D ;.G.E.^.b._ W @.Y , @ = > 8 t B N N B B N E @.@.o.O.K.SXKXFXFXFXFXFXFXFXFXFXFXFXFXFXFXFXFXFXFXFXFXFXFXFXFXFXFXFXFXFXFXFXFXFXFXFXFXFXFXFXFXFXFXFXFXFXFXFXFXFXFXFXFXFXFXFXFXFXFXFXFXFXFXFXFXFXFXFXFXFXFXFXFXFXFXFXFXFXFXFXFXFXFXFXFXFXFXFXFXFXFXFXFXFXFXFXFXFXFXFXFXFXFXFXFXFXFXFXFXFXFXFXFXFX",
"FXFXFXFXFXFXFXFXFXFXFXFXFXFXFXFXFXFXFXFXFXFXFXFXFXFXFXFXFXFXFXFXFXFXFXFXFXFXFXFXFXFXFXFXFXFXFXFXFXFXFXFXFXFXFXFXFXFXFXFXFXFXFXFXFXFXFXFXFXFXFXFXFXFXFXFXFXFXFXFXFXFXFXFXFXFXFXFXFXFXFXFXFXFXFXFXFXFXFXFXFXFXFXFXPXxX[.m.-.T.kX'.b.(.xXgXgXvX9X[.^.{.yXkXgX@XoX].].].].{.{.{.{.].'.'.].A.8.w.q.q.6.%.@.~ T m h h j v 0 6 p X.;.F.^.[.J.] ) @.Y , + * ; > 7 w e t t t v Z X.~ o.5.!.AXKXFXFXFXFXFXFXFXFXFXFXFXFXFXFXFXFXFXFXFXFXFXFXFXFXFXFXFXFXFXFXFXFXFXFXFXFXFXFXFXFXFXFXFXFXFXFXFXFXFXFXFXFXFXFXFXFXFXFXFXFXFXFXFXFXFXFXFXFXFXFXFXFXFXFXFXFXFXFXFXFXFXFXFXFXFXFXFXFXFXFXFXFXFXFXFXFXFXFXFXFXFXFXFXFXFXFXFXFXFXFXFXFXFX",
"FXFXFXFXFXFXFXFXFXFXFXFXFXFXFXFXFXFXFXFXFXFXFXFXFXFXFXFXFXFXFXFXFXFXFXFXFXFXFXFXFXFXFXFXFXFXFXFXFXFXFXFXFXFXFXFXFXFXFXFXFXFXFXFXFXFXFXFXFXFXFXFXFXFXFXFXFXFXFXFXFXFXFXFXFXFXFXFXFXFXFXFXFXFXFXFXFXFXFXFXFXKXFXFXGXBXqX'.-.x.wXrXT.!.hXvXeX0XvXyXrXrXrXkXkXrX@X}.{.{.oXoXoX&XoX{.].].].T.x.@.Q H x k j t t 7 > , 6 0 6 6 a ;.m.F.{.7XY.1._ &.~ > & * * * * ; > 7 8 t b V X. .#.7.=XDXKXFXFXFXFXFXFXFXFXFXFXFXFXFXFXFXFXFXFXFXFXFXFXFXFXFXFXFXFXFXFXFXFXFXFXFXFXFXFXFXFXFXFXFXFXFXFXFXFXFXFXFXFXFXFXFXFXFXFXFXFXFXFXFXFXFXFXFXFXFXFXFXFXFXFXFXFXFXFXFXFXFXFXFXFXFXFXFXFXFXFXFXFXFXFXFXFXFXFXFXFXFXFXFXFXFXFXFXFXFXFXFXFXFX",
"FXFXFXFXFXFXFXFXFXFXFXFXFXFXFXFXFXFXFXFXFXFXFXFXFXFXFXFXFXFXFXFXFXFXFXFXFXFXFXFXFXFXFXFXFXFXFXFXFXFXFXFXFXFXFXFXFXFXFXFXFXFXFXFXFXFXFXFXFXFXFXFXFXFXFXFXFXFXFXFXFXFXFXFXFXFXFXFXFXFXFXFXFXFXFXFXFXFXFXFXFXKXGXFXFXBX9X}.-.m.R.xX7XK.9XxXgX0XyXrXiXiXrXyXrXrXrXoXoXoXoX7XqXoXoXoX{.E.F.F.F.m.-.C t e 8 0 6 > ; * = = 6 7 | ;.G.R.{.9XY.1.' @.~ e , ; - - ; > 7 7 9 t b V D  .#.7.,XDXDXGXFXFXFXFXFXFXFXFXFXFXFXFXFXFXFXFXFXFXFXFXFXFXFXFXFXFXFXFXFXFXFXFXFXFXFXFXFXFXFXFXFXFXFXFXFXFXFXFXFXFXFXFXFXFXFXFXFXFXFXFXFXFXFXFXFXFXFXFXFXFXFXFXFXFXFXFXFXFXFXFXFXFXFXFXFXFXFXFXFXFXFXFXFXFXFXFXFXFXFXFXFXFXFXFXFXFXFXFXFXFXFXFX",
"FXFXFXFXFXFXFXFXFXFXFXFXFXFXFXFXFXFXFXFXFXFXFXFXFXFXFXFXFXFXFXFXFXFXFXFXFXFXFXFXFXFXFXFXFXFXFXFXFXFXFXFXFXFXFXFXFXFXFXFXFXFXFXFXFXFXFXFXFXFXFXFXFXFXFXFXFXFXFXFXFXFXFXFXFXFXFXFXFXFXFXFXFXFXFXFXFXFXFXFXFXFXKXDXDXAXhX1XR.-.g.rXgXJ._.kXhXgXvXvXeXyXyXkXyXrXrXqX7X7X7X7X7XqX7XoX{.'.F.m.k.-.-.&./ ( B t 9 > , ; 6 6 7 r ( m.D.^.,X0X^.6.U @.@.z , ; > - 2 7 7 7 8 j M E E  .$.u.pXKXDXKXKXFXFXFXFXFXFXFXFXFXFXFXFXFXFXFXFXFXFXFXFXFXFXFXFXFXFXFXFXFXFXFXFXFXFXFXFXFXFXFXFXFXFXFXFXFXFXFXFXFXFXFXFXFXFXFXFXFXFXFXFXFXFXFXFXFXFXFXFXFXFXFXFXFXFXFXFXFXFXFXFXFXFXFXFXFXFXFXFXFXFXFXFXFXFXFXFXFXFXFXFXFXFXFXFXFXFXFXFXFXFXFX",
"FXFXFXFXFXFXFXFXFXFXFXFXFXFXFXFXFXFXFXFXFXFXFXFXFXFXFXFXFXFXFXFXFXFXFXFXFXFXFXFXFXFXFXFXFXFXFXFXFXFXFXFXFXFXFXFXFXFXFXFXFXFXFXFXFXFXFXFXFXFXFXFXFXFXFXFXFXFXFXFXFXFXFXFXFXFXFXFXFXFXFXFXFXFXFXFXFXFXFXFXFXFXKXDXDXDXSXgX{.m.%.}.yXU.Y.gXhXvXvXvXgXyXyXyXyXrXrXqXrXrXrXrXqXqX7X{.{.].R.n.m./ T N k t t 7 6 > , = 7 7 9 B -.x.R.^.6X0X^.8.W @.#.T w > w > w w e 9 t b V E ~  .$.p.pXKXGXKXKXFXFXFXFXFXFXFXFXFXFXFXFXFXFXFXFXFXFXFXFXFXFXFXFXFXFXFXFXFXFXFXFXFXFXFXFXFXFXFXFXFXFXFXFXFXFXFXFXFXFXFXFXFXFXFXFXFXFXFXFXFXFXFXFXFXFXFXFXFXFXFXFXFXFXFXFXFXFXFXFXFXFXFXFXFXFXFXFXFXFXFXFXFXFXFXFXFXFXFXFXFXFXFXFXFXFXFXFXFXFXFX",
"FXFXFXFXFXFXFXFXFXFXFXFXFXFXFXFXFXFXFXFXFXFXFXFXFXFXFXFXFXFXFXFXFXFXFXFXFXFXFXFXFXFXFXFXFXFXFXFXFXFXFXFXFXFXFXFXFXFXFXFXFXFXFXFXFXFXFXFXFXFXFXFXFXFXFXFXFXFXFXFXFXFXFXFXFXFXFXFXFXFXFXFXFXFXFXFXFXFXFXFXFXFXFXKXKXDXAXhXrX'.6.n.rX{.T.gXhXgXkXvXvXgXkXkXyXeXeXrXrXrXrXrXrXqX7X{.{.].R.D.x.&./ T k r t 8 7 w 7 7 8 e r ( h.F.T.[.9X0X^.w.W o.%.@.r 7 e e r t j h b M D / ~  .$.H.dXKXKXKXKXFXFXFXFXFXFXFXFXFXFXFXFXFXFXFXFXFXFXFXFXFXFXFXFXFXFXFXFXFXFXFXFXFXFXFXFXFXFXFXFXFXFXFXFXFXFXFXFXFXFXFXFXFXFXFXFXFXFXFXFXFXFXFXFXFXFXFXFXFXFXFXFXFXFXFXFXFXFXFXFXFXFXFXFXFXFXFXFXFXFXFXFXFXFXFXFXFXFXFXFXFXFXFXFXFXFXFXFXFXFXFX",
"FXFXFXFXFXFXFXFXFXFXFXFXFXFXFXFXFXFXFXFXFXFXFXFXFXFXFXFXFXFXFXFXFXFXFXFXFXFXFXFXFXFXFXFXFXFXFXFXFXFXFXFXFXFXFXFXFXFXFXFXFXFXFXFXFXFXFXFXFXFXFXFXFXFXFXFXFXFXFXFXFXFXFXFXFXFXFXFXFXFXFXFXFXFXFXFXFXFXFXFXFXFXFXKXDXDXZXzXgX}.x.l.oXrX7XvXgXvXvXvXvXvXkXkXkXeXeXeXeXrXrXrXrXqX7XoX{.^.T.R.A.x.k.-.&./ T N B x k j j h C &.m.F.].[.9XsX).u.) o.%.@.k 8 e t j h h b m V T E ~ o.5.L.BXKXFXKXKXFXFXFXFXFXFXFXFXFXFXFXFXFXFXFXFXFXFXFXFXFXFXFXFXFXFXFXFXFXFXFXFXFXFXFXFXFXFXFXFXFXFXFXFXFXFXFXFXFXFXFXFXFXFXFXFXFXFXFXFXFXFXFXFXFXFXFXFXFXFXFXFXFXFXFXFXFXFXFXFXFXFXFXFXFXFXFXFXFXFXFXFXFXFXFXFXFXFXFXFXFXFXFXFXFXFXFXFXFXFXFX",
"FXFXFXFXFXFXFXFXFXFXFXFXFXFXFXFXFXFXFXFXFXFXFXFXFXFXFXFXFXFXFXFXFXFXFXFXFXFXFXFXFXFXFXFXFXFXFXFXFXFXFXFXFXFXFXFXFXFXFXFXFXFXFXFXFXFXFXFXFXFXFXFXFXFXFXFXFXFXFXFXFXFXFXFXFXFXFXFXFXFXFXFXFXFXFXFXFXFXFXFXFXFXFXKXGXGXPXBXgX7X].j.D.wXkXxXgXvXzXvXvXvXkXkXvXeXeXeXeXeXeXrXrXqX7XoX{.^.E.U.J.x.k.h.%.&.../ ^ R T C Z Z / -.G.F.].[.9XsX).u.) O.%.&.T j 9 j h h h b V D T E ~ o.5.~.SXKXFXKXKXFXFXFXFXFXFXFXFXFXFXFXFXFXFXFXFXFXFXFXFXFXFXFXFXFXFXFXFXFXFXFXFXFXFXFXFXFXFXFXFXFXFXFXFXFXFXFXFXFXFXFXFXFXFXFXFXFXFXFXFXFXFXFXFXFXFXFXFXFXFXFXFXFXFXFXFXFXFXFXFXFXFXFXFXFXFXFXFXFXFXFXFXFXFXFXFXFXFXFXFXFXFXFXFXFXFXFXFXFXFXFX",
"FXFXFXFXFXFXFXFXFXFXFXFXFXFXFXFXFXFXFXFXFXFXFXFXFXFXFXFXFXFXFXFXFXFXFXFXFXFXFXFXFXFXFXFXFXFXFXFXFXFXFXFXFXFXFXFXFXFXFXFXFXFXFXFXFXFXFXFXFXFXFXFXFXFXFXFXFXFXFXFXFXFXFXFXFXFXFXFXFXFXFXFXFXFXFXFXFXFXFXFXFXFXFXFXGXFXDXBXgXeX7Xk.g.}.kXvXgXzXzXzXzXvXkXkXvXvXgXeXeXeXqXqXqX0X7XoX[.^.E.U.Z.z.k.0.%.@.~ E T T T A ^ X.;.m.*X'.}.7X0XsX,Xu.) o.6.&...S j j b b b S V D T E ~ o.5.-XAXKXFXKXKXFXFXFXFXFXFXFXFXFXFXFXFXFXFXFXFXFXFXFXFXFXFXFXFXFXFXFXFXFXFXFXFXFXFXFXFXFXFXFXFXFXFXFXFXFXFXFXFXFXFXFXFXFXFXFXFXFXFXFXFXFXFXFXFXFXFXFXFXFXFXFXFXFXFXFXFXFXFXFXFXFXFXFXFXFXFXFXFXFXFXFXFXFXFXFXFXFXFXFXFXFXFXFXFXFXFXFXFXFXFXFX",
"FXFXFXFXFXFXFXFXFXFXFXFXFXFXFXFXFXFXFXFXFXFXFXFXFXFXFXFXFXFXFXFXFXFXFXFXFXFXFXFXFXFXFXFXFXFXFXFXFXFXFXFXFXFXFXFXFXFXFXFXFXFXFXFXFXFXFXFXFXFXFXFXFXFXFXFXFXFXFXFXFXFXFXFXFXFXFXFXFXFXFXFXFXFXFXFXFXFXFXFXFXFXFXKXFXFXKXZXhXgXrX'.h.n.rXgXjXzXzXzXvXvXzXkXvXvXgXeXeXeXqXqXqXqX7X[.{.^.Y.K.Z.x.z.e.$.@.~ T Y T Z A ^ X.;.V.*X].}.7XsXzX,Xu.) o.0.@.A V b b b b b S V D T E ~ o.5.,XDXFXFXGXFXFXFXFXFXFXFXFXFXFXFXFXFXFXFXFXFXFXFXFXFXFXFXFXFXFXFXFXFXFXFXFXFXFXFXFXFXFXFXFXFXFXFXFXFXFXFXFXFXFXFXFXFXFXFXFXFXFXFXFXFXFXFXFXFXFXFXFXFXFXFXFXFXFXFXFXFXFXFXFXFXFXFXFXFXFXFXFXFXFXFXFXFXFXFXFXFXFXFXFXFXFXFXFXFXFXFXFXFXFXFXFX",
"FXFXFXFXFXFXFXFXFXFXFXFXFXFXFXFXFXFXFXFXFXFXFXFXFXFXFXFXFXFXFXFXFXFXFXFXFXFXFXFXFXFXFXFXFXFXFXFXFXFXFXFXFXFXFXFXFXFXFXFXFXFXFXFXFXFXFXFXFXFXFXFXFXFXFXFXFXFXFXFXFXFXFXFXFXFXFXFXFXFXFXFXFXFXFXFXFXFXFXFXFXFXFXFXFXFXFXZXjXzXqX@XF.n.1XgXzXBXBXzXzXzXzXzXvXgXgXeXeXrXrX7X7X7X7X[.{.^.Y.J.c.z.j.0.#.` ~ ~ ~ E E A ^ X.;.m.*X].oXrXsXzX,Xu.W o.j.~ m S b b b b m S V D Z R  .o.5.8XDXFXFXGXFXFXFXFXFXFXFXFXFXFXFXFXFXFXFXFXFXFXFXFXFXFXFXFXFXFXFXFXFXFXFXFXFXFXFXFXFXFXFXFXFXFXFXFXFXFXFXFXFXFXFXFXFXFXFXFXFXFXFXFXFXFXFXFXFXFXFXFXFXFXFXFXFXFXFXFXFXFXFXFXFXFXFXFXFXFXFXFXFXFXFXFXFXFXFXFXFXFXFXFXFXFXFXFXFXFXFXFXFXFXFXFX",
"FXFXFXFXFXFXFXFXFXFXFXFXFXFXFXFXFXFXFXFXFXFXFXFXFXFXFXFXFXFXFXFXFXFXFXFXFXFXFXFXFXFXFXFXFXFXFXFXFXFXFXFXFXFXFXFXFXFXFXFXFXFXFXFXFXFXFXFXFXFXFXFXFXFXFXFXFXFXFXFXFXFXFXFXFXFXFXFXFXFXFXFXFXFXFXFXFXFXFXFXFXFXFXKXKXFXFXPXBXsXvX7X].R.T.gXzXzXzXzXzXBXzXBXSXhXgXsX0X0X0X7X7X7X7X,X^.T.Y.J.v.l.j.6.#.` E E E E ^ ^ E / h.x.x.{.eXvXjXjX=Xt.) O.e.@.r h M b b b m V V Z A E E ] l.sXDXFXFXGXFXFXFXFXFXFXFXFXFXFXFXFXFXFXFXFXFXFXFXFXFXFXFXFXFXFXFXFXFXFXFXFXFXFXFXFXFXFXFXFXFXFXFXFXFXFXFXFXFXFXFXFXFXFXFXFXFXFXFXFXFXFXFXFXFXFXFXFXFXFXFXFXFXFXFXFXFXFXFXFXFXFXFXFXFXFXFXFXFXFXFXFXFXFXFXFXFXFXFXFXFXFXFXFXFXFXFXFXFXFXFXFX",
"FXFXFXFXFXFXFXFXFXFXFXFXFXFXFXFXFXFXFXFXFXFXFXFXFXFXFXFXFXFXFXFXFXFXFXFXFXFXFXFXFXFXFXFXFXFXFXFXFXFXFXFXFXFXFXFXFXFXFXFXFXFXFXFXFXFXFXFXFXFXFXFXFXFXFXFXFXFXFXFXFXFXFXFXFXFXFXFXFXFXFXFXFXFXFXFXFXFXFXFXFXFXFXKXKXFXFXPXBXsXvXrXoXT.R.9XxXzXzXzXzXzXzXzXzXhXgXsX0X0X0X7X7X7X7X[.^.Y.U.A.v.l.8.5.@.~ E E E ^ ^ C T h.'.}.7X,XgXjXjXdX/.7.) _ 0.0.z h n b h b b V V Z A E ~ ` c.hXKXFXFXGXFXFXFXFXFXFXFXFXFXFXFXFXFXFXFXFXFXFXFXFXFXFXFXFXFXFXFXFXFXFXFXFXFXFXFXFXFXFXFXFXFXFXFXFXFXFXFXFXFXFXFXFXFXFXFXFXFXFXFXFXFXFXFXFXFXFXFXFXFXFXFXFXFXFXFXFXFXFXFXFXFXFXFXFXFXFXFXFXFXFXFXFXFXFXFXFXFXFXFXFXFXFXFXFXFXFXFXFXFXFXFXFX",
"FXFXFXFXFXFXFXFXFXFXFXFXFXFXFXFXFXFXFXFXFXFXFXFXFXFXFXFXFXFXFXFXFXFXFXFXFXFXFXFXFXFXFXFXFXFXFXFXFXFXFXFXFXFXFXFXFXFXFXFXFXFXFXFXFXFXFXFXFXFXFXFXFXFXFXFXFXFXFXFXFXFXFXFXFXFXFXFXFXFXFXFXFXFXFXFXFXFXFXFXFXFXFXKXKXFXFXPXBXsXvXyXrX].I.[.vXzXzXzXzXzXzXzXzXhXgXsX0X0X0X7X7XoX[.{.^.Y.I.A.b.j.6.@.{ E E E E ^ ^ k Y T.yXgXxXhXzXjXjXsXQ.4.W ) 6.S./ t t b j n b S V Z E E ~ _ K.SXKXFXFXGXFXFXFXFXFXFXFXFXFXFXFXFXFXFXFXFXFXFXFXFXFXFXFXFXFXFXFXFXFXFXFXFXFXFXFXFXFXFXFXFXFXFXFXFXFXFXFXFXFXFXFXFXFXFXFXFXFXFXFXFXFXFXFXFXFXFXFXFXFXFXFXFXFXFXFXFXFXFXFXFXFXFXFXFXFXFXFXFXFXFXFXFXFXFXFXFXFXFXFXFXFXFXFXFXFXFXFXFXFXFXFXFX",
"FXFXFXFXFXFXFXFXFXFXFXFXFXFXFXFXFXFXFXFXFXFXFXFXFXFXFXFXFXFXFXFXFXFXFXFXFXFXFXFXFXFXFXFXFXFXFXFXFXFXFXFXFXFXFXFXFXFXFXFXFXFXFXFXFXFXFXFXFXFXFXFXFXFXFXFXFXFXFXFXFXFXFXFXFXFXFXFXFXFXFXFXFXFXFXFXFXFXFXFXFXFXFXKXKXFXFXPXCXhXzXkXyX{.I.^.gXzXzXzXzXzXzXzXzXhXgXsX0X0X0X7X7XoX[.{.E.U.I.x.k.6.&.{ E E E E Z D D r Q oXVXgXdXzXdXfXdXsXK.} Q K 5.R.&.9 9 b j n b S V Z E E ~ ] ~.DXKXFXFXFXFXFXFXFXFXFXFXFXFXFXFXFXFXFXFXFXFXFXFXFXFXFXFXFXFXFXFXFXFXFXFXFXFXFXFXFXFXFXFXFXFXFXFXFXFXFXFXFXFXFXFXFXFXFXFXFXFXFXFXFXFXFXFXFXFXFXFXFXFXFXFXFXFXFXFXFXFXFXFXFXFXFXFXFXFXFXFXFXFXFXFXFXFXFXFXFXFXFXFXFXFXFXFXFXFXFXFXFXFXFXFXFX",
"FXFXFXFXFXFXFXFXFXFXFXFXFXFXFXFXFXFXFXFXFXFXFXFXFXFXFXFXFXFXFXFXFXFXFXFXFXFXFXFXFXFXFXFXFXFXFXFXFXFXFXFXFXFXFXFXFXFXFXFXFXFXFXFXFXFXFXFXFXFXFXFXFXFXFXFXFXFXFXFXFXFXFXFXFXFXFXFXFXFXFXFXFXFXFXFXFXFXFXFXFXFXFXKXKXFXFXDXCXzXzXvXvX7XT.R.7XzXzXzXzXzXzXzXzXzXgXsX0X0X9X7X7XoXoX{.T.U.D.x.j.%.@.E T T E Z V F M 8 U }.xX0XgX<X8X-X8X,Xv.{ T K $.F.X.9 9 v v j b S V Z E E ~ 5.,XDXKXGXFXFXFXFXFXFXFXFXFXFXFXFXFXFXFXFXFXFXFXFXFXFXFXFXFXFXFXFXFXFXFXFXFXFXFXFXFXFXFXFXFXFXFXFXFXFXFXFXFXFXFXFXFXFXFXFXFXFXFXFXFXFXFXFXFXFXFXFXFXFXFXFXFXFXFXFXFXFXFXFXFXFXFXFXFXFXFXFXFXFXFXFXFXFXFXFXFXFXFXFXFXFXFXFXFXFXFXFXFXFXFXFXFXFX",
"FXFXFXFXFXFXFXFXFXFXFXFXFXFXFXFXFXFXFXFXFXFXFXFXFXFXFXFXFXFXFXFXFXFXFXFXFXFXFXFXFXFXFXFXFXFXFXFXFXFXFXFXFXFXFXFXFXFXFXFXFXFXFXFXFXFXFXFXFXFXFXFXFXFXFXFXFXFXFXFXFXFXFXFXFXFXFXFXFXFXFXFXFXFXFXFXFXFXFXFXFXFXFXKXKXFXFXDXZXSXzXzXgXeX^.I.{.sXzXzXzXzXzXzXzXzXgXsX0X0X9X7X7XoX{.{.T.U.D.k.h.&...E Z Z Z C m F v 7 r m.{.{.oX[.,X[.{.{.k./ T Y &.k.V 9 9 n v j b S V A E E Q i.gXDXFXFXGXFXFXFXFXFXFXFXFXFXFXFXFXFXFXFXFXFXFXFXFXFXFXFXFXFXFXFXFXFXFXFXFXFXFXFXFXFXFXFXFXFXFXFXFXFXFXFXFXFXFXFXFXFXFXFXFXFXFXFXFXFXFXFXFXFXFXFXFXFXFXFXFXFXFXFXFXFXFXFXFXFXFXFXFXFXFXFXFXFXFXFXFXFXFXFXFXFXFXFXFXFXFXFXFXFXFXFXFXFXFXFXFXFX",
"FXFXFXFXFXFXFXFXFXFXFXFXFXFXFXFXFXFXFXFXFXFXFXFXFXFXFXFXFXFXFXFXFXFXFXFXFXFXFXFXFXFXFXFXFXFXFXFXFXFXFXFXFXFXFXFXFXFXFXFXFXFXFXFXFXFXFXFXFXFXFXFXFXFXFXFXFXFXFXFXFXFXFXFXFXFXFXFXFXFXFXFXFXFXFXFXFXFXFXFXFXFXFXKXKXFXFXDXSXSXBXBXhXvX1XN.n.aXhXzXzXzXzXzXjXzXgXsX0X0X9X7X6X{.[.^.T.R.D.k.h.X./ Z C V V M b M t 8 r ( &.&.h.x.R.F.D.n.-.E M C @.&.j 9 p p v j b S V A E E ~ Y.xXDXFXFXFXFXFXFXFXFXFXFXFXFXFXFXFXFXFXFXFXFXFXFXFXFXFXFXFXFXFXFXFXFXFXFXFXFXFXFXFXFXFXFXFXFXFXFXFXFXFXFXFXFXFXFXFXFXFXFXFXFXFXFXFXFXFXFXFXFXFXFXFXFXFXFXFXFXFXFXFXFXFXFXFXFXFXFXFXFXFXFXFXFXFXFXFXFXFXFXFXFXFXFXFXFXFXFXFXFXFXFXFXFXFXFXFXFX",
"FXFXFXFXFXFXFXFXFXFXFXFXFXFXFXFXFXFXFXFXFXFXFXFXFXFXFXFXFXFXFXFXFXFXFXFXFXFXFXFXFXFXFXFXFXFXFXFXFXFXFXFXFXFXFXFXFXFXFXFXFXFXFXFXFXFXFXFXFXFXFXFXFXFXFXFXFXFXFXFXFXFXFXFXFXFXFXFXFXFXFXFXFXFXFXFXFXFXFXFXFXFXFXKXKXFXKXDXAXmXBXSXdXvX7Xv.x.8XsXzXzXzXzXzXjXzXgXsX0X0X9X7X7X[.{.^.T.R.S.k.-...^ Z V V V M v v 9 t M Z B h j k / @./ @./ M v C X.^ 9 q n p p h b S V Z E E ~ ^.SXDXGXFXFXFXKXFXFXFXFXFXFXFXFXFXFXFXFXFXFXFXFXFXFXFXFXFXFXFXFXFXFXFXFXFXFXFXFXFXFXFXFXFXFXFXFXFXFXFXFXFXFXFXFXFXFXFXFXFXFXFXFXFXFXFXFXFXFXFXFXFXFXFXFXFXFXFXFXFXFXFXFXFXFXFXFXFXFXFXFXFXFXFXFXFXFXFXFXFXFXFXFXFXFXFXFXFXFXFXFXFXFXFXFXFXFXFX",
"FXFXFXFXFXFXFXFXFXFXFXFXFXFXFXFXFXFXFXFXFXFXFXFXFXFXFXFXFXFXFXFXFXFXFXFXFXFXFXFXFXFXFXFXFXFXFXFXFXFXFXFXFXFXFXFXFXFXFXFXFXFXFXFXFXFXFXFXFXFXFXFXFXFXFXFXFXFXFXFXFXFXFXFXFXFXFXFXFXFXFXFXFXFXFXFXFXFXFXFXFXFXFXFXFXFXKXDXZXSXBXBXBXhX9XT.g.(.gXkXgXzXzXbXBXgXsX0X9X7X7X6XoX{.{.E.U.D.x.h.&./ ^ Z V V M b v B t t T ( D F F B B t 9 q p v M E ..E b p n n t v m V D V V E #.BXPXKXFXFXFXKXFXFXFXFXFXFXFXFXFXFXFXFXFXFXFXFXFXFXFXFXFXFXFXFXFXFXFXFXFXFXFXFXFXFXFXFXFXFXFXFXFXFXFXFXFXFXFXFXFXFXFXFXFXFXFXFXFXFXFXFXFXFXFXFXFXFXFXFXFXFXFXFXFXFXFXFXFXFXFXFXFXFXFXFXFXFXFXFXFXFXFXFXFXFXFXFXFXFXFXFXFXFXFXFXFXFXFXFXFXFXFXFX",
"FXFXFXFXFXFXFXFXFXFXFXFXFXFXFXFXFXFXFXFXFXFXFXFXFXFXFXFXFXFXFXFXFXFXFXFXFXFXFXFXFXFXFXFXFXFXFXFXFXFXFXFXFXFXFXFXFXFXFXFXFXFXFXFXFXFXFXFXFXFXFXFXFXFXFXFXFXFXFXFXFXFXFXFXFXFXFXFXFXFXFXFXFXFXFXFXFXFXFXFXFXFXFXFXFXFXKXDXZXSXSXBXzXhXeX'.g.I.1XgXgXzXzXjXBXgXsXsX0X7X7X6XoX{.^.T.R.D.k.h.&./ ^ D V V M v n p 9 r / -.:.( D T C t 8 9 p b C  .@./ M n n n t v M M M D S E x.ZXDXFXFXFXFXFXKXFXFXFXFXFXFXFXFXFXFXFXFXFXFXFXFXFXFXFXFXFXFXFXFXFXFXFXFXFXFXFXFXFXFXFXFXFXFXFXFXFXFXFXFXFXFXFXFXFXFXFXFXFXFXFXFXFXFXFXFXFXFXFXFXFXFXFXFXFXFXFXFXFXFXFXFXFXFXFXFXFXFXFXFXFXFXFXFXFXFXFXFXFXFXFXFXFXFXFXFXFXFXFXFXFXFXFXFXFXFXFX",
"FXFXFXFXFXFXFXFXFXFXFXFXFXFXFXFXFXFXFXFXFXFXFXFXFXFXFXFXFXFXFXFXFXFXFXFXFXFXFXFXFXFXFXFXFXFXFXFXFXFXFXFXFXFXFXFXFXFXFXFXFXFXFXFXFXFXFXFXFXFXFXFXFXFXFXFXFXFXFXFXFXFXFXFXFXFXFXFXFXFXFXFXFXFXFXFXFXFXFXFXFXFXFXFXFXFXKXDXZXxXSXzXdXgXgX}.g.8.^.eXgXgXjXdXbXsXsXsX0X9X7X6XoX{.^.T.I.n.k.-.&.( / T V M n n n n v C &.g.g.g.{ %.&.m 7 9 B E R C @.-.D n q n v v M M M D S ` {.DXKXFXFXFXFXFXFXFXFXFXFXFXFXFXFXFXFXFXFXFXFXFXFXFXFXFXFXFXFXFXFXFXFXFXFXFXFXFXFXFXFXFXFXFXFXFXFXFXFXFXFXFXFXFXFXFXFXFXFXFXFXFXFXFXFXFXFXFXFXFXFXFXFXFXFXFXFXFXFXFXFXFXFXFXFXFXFXFXFXFXFXFXFXFXFXFXFXFXFXFXFXFXFXFXFXFXFXFXFXFXFXFXFXFXFXFXFXFX",
"FXFXFXFXFXFXFXFXFXFXFXFXFXFXFXFXFXFXFXFXFXFXFXFXFXFXFXFXFXFXFXFXFXFXFXFXFXFXFXFXFXFXFXFXFXFXFXFXFXFXFXFXFXFXFXFXFXFXFXFXFXFXFXFXFXFXFXFXFXFXFXFXFXFXFXFXFXFXFXFXFXFXFXFXFXFXFXFXFXFXFXFXFXFXFXFXFXFXFXFXFXFXFXFXFXFXKXDXZXxXSXBXsXgXkX}.j.] n.7XgXvXzXzXzXsXsXsX0X9X7X6X[.{.T.R.D.x.h.-.&./ E D M n n n n n V ..j.F.T.R.A.k.j.Y 7 9 Z ~ R C -.-.D n q n v j b M D A C 8.gXKXKXFXFXFXFXFXFXFXFXFXFXFXFXFXFXFXFXFXFXFXFXFXFXFXFXFXFXFXFXFXFXFXFXFXFXFXFXFXFXFXFXFXFXFXFXFXFXFXFXFXFXFXFXFXFXFXFXFXFXFXFXFXFXFXFXFXFXFXFXFXFXFXFXFXFXFXFXFXFXFXFXFXFXFXFXFXFXFXFXFXFXFXFXFXFXFXFXFXFXFXFXFXFXFXFXFXFXFXFXFXFXFXFXFXFXFXFXFX",
"FXFXFXFXFXFXFXFXFXFXFXFXFXFXFXFXFXFXFXFXFXFXFXFXFXFXFXFXFXFXFXFXFXFXFXFXFXFXFXFXFXFXFXFXFXFXFXFXFXFXFXFXFXFXFXFXFXFXFXFXFXFXFXFXFXFXFXFXFXFXFXFXFXFXFXFXFXFXFXFXFXFXFXFXFXFXFXFXFXFXFXFXFXFXFXFXFXFXFXFXFXFXFXFXFXFXKXDXZXSXSXBXsXgXkX}.j.Q j.{.gXhXhXzXzXsXsXsX0X9X7X,X[.{.T.R.D.x.h.-.X.( T M F n n n n D ;.G.F.].}.].T.x.k.T 8 t T ~ z  .k.-.p 0 9 9 j v v M D M Q Y.AXKXKXFXFXFXFXFXFXFXFXFXFXFXFXFXFXFXFXFXFXFXFXFXFXFXFXFXFXFXFXFXFXFXFXFXFXFXFXFXFXFXFXFXFXFXFXFXFXFXFXFXFXFXFXFXFXFXFXFXFXFXFXFXFXFXFXFXFXFXFXFXFXFXFXFXFXFXFXFXFXFXFXFXFXFXFXFXFXFXFXFXFXFXFXFXFXFXFXFXFXFXFXFXFXFXFXFXFXFXFXFXFXFXFXFXFXFXFXFX",
"FXFXFXFXFXFXFXFXFXFXFXFXFXFXFXFXFXFXFXFXFXFXFXFXFXFXFXFXFXFXFXFXFXFXFXFXFXFXFXFXFXFXFXFXFXFXFXFXFXFXFXFXFXFXFXFXFXFXFXFXFXFXFXFXFXFXFXFXFXFXFXFXFXFXFXFXFXFXFXFXFXFXFXFXFXFXFXFXFXFXFXFXFXFXFXFXFXFXFXFXFXFXFXFXFXFXKXDXZXSXSXBXjXgXeX].k.T &.D.7XhXhXhXhXsXsXsX0X9X7X,X[.{.T.R.n.k.-.&.X.( D M n n n p 9 M ;.F.F.F.n.m.m.h.j...k B X.&.R ~ -.B 6 6 0 9 t v v M M m 6.9XKXFXFXFXFXFXFXFXFXFXFXFXFXFXFXFXFXFXFXFXFXFXFXFXFXFXFXFXFXFXFXFXFXFXFXFXFXFXFXFXFXFXFXFXFXFXFXFXFXFXFXFXFXFXFXFXFXFXFXFXFXFXFXFXFXFXFXFXFXFXFXFXFXFXFXFXFXFXFXFXFXFXFXFXFXFXFXFXFXFXFXFXFXFXFXFXFXFXFXFXFXFXFXFXFXFXFXFXFXFXFXFXFXFXFXFXFXFXFXFX",
"FXFXFXFXFXFXFXFXFXFXFXFXFXFXFXFXFXFXFXFXFXFXFXFXFXFXFXFXFXFXFXFXFXFXFXFXFXFXFXFXFXFXFXFXFXFXFXFXFXFXFXFXFXFXFXFXFXFXFXFXFXFXFXFXFXFXFXFXFXFXFXFXFXFXFXFXFXFXFXFXFXFXFXFXFXFXFXFXFXFXFXFXFXFXFXFXFXFXFXFXFXFXFXFXFXFXKXDXZXSXSXBXzXgXrX].k.Z T g.{.gXgXgXhXsXsXsX0X9X1X[.[.{.T.R.n.k.-.&.( D M n n n 9 0 6 6 B &.%.&.E ( / -.h.%.~ / &...E C N 7 @ 6 9 9 t j M F m / T.AXFXGXFXFXFXFXFXFXFXFXFXFXFXFXFXFXFXFXFXFXFXFXFXFXFXFXFXFXFXFXFXFXFXFXFXFXFXFXFXFXFXFXFXFXFXFXFXFXFXFXFXFXFXFXFXFXFXFXFXFXFXFXFXFXFXFXFXFXFXFXFXFXFXFXFXFXFXFXFXFXFXFXFXFXFXFXFXFXFXFXFXFXFXFXFXFXFXFXFXFXFXFXFXFXFXFXFXFXFXFXFXFXFXFXFXFXFXFXFXFX",
"FXFXFXFXFXFXFXFXFXFXFXFXFXFXFXFXFXFXFXFXFXFXFXFXFXFXFXFXFXFXFXFXFXFXFXFXFXFXFXFXFXFXFXFXFXFXFXFXFXFXFXFXFXFXFXFXFXFXFXFXFXFXFXFXFXFXFXFXFXFXFXFXFXFXFXFXFXFXFXFXFXFXFXFXFXFXFXFXFXFXFXFXFXFXFXFXFXFXFXFXFXFXFXFXFXFXKXDXZXSXBXBXzXgXqX'.k.V B #.^.aXaXgXgXsXsXaX0X9X1X[.[.{.R.D.x.k.-.X.^ D F n n p 9 6 @ @ w U z j 9 t F -.m.k.$.~ E B h z k = @ 0 q 9 t 9 D D B -.rXDXGXFXFXFXFXFXFXFXFXFXFXFXFXFXFXFXFXFXFXFXFXFXFXFXFXFXFXFXFXFXFXFXFXFXFXFXFXFXFXFXFXFXFXFXFXFXFXFXFXFXFXFXFXFXFXFXFXFXFXFXFXFXFXFXFXFXFXFXFXFXFXFXFXFXFXFXFXFXFXFXFXFXFXFXFXFXFXFXFXFXFXFXFXFXFXFXFXFXFXFXFXFXFXFXFXFXFXFXFXFXFXFXFXFXFXFXFXFXFXFX",
"FXFXFXFXFXFXFXFXFXFXFXFXFXFXFXFXFXFXFXFXFXFXFXFXFXFXFXFXFXFXFXFXFXFXFXFXFXFXFXFXFXFXFXFXFXFXFXFXFXFXFXFXFXFXFXFXFXFXFXFXFXFXFXFXFXFXFXFXFXFXFXFXFXFXFXFXFXFXFXFXFXFXFXFXFXFXFXFXFXFXFXFXFXFXFXFXFXFXFXFXFXFXFXFXFXFXFXDXDXZXzXzXzXsXeX].h.n M / n.}.9X0XsX0XsXsXsX9X,X[.[.^.R.n.k.;.;.( ^ D F n g 9 6 6 0 6 a ^ @.` W u i u J [ Q l e w u ;.C = = 8 9 v 9 n F b Q (.KXFXPXGXFXFXFXFXFXFXFXFXFXFXFXFXFXFXFXFXFXFXFXFXFXFXFXFXFXFXFXFXFXFXFXFXFXFXFXFXFXFXFXFXFXFXFXFXFXFXFXFXFXFXFXFXFXFXFXFXFXFXFXFXFXFXFXFXFXFXFXFXFXFXFXFXFXFXFXFXFXFXFXFXFXFXFXFXFXFXFXFXFXFXFXFXFXFXFXFXFXFXFXFXFXFXFXFXFXFXFXFXFXFXFXFXFXFXFXFXFXFX",
"FXFXFXFXFXFXFXFXFXFXFXFXFXFXFXFXFXFXFXFXFXFXFXFXFXFXFXFXFXFXFXFXFXFXFXFXFXFXFXFXFXFXFXFXFXFXFXFXFXFXFXFXFXFXFXFXFXFXFXFXFXFXFXFXFXFXFXFXFXFXFXFXFXFXFXFXFXFXFXFXFXFXFXFXFXFXFXFXFXFXFXFXFXFXFXFXFXFXFXFXFXFXFXFXFXFXFXDXDXZXzXzXzXsXeX'.-.n b / m.T.[.7X9X0X9X9X9X<X1X{.[.T.R.n.k.-.-.( D D F n g 9 6 6 0 9 M ;.G.D.D.j.%.l e w > > w k / ;.C = 6 t 9 v v n F V *.gXKXPXDXGXFXFXFXFXFXFXFXFXFXFXFXFXFXFXFXFXFXFXFXFXFXFXFXFXFXFXFXFXFXFXFXFXFXFXFXFXFXFXFXFXFXFXFXFXFXFXFXFXFXFXFXFXFXFXFXFXFXFXFXFXFXFXFXFXFXFXFXFXFXFXFXFXFXFXFXFXFXFXFXFXFXFXFXFXFXFXFXFXFXFXFXFXFXFXFXFXFXFXFXFXFXFXFXFXFXFXFXFXFXFXFXFXFXFXFXFXFXFX",
"FXFXFXFXFXFXFXFXFXFXFXFXFXFXFXFXFXFXFXFXFXFXFXFXFXFXFXFXFXFXFXFXFXFXFXFXFXFXFXFXFXFXFXFXFXFXFXFXFXFXFXFXFXFXFXFXFXFXFXFXFXFXFXFXFXFXFXFXFXFXFXFXFXFXFXFXFXFXFXFXFXFXFXFXFXFXFXFXFXFXFXFXFXFXFXFXFXFXFXFXFXFXFXFXFXFXFXDXDXZXBXzXzXsX7XT.-.9 v ( g.R.[.7X9X9X9X9X8X,X[.[.[.T.R.n.k.-.:.( D ( M n g 9 6 6 0 9 M ;.G.R.R.A.k.#.z e e r k C &.;.Z 8 8 t t v b n D A k.zXKXPXFXFXFXFXFXFXFXFXFXFXFXFXFXFXFXFXFXFXFXFXFXFXFXFXFXFXFXFXFXFXFXFXFXFXFXFXFXFXFXFXFXFXFXFXFXFXFXFXFXFXFXFXFXFXFXFXFXFXFXFXFXFXFXFXFXFXFXFXFXFXFXFXFXFXFXFXFXFXFXFXFXFXFXFXFXFXFXFXFXFXFXFXFXFXFXFXFXFXFXFXFXFXFXFXFXFXFXFXFXFXFXFXFXFXFXFXFXFXFXFX",
"FXFXFXFXFXFXFXFXFXFXFXFXFXFXFXFXFXFXFXFXFXFXFXFXFXFXFXFXFXFXFXFXFXFXFXFXFXFXFXFXFXFXFXFXFXFXFXFXFXFXFXFXFXFXFXFXFXFXFXFXFXFXFXFXFXFXFXFXFXFXFXFXFXFXFXFXFXFXFXFXFXFXFXFXFXFXFXFXFXFXFXFXFXFXFXFXFXFXFXFXFXFXFXKXFXFXFXKXDXSXzXzXjX0X7XT.&.9 p M / m.].[.7X7X9X9X6X,X[.{.].R.R.x.k.-.:.( D T M n g 9 0 0 t n F :.m.*XR.S.e.@.T T E / ^ V X.;.^ v 9 t v v m F :.X.e.sXFXGXFXGXFXFXFXFXFXFXFXFXFXFXFXFXFXFXFXFXFXFXFXFXFXFXFXFXFXFXFXFXFXFXFXFXFXFXFXFXFXFXFXFXFXFXFXFXFXFXFXFXFXFXFXFXFXFXFXFXFXFXFXFXFXFXFXFXFXFXFXFXFXFXFXFXFXFXFXFXFXFXFXFXFXFXFXFXFXFXFXFXFXFXFXFXFXFXFXFXFXFXFXFXFXFXFXFXFXFXFXFXFXFXFXFXFXFXFXFXFXFX",
"FXFXFXFXFXFXFXFXFXFXFXFXFXFXFXFXFXFXFXFXFXFXFXFXFXFXFXFXFXFXFXFXFXFXFXFXFXFXFXFXFXFXFXFXFXFXFXFXFXFXFXFXFXFXFXFXFXFXFXFXFXFXFXFXFXFXFXFXFXFXFXFXFXFXFXFXFXFXFXFXFXFXFXFXFXFXFXFXFXFXFXFXFXFXFXFXFXFXFXFXFXFXFXKXFXFXFXDXDXSXBXzXsX9X7X'.-.9 p p B -.F.}.{.,X,X6X7X,X[.].T.R.D.x.h.-.:.( ^ T M n g g 9 q F ( D D :.m.n.h.@.T C Z M M b v ^ X.^ V t t b b Z :.:.C e.dXFXFXFXFXFXFXFXFXFXFXFXFXFXFXFXFXFXFXFXFXFXFXFXFXFXFXFXFXFXFXFXFXFXFXFXFXFXFXFXFXFXFXFXFXFXFXFXFXFXFXFXFXFXFXFXFXFXFXFXFXFXFXFXFXFXFXFXFXFXFXFXFXFXFXFXFXFXFXFXFXFXFXFXFXFXFXFXFXFXFXFXFXFXFXFXFXFXFXFXFXFXFXFXFXFXFXFXFXFXFXFXFXFXFXFXFXFXFXFXFXFXFX",
"FXFXFXFXFXFXFXFXFXFXFXFXFXFXFXFXFXFXFXFXFXFXFXFXFXFXFXFXFXFXFXFXFXFXFXFXFXFXFXFXFXFXFXFXFXFXFXFXFXFXFXFXFXFXFXFXFXFXFXFXFXFXFXFXFXFXFXFXFXFXFXFXFXFXFXFXFXFXFXFXFXFXFXFXFXFXFXFXFXFXFXFXFXFXFXFXFXFXFXFXFXFXFXFXFXFXFXDXDXZXBXzXsX9X7XT.&.9 9 9 t D k.'.}.[.[.,X1X[.{.T.R.R.D.k.h.-.-.( ^ Z M n g g n M ( ( D D M B x u e t t t 0 0 0 t A X.^ V M b b S ^ -.S j a.AXFXGXGXFXFXFXFXFXFXFXFXFXFXFXFXFXFXFXFXFXFXFXFXFXFXFXFXFXFXFXFXFXFXFXFXFXFXFXFXFXFXFXFXFXFXFXFXFXFXFXFXFXFXFXFXFXFXFXFXFXFXFXFXFXFXFXFXFXFXFXFXFXFXFXFXFXFXFXFXFXFXFXFXFXFXFXFXFXFXFXFXFXFXFXFXFXFXFXFXFXFXFXFXFXFXFXFXFXFXFXFXFXFXFXFXFXFXFXFXFXFXFX",
"FXFXFXFXFXFXFXFXFXFXFXFXFXFXFXFXFXFXFXFXFXFXFXFXFXFXFXFXFXFXFXFXFXFXFXFXFXFXFXFXFXFXFXFXFXFXFXFXFXFXFXFXFXFXFXFXFXFXFXFXFXFXFXFXFXFXFXFXFXFXFXFXFXFXFXFXFXFXFXFXFXFXFXFXFXFXFXFXFXFXFXFXFXFXFXFXFXFXFXFXFXFXFXFXFXFXFXDXDXSXSXzXsX8X,XD./ 9 9 0 0 t / n.}.{.[.[.[.^.^.T.T.R.D.x.k.-.-.( ( D D F g n F D -.X.;.;.Z t w 7 7 = = 6 = 6 t b ^ ..X.S M F M A ^ N e j E.DXGXFXKXFXFXFXFXFXFXFXFXFXFXFXFXFXFXFXFXFXFXFXFXFXFXFXFXFXFXFXFXFXFXFXFXFXFXFXFXFXFXFXFXFXFXFXFXFXFXFXFXFXFXFXFXFXFXFXFXFXFXFXFXFXFXFXFXFXFXFXFXFXFXFXFXFXFXFXFXFXFXFXFXFXFXFXFXFXFXFXFXFXFXFXFXFXFXFXFXFXFXFXFXFXFXFXFXFXFXFXFXFXFXFXFXFXFXFXFXFXFXFX",
"FXFXFXFXFXFXFXFXFXFXFXFXFXFXFXFXFXFXFXFXFXFXFXFXFXFXFXFXFXFXFXFXFXFXFXFXFXFXFXFXFXFXFXFXFXFXFXFXFXFXFXFXFXFXFXFXFXFXFXFXFXFXFXFXFXFXFXFXFXFXFXFXFXFXFXFXFXFXFXFXFXFXFXFXFXFXFXFXFXFXFXFXFXFXFXFXFXFXFXFXFXFXFXFXFXFXFXDXDXSXBXzXsX-X[.x.Y t 9 0 0 0 t &.R.^.{.{.^.^.T.T.R.R.D.x.k.h.-.-.( D D F n n F ( -.;.k.;.X.E U v t w 7 9 7 t Z A  . .;.V F F D X.Z e e R 7XDXPXFXGXFXFXFXFXFXFXFXFXFXFXFXFXFXFXFXFXFXFXFXFXFXFXFXFXFXFXFXFXFXFXFXFXFXFXFXFXFXFXFXFXFXFXFXFXFXFXFXFXFXFXFXFXFXFXFXFXFXFXFXFXFXFXFXFXFXFXFXFXFXFXFXFXFXFXFXFXFXFXFXFXFXFXFXFXFXFXFXFXFXFXFXFXFXFXFXFXFXFXFXFXFXFXFXFXFXFXFXFXFXFXFXFXFXFXFXFXFXFXFX",
"FXFXFXFXFXFXFXFXFXFXFXFXFXFXFXFXFXFXFXFXFXFXFXFXFXFXFXFXFXFXFXFXFXFXFXFXFXFXFXFXFXFXFXFXFXFXFXFXFXFXFXFXFXFXFXFXFXFXFXFXFXFXFXFXFXFXFXFXFXFXFXFXFXFXFXFXFXFXFXFXFXFXFXFXFXFXFXFXFXFXFXFXFXFXFXFXFXFXFXFXFXFXFXFXFXFXFXDXPXBXjXsX8X[.T.g.B 9 0 0 6 6 0 a -.n.'.].].'.'.T.R.D.D.x.m.h.-.-./ D A V V Z ..%.h.z.k.k.;.-.X./ E m m B U Y Y R ~ o.~ X.D b @.[.-X/.:XfXCXKXGXFXFXFXFXFXFXFXFXFXFXFXFXFXFXFXFXFXFXFXFXFXFXFXFXFXFXFXFXFXFXFXFXFXFXFXFXFXFXFXFXFXFXFXFXFXFXFXFXFXFXFXFXFXFXFXFXFXFXFXFXFXFXFXFXFXFXFXFXFXFXFXFXFXFXFXFXFXFXFXFXFXFXFXFXFXFXFXFXFXFXFXFXFXFXFXFXFXFXFXFXFXFXFXFXFXFXFXFXFXFXFXFXFXFXFXFXFXFXFXFXFX",
"FXFXFXFXFXFXFXFXFXFXFXFXFXFXFXFXFXFXFXFXFXFXFXFXFXFXFXFXFXFXFXFXFXFXFXFXFXFXFXFXFXFXFXFXFXFXFXFXFXFXFXFXFXFXFXFXFXFXFXFXFXFXFXFXFXFXFXFXFXFXFXFXFXFXFXFXFXFXFXFXFXFXFXFXFXFXFXFXFXFXFXFXFXFXFXFXFXFXFXFXFXFXFXFXFXFXKXDXPXSXzXsX9X{.F.{ r 9 6 v ;.-.t 8 ( g.n.'.'.R.R.R.A.D.x.x.k.h.;.;.X.D D A A X.&.h.k.x.k.j.-.%.&.X...E E C T T T E  .&...A S E R.VXSXAXZXPXKXFXFXFXFXFXFXFXFXFXFXFXFXFXFXFXFXFXFXFXFXFXFXFXFXFXFXFXFXFXFXFXFXFXFXFXFXFXFXFXFXFXFXFXFXFXFXFXFXFXFXFXFXFXFXFXFXFXFXFXFXFXFXFXFXFXFXFXFXFXFXFXFXFXFXFXFXFXFXFXFXFXFXFXFXFXFXFXFXFXFXFXFXFXFXFXFXFXFXFXFXFXFXFXFXFXFXFXFXFXFXFXFXFXFXFXFXFXFXFXFXFXFXFX",
"FXFXFXFXFXFXFXFXFXFXFXFXFXFXFXFXFXFXFXFXFXFXFXFXFXFXFXFXFXFXFXFXFXFXFXFXFXFXFXFXFXFXFXFXFXFXFXFXFXFXFXFXFXFXFXFXFXFXFXFXFXFXFXFXFXFXFXFXFXFXFXFXFXFXFXFXFXFXFXFXFXFXFXFXFXFXFXFXFXFXFXFXFXFXFXFXFXFXFXFXFXFXFXFXFXFXKXDXPXzXgX9X[.R.-.B t 6 t k.@X'.( t p ( g.F.F.F.n.x.x.k.k.k.h.h.;.;.:.D D ^ X.X.;.k.x.x.k.j.-.&.@.....^ E C C C Z A ^ X.^ Z ~ x.9XAXDXGXGXGXGXGXFXKXKXFXFXFXFXFXFXFXFXFXFXFXFXFXFXFXFXFXFXFXFXFXFXFXFXFXFXFXFXFXFXFXFXFXFXFXFXFXFXFXFXFXFXFXFXFXFXFXFXFXFXFXFXFXFXFXFXFXFXFXFXFXFXFXFXFXFXFXFXFXFXFXFXFXFXFXFXFXFXFXFXFXFXFXFXFXFXFXFXFXFXFXFXFXFXFXFXFXFXFXFXFXFXFXFXFXFXFXFXFXFXFXFXFXFXFXFXFXFXFX",
"FXFXFXFXFXFXFXFXFXFXFXFXFXFXFXFXFXFXFXFXFXFXFXFXFXFXFXFXFXFXFXFXFXFXFXFXFXFXFXFXFXFXFXFXFXFXFXFXFXFXFXFXFXFXFXFXFXFXFXFXFXFXFXFXFXFXFXFXFXFXFXFXFXFXFXFXFXFXFXFXFXFXFXFXFXFXFXFXFXFXFXFXFXFXFXFXFXFXFXFXFXFXFXFXFXGXKXKXDXhXgX7X{.m.T p 9 8 -.oX{.m.%.Z a / -.k.x.m.m.x.k.j.j.h.-.-.;.;.X.D D ^ X.;.k.k.k.k.k.h.-.&.&./ ^ V S m m V D D D :.^ ..D.7X8X2XnXPXGXFXGXFXFXKXKXFXFXFXFXFXFXFXFXFXFXFXFXFXFXFXFXFXFXFXFXFXFXFXFXFXFXFXFXFXFXFXFXFXFXFXFXFXFXFXFXFXFXFXFXFXFXFXFXFXFXFXFXFXFXFXFXFXFXFXFXFXFXFXFXFXFXFXFXFXFXFXFXFXFXFXFXFXFXFXFXFXFXFXFXFXFXFXFXFXFXFXFXFXFXFXFXFXFXFXFXFXFXFXFXFXFXFXFXFXFXFXFXFXFXFXFXFXFXFX",
"FXFXFXFXFXFXFXFXFXFXFXFXFXFXFXFXFXFXFXFXFXFXFXFXFXFXFXFXFXFXFXFXFXFXFXFXFXFXFXFXFXFXFXFXFXFXFXFXFXFXFXFXFXFXFXFXFXFXFXFXFXFXFXFXFXFXFXFXFXFXFXFXFXFXFXFXFXFXFXFXFXFXFXFXFXFXFXFXFXFXFXFXFXFXFXFXFXFXFXFXFXFXFXKXGXGXKXKXDXhX3X{.R.&.v t b g.T.qXQ.8.} ( ( -.h.k.x.x.n.k.h.h.h.-.-.-.;.:.( D D ( :.;.h.k.k.h.-.&.&.&.X./ T V M b M V D D D ( V @.{.vX;XW.>XUXNXPXFXKXFXKXPXFXFXFXFXFXFXFXFXFXFXFXFXFXFXFXFXFXFXFXFXFXFXFXFXFXFXFXFXFXFXFXFXFXFXFXFXFXFXFXFXFXFXFXFXFXFXFXFXFXFXFXFXFXFXFXFXFXFXFXFXFXFXFXFXFXFXFXFXFXFXFXFXFXFXFXFXFXFXFXFXFXFXFXFXFXFXFXFXFXFXFXFXFXFXFXFXFXFXFXFXFXFXFXFXFXFXFXFXFXFXFXFXFXFXFXFXFXFXFX",
"FXFXFXFXFXFXFXFXFXFXFXFXFXFXFXFXFXFXFXFXFXFXFXFXFXFXFXFXFXFXFXFXFXFXFXFXFXFXFXFXFXFXFXFXFXFXFXFXFXFXFXFXFXFXFXFXFXFXFXFXFXFXFXFXFXFXFXFXFXFXFXFXFXFXFXFXFXFXFXFXFXFXFXFXFXFXFXFXFXFXFXFXFXFXFXFXFXFXFXFXFXFXFXGXGXDXDXGXDXmXaXQ.l.` Q &.k.7X7X7X^.l.} T ( h.k.S.D.D.F.x.g.h.h.-.-.-.:.( D D D D ( :.-.;.-.-.-.X./ / ^ D D V M M M M V V D 8 , l b.6X8XW.W.W.>X5XCXDXDXDXDXFXFXFXFXFXFXFXFXFXFXFXFXFXFXFXFXFXFXFXFXFXFXFXFXFXFXFXFXFXFXFXFXFXFXFXFXFXFXFXFXFXFXFXFXFXFXFXFXFXFXFXFXFXFXFXFXFXFXFXFXFXFXFXFXFXFXFXFXFXFXFXFXFXFXFXFXFXFXFXFXFXFXFXFXFXFXFXFXFXFXFXFXFXFXFXFXFXFXFXFXFXFXFXFXFXFXFXFXFXFXFXFXFXFXFXFXFXFXFX",
"FXFXFXFXFXFXFXFXFXFXFXFXFXFXFXFXFXFXFXFXFXFXFXFXFXFXFXFXFXFXFXFXFXFXFXFXFXFXFXFXFXFXFXFXFXFXFXFXFXFXFXFXFXFXFXFXFXFXFXFXFXFXFXFXFXFXFXFXFXFXFXFXFXFXFXFXFXFXFXFXFXFXFXFXFXFXFXFXFXFXFXFXFXFXFXFXFXFXFXFXFXFXKXGXDXDXDXDXDXDXSX8XQ.I.T.[.rX0X6X[.T.x.&.E / x.D.U.Y.T.'.D.m.k.h.g.-.-.-.X.D D D D D D D D ( X.X.( ( D M F F F F n M V E ..&., X & J u._./.`.d.d.W.:XfXCXGXFXFXFXFXFXFXFXFXFXFXFXFXFXFXFXFXFXFXFXFXFXFXFXFXFXFXFXFXFXFXFXFXFXFXFXFXFXFXFXFXFXFXFXFXFXFXFXFXFXFXFXFXFXFXFXFXFXFXFXFXFXFXFXFXFXFXFXFXFXFXFXFXFXFXFXFXFXFXFXFXFXFXFXFXFXFXFXFXFXFXFXFXFXFXFXFXFXFXFXFXFXFXFXFXFXFXFXFXFXFXFXFXFXFXFXFXFXFXFXFX",
"FXFXFXFXFXFXFXFXFXFXFXFXFXFXFXFXFXFXFXFXFXFXFXFXFXFXFXFXFXFXFXFXFXFXFXFXFXFXFXFXFXFXFXFXFXFXFXFXFXFXFXFXFXFXFXFXFXFXFXFXFXFXFXFXFXFXFXFXFXFXFXFXFXFXFXFXFXFXFXFXFXFXFXFXFXFXFXFXFXFXFXFXFXFXFXFXFXFXFXFXFXFXKXGXPXDXDXDXDXDXDXAXxXkXxXhX9X=XQ.Y.v.g.( / ;.x.U.E.E.].}.].'.k.h.g.-.-.-.:.( D D D F F v a v b S D D D F F F F F n M V &.k.D.G + + , c q.~._.`.C.y.d.W.;XnXPXFXFXFXFXFXFXFXFXFXFXFXFXFXFXFXFXFXFXFXFXFXFXFXFXFXFXFXFXFXFXFXFXFXFXFXFXFXFXFXFXFXFXFXFXFXFXFXFXFXFXFXFXFXFXFXFXFXFXFXFXFXFXFXFXFXFXFXFXFXFXFXFXFXFXFXFXFXFXFXFXFXFXFXFXFXFXFXFXFXFXFXFXFXFXFXFXFXFXFXFXFXFXFXFXFXFXFXFXFXFXFXFXFXFXFXFXFXFXFX",
"FXFXFXFXFXFXFXFXFXFXFXFXFXFXFXFXFXFXFXFXFXFXFXFXFXFXFXFXFXFXFXFXFXFXFXFXFXFXFXFXFXFXFXFXFXFXFXFXFXFXFXFXFXFXFXFXFXFXFXFXFXFXFXFXFXFXFXFXFXFXFXFXFXFXFXFXFXFXFXFXFXFXFXFXFXFXFXFXFXFXFXFXFXFXFXKXFXFXKXKXKXKXKXKXDXPXZXAXAXAXZXZXZXBXhX,XJ.L.K.b.m.g.{ / ;.R.U.T.~.(.{.'.'.D.x.j.-.-.-.:.( D D D F F n p q 9 9 9 q n n n n n n F A ..%.x.R.l.3 . X , H 5.P.[.H.C.C.s.d.`.-XbXCXDXKXKXGXGXFXFXFXFXFXFXFXFXFXFXFXFXFXFXFXFXFXFXFXFXFXFXFXFXFXFXFXFXFXFXFXFXFXFXFXFXFXFXFXFXFXFXFXFXFXFXFXFXFXFXFXFXFXFXFXFXFXFXFXFXFXFXFXFXFXFXFXFXFXFXFXFXFXFXFXFXFXFXFXFXFXFXFXFXFXFXFXFXFXFXFXFXFXFXFXFXFXFXFXFXFXFXFXFXFXFXFXFXFXFXFXFX",
"FXFXFXFXFXFXFXFXFXFXFXFXFXFXFXFXFXFXFXFXFXFXFXFXFXFXFXFXFXFXFXFXFXFXFXFXFXFXFXFXFXFXFXFXFXFXFXFXFXFXFXFXFXFXFXFXFXFXFXFXFXFXFXFXFXFXFXFXFXFXFXFXFXFXFXFXFXFXFXFXFXFXFXFXFXFXFXFXFXFXFXFXFXKXFXFXKXKXKXKXKXDXDXDXDXZXZXZXSXZXCXZXZXBXgX(.b.c.c.b.j.g.&.g.F.R.T.~.~.^.{.{.}.E.R.x.h.-.&./ ( ( ( D D D F F F n n n n n n n n g F F A ..%.x.R.J.) - . # 4 K o.L.~.L.d.d.d.C.W.;X5XfXbXPXKXFXFXGXFXFXFXFXFXFXFXFXFXFXFXFXFXFXFXFXFXFXFXFXFXFXFXFXFXFXFXFXFXFXFXFXFXFXFXFXFXFXFXFXFXFXFXFXFXFXFXFXFXFXFXFXFXFXFXFXFXFXFXFXFXFXFXFXFXFXFXFXFXFXFXFXFXFXFXFXFXFXFXFXFXFXFXFXFXFXFXFXFXFXFXFXFXFXFXFXFXFXFXFXFXFXFXFXFXFXFXFXFXFX",
"FXFXFXFXFXFXFXFXFXFXFXFXFXFXFXFXFXFXFXFXFXFXFXFXFXFXFXFXFXFXFXFXFXFXFXFXFXFXFXFXFXFXFXFXFXFXFXFXFXFXFXFXFXFXFXFXFXFXFXFXFXFXFXFXFXFXFXFXFXFXFXFXFXFXFXFXFXFXFXFXFXFXFXFXFXFXFXFXFXFXFXFXKXKXKXKXDXKXKXDXDXZXZXZXZXBXBXBXSXZXZXZXZXzXsXT.j.8.l.l.j.8.j.n.'.E.^.^.~.~.T.{.{.{.T.D.k.g.&./ / D D M F F F n n n p p q q q p q g F D ^  .0.c.J.Z.c.K $ o - e c 5.Y.~.C.d.d.s.d.W.W.>X;XdXCXDXKXGXGXFXFXFXFXFXFXFXFXFXFXFXFXFXFXFXFXFXFXFXFXFXFXFXFXFXFXFXFXFXFXFXFXFXFXFXFXFXFXFXFXFXFXFXFXFXFXFXFXFXFXFXFXFXFXFXFXFXFXFXFXFXFXFXFXFXFXFXFXFXFXFXFXFXFXFXFXFXFXFXFXFXFXFXFXFXFXFXFXFXFXFXFXFXFXFXFXFXFXFXFXFXFXFXFXFXFXFXFXFX",
"FXFXFXFXFXFXFXFXFXFXFXFXFXFXFXFXFXFXFXFXFXFXFXFXFXFXFXFXFXFXFXFXFXFXFXFXFXFXFXFXFXFXFXFXFXFXFXFXFXFXFXFXFXFXFXFXFXFXFXFXFXFXFXFXFXFXFXFXFXFXFXFXFXFXFXFXFXFXFXFXFXFXFXFXFXFXFXFXFXFXKXKXKXDXKXDXPXDXKXDXPXZXSXBXBXzXBXSXSXZXCXZXZXzXgX^.l.} j.v.M.c.v.I.'.].[.[.(.Q.Q.T.[.{.T.R.D.x.g.&.{ D M m v p 9 9 0 0 0 0 0 9 9 9 q n D A E o.e.Z.c.q.Z.u.G - # ; e G 8.L.L.C.d.s.s.d.C.W.>X:X;XdXCXPXDXKXFXFXFXFXFXFXFXFXFXFXFXFXFXFXFXFXFXFXFXFXFXFXFXFXFXFXFXFXFXFXFXFXFXFXFXFXFXFXFXFXFXFXFXFXFXFXFXFXFXFXFXFXFXFXFXFXFXFXFXFXFXFXFXFXFXFXFXFXFXFXFXFXFXFXFXFXFXFXFXFXFXFXFXFXFXFXFXFXFXFXFXFXFXFXFXFXFXFXFXFXFXFXFXFXFXFXFXFX",
"FXFXFXFXFXFXFXFXFXFXFXFXFXFXFXFXFXFXFXFXFXFXFXFXFXFXFXFXFXFXFXFXFXFXFXFXFXFXFXFXFXFXFXFXFXFXFXFXFXFXFXFXFXFXFXFXFXFXFXFXFXFXFXFXFXFXFXFXFXFXFXFXFXFXFXFXFXFXFXFXFXFXFXFXFXFXFXFXFXKXKXKXKXDXDXPXCXPXDXDXPXSXBXzXzXzXzXSXSXSXSXSXZXBXgX[.v.U } b.K.Y.Q.^.^.[.1X8X-X/.Q.Q.!.!.T.R.R.D.x.g.&./ ( D M v 9 9 0 0 0 0 9 9 n n n V D A R o.z.Z.a.+.7.p.t.s # + > y J p.~.P.s.s.3.s.p.H.W.W.`.:X5XbXNXPXKXKXFXFXFXFXFXFXFXFXFXFXFXFXFXFXFXFXFXFXFXFXFXFXFXFXFXFXFXFXFXFXFXFXFXFXFXFXFXFXFXFXFXFXFXFXFXFXFXFXFXFXFXFXFXFXFXFXFXFXFXFXFXFXFXFXFXFXFXFXFXFXFXFXFXFXFXFXFXFXFXFXFXFXFXFXFXFXFXFXFXFXFXFXFXFXFXFXFXFXFXFXFXFXFXFXFXFX",
"FXFXFXFXFXFXFXFXFXFXFXFXFXFXFXFXFXFXFXFXFXFXFXFXFXFXFXFXFXFXFXFXFXFXFXFXFXFXFXFXFXFXFXFXFXFXFXFXFXFXFXFXFXFXFXFXFXFXFXFXFXFXFXFXFXFXFXFXFXFXFXFXFXFXFXFXFXFXFXFXFXFXFXFXFXFXFXFXKXKXKXKXKXDXDXCXbXCXDXDXZXZXSXzXzXzXzXzXxXzXBXSXBXBXvX7XY.J J 1.K.(.-X8X9XaXaXsXpX4X=X(.(.K.M.v.b.v.x.j.%.&.&./ ( M b v t p p p p v b M V A E R Y O.a.a.7.O.o.5.b.] , X + 2 y 1.L.H.y.7.3.+.2.y.C.L.`.`.W.:X5XbXZXKXKXFXFXFXFXFXFXFXFXFXFXFXFXFXFXFXFXFXFXFXFXFXFXFXFXFXFXFXFXFXFXFXFXFXFXFXFXFXFXFXFXFXFXFXFXFXFXFXFXFXFXFXFXFXFXFXFXFXFXFXFXFXFXFXFXFXFXFXFXFXFXFXFXFXFXFXFXFXFXFXFXFXFXFXFXFXFXFXFXFXFXFXFXFXFXFXFXFXFXFXFXFXFXFXFXFX",
"FXFXFXFXFXFXFXFXFXFXFXFXFXFXFXFXFXFXFXFXFXFXFXFXFXFXFXFXFXFXFXFXFXFXFXFXFXFXFXFXFXFXFXFXFXFXFXFXFXFXFXFXFXFXFXFXFXFXFXFXFXFXFXFXFXFXFXFXFXFXFXFXFXFXFXFXFXFXFXFXFXFXFXFXFXFXFXKXKXKXKXKXDXDXDXCXfXMXDXDXZXZXZXBXjXzXzXzXzXzXzXBXBXBXzX9X~.P G P K.<XaXpXaXdXdXdXdXfX8X<X,XK.M.l.l.l.j.h.%.&.@./ E Z M M b M b v v b M M V Z E T R O.e.q.+.o.o.O.6.$.l : . * 2 H 7.p.p.q.1._ _ +.q.C.P.P.P.W.`.:XpXbXCXDXKXFXFXFXFXFXFXFXFXFXFXFXFXFXFXFXFXFXFXFXFXFXFXFXFXFXFXFXFXFXFXFXFXFXFXFXFXFXFXFXFXFXFXFXFXFXFXFXFXFXFXFXFXFXFXFXFXFXFXFXFXFXFXFXFXFXFXFXFXFXFXFXFXFXFXFXFXFXFXFXFXFXFXFXFXFXFXFXFXFXFXFXFXFXFXFXFXFXFXFXFXFXFXFX",
"FXFXFXFXFXFXFXFXFXFXFXFXFXFXFXFXFXFXFXFXFXFXFXFXFXFXFXFXFXFXFXFXFXFXFXFXFXFXFXFXFXFXFXFXFXFXFXFXFXFXFXFXFXFXFXFXFXFXFXFXFXFXFXFXFXFXFXFXFXFXFXFXFXFXFXFXFXFXFXFXGXPXPXDXGXKXKXKXKXKXKXKXKXDXDXBXfXbXZXDXZXDXZXBXzXjXjXjXjXhXzXSXBXBXBXpX(.7.G L K.aXfX8X5XnXfXfXfXdXaXaX2X[.Q.v.l.8.6.%.$.@.{ / E Z C M M b b j j h b M V C T ~ ` $.q.O.K W #.#.! o.o.y # + , y K a.P.a.2.o._ +.+.3.s.C.P.W.W.W.>X5XdXCXPXFXFXFXFXFXFXFXFXFXFXFXFXFXFXFXFXFXFXFXFXFXFXFXFXFXFXFXFXFXFXFXFXFXFXFXFXFXFXFXFXFXFXFXFXFXFXFXFXFXFXFXFXFXFXFXFXFXFXFXFXFXFXFXFXFXFXFXFXFXFXFXFXFXFXFXFXFXFXFXFXFXFXFXFXFXFXFXFXFXFXFXFXFXFXFXFXFXFXFXFXFXFXFX",
"FXFXFXFXFXFXFXFXFXFXFXFXFXFXFXFXFXFXFXFXFXFXFXFXFXFXFXFXFXFXFXFXFXFXFXFXFXFXFXFXFXFXFXFXFXFXFXFXFXFXFXFXFXFXFXFXFXFXFXFXFXFXFXFXFXFXFXFXFXFXFXFXFXFXFXFXKXKXKXKXDXPXdXfXZXDXDXDXDXDXDXDXDXZXDXZXdXfXBXAXAXZXZXBXBXBXjXjXdXsXjXjXzXzXzXdXpXM.L H D.6XpXfXfX4XpXfXbXbXfX9X8X,X).~.Q.Y.J.b.t.{ Q T N B v v v t t t h k m m C Y Y ~ @.$.o.! ! ` ` #.o.` #.J ; O % e c o.Z.c.7.+.! K ! O.7.y.i.C.p.P.K.K./.;XbXZXPXGXGXFXFXFXFXFXFXFXKXKXKXFXFXFXFXFXFXFXFXFXFXFXFXFXFXFXFXFXFXFXFXFXFXFXFXFXFXFXFXFXFXFXFXFXFXFXFXFXFXFXFXFXFXFXFXFXFXFXFXFXFXFXFXFXFXFXFXFXFXFXFXFXFXFXFXFXFXFXFXFXFXFXFXFXFXFXFXFXFXFXFXFXFXFXFXFXFXFXFXFX",
"FXFXFXFXFXFXFXFXFXFXFXFXFXFXFXFXFXFXFXFXFXFXFXFXFXFXFXFXFXFXFXFXFXFXFXFXFXFXFXFXFXFXFXFXFXFXFXFXFXFXFXFXFXFXFXFXFXFXFXFXFXFXFXFXFXFXFXFXFXFXFXFXFXFXFXFXKXKXDXDXPXPXBXbXBXPXDXDXDXDXDXDXPXZXDXZXbXdXBXZXZXZXCXBXBXzXjXdXdXsXsXjXjXzXzXdXpXK.' ) A.6XsXdXfX4XpXpXdXdXdXpX8X).(.~.~.Q.Y.K.J.j.6.#.` T N B v m m m m N C C E Y Y ~ @.@.Q W W ] o.o.` ` O.K 2 % # > c K w.c.8.O._ K W ' +.3.7.d.p.y.a.H.P.W.:X5XMXPXFXFXFXFXGXFXFXFXFXFXFXFXFXFXFXFXFXFXFXFXFXFXFXFXFXFXFXFXFXFXFXFXFXFXFXFXFXFXFXFXFXFXFXFXFXFXFXFXFXFXFXFXFXFXFXFXFXFXFXFXFXFXFXFXFXFXFXFXFXFXFXFXFXFXFXFXFXFXFXFXFXFXFXFXFXFXFXFXFXFXFXFXFXFXFXFXFXFXFXFX",
"FXFXFXFXFXFXFXFXFXFXFXFXFXFXFXFXFXFXFXFXFXFXFXFXFXFXFXFXFXFXFXFXFXFXFXFXFXFXFXFXFXFXFXFXFXFXFXFXFXFXFXFXFXFXFXFXFXFXFXFXFXFXFXFXFXFXFXFXFXFXFXFXFXFXFXFXKXDXCXCXPXDXDXCXfXBXCXDXDXZXZXZXZXZXDXZXBXbXCXZXZXZXBXBXMXdXdXdXaXpXsXsXjXjXjXdXpX~.4.) l.[.aXdXfX8X8XpXpXfXfX9X8X-X).~.Q.Y.Y.K.P.J.c.z.6.#.@./ E E E Z T T C C C Y E / / ~ Y Y T ` ` ` ~ ! ` W l ; # * y l O.c.u.2.o.W W W ) ' 3.p.C.1.2.d.d.C.W.`.:XdXCXDXKXFXFXFXFXKXFXFXFXFXFXFXFXFXFXFXFXFXFXFXFXFXFXFXFXFXFXFXFXFXFXFXFXFXFXFXFXFXFXFXFXFXFXFXFXFXFXFXFXFXFXFXFXFXFXFXFXFXFXFXFXFXFXFXFXFXFXFXFXFXFXFXFXFXFXFXFXFXFXFXFXFXFXFXFXFXFXFXFXFXFXFXFXFXFXFXFXFX",
"FXFXFXFXFXFXFXFXFXFXFXFXFXFXFXFXFXFXFXFXFXFXFXFXFXFXFXFXFXFXFXFXFXFXFXFXFXFXFXFXFXFXFXFXFXFXFXFXFXFXFXFXFXFXFXFXFXFXFXFXFXFXFXFXFXFXFXFXFXFXFXFXFXFXFXFXKXPXnXnXCXZXDXZXpXpXbXZXDXZXZXZXZXZXZXZXBXMXCXZXZXCXBXMXdXdXdXaXpX8XpXsXsXjXjXsXpX-Xw.! 6.Y.6XaXdX8X8X;X4XpXpX8X-X)./.Q.L.P.P.H.H.p.a.u.q.%.#.#.@. .E R R Y Y C Y R R R T U U E /  .~ R R Y R ! W y - # 2 l K u.c.5.o.! Y K K ) +.7.c.1.P y.i.i.d.P.W.>X5XbXPXKXKXKXKXKXKXFXFXFXFXFXFXFXFXFXFXFXFXFXFXFXFXFXFXFXFXFXFXFXFXFXFXFXFXFXFXFXFXFXFXFXFXFXFXFXFXFXFXFXFXFXFXFXFXFXFXFXFXFXFXFXFXFXFXFXFXFXFXFXFXFXFXFXFXFXFXFXFXFXFXFXFXFXFXFXFXFXFXFXFXFXFXFXFXFXFXFX",
"FXFXFXFXFXFXFXFXFXFXFXFXFXFXFXFXFXFXFXFXFXFXFXFXFXFXFXFXFXFXFXFXFXFXFXFXFXFXFXFXFXFXFXFXFXFXFXFXFXFXFXFXFXFXFXFXFXFXFXFXFXFXFXFXFXFXFXFXFXFXFXFXFXFXFXFXKXDXbXnXbXbXZXZXbX;XfXBXDXDXZXCXZXSXSXBXMXjXBXZXZXCXBXdXdXdXaXpX8X8XpXsXsXsXdXaXpX6Xc.! @.U.(.-XfXpX8X<X<X8X8X-X-X~.Q.L.K.H.J.J.H.z.w.q.6.@.@..... .~ R Y Y Y Y Y Y Y C N U T / { ~ ~ Y Y Y W R ` l 4 # - l H O.b.7.O.! W Y H W ' ' u.q.K ' 3.3.i.i.d.C.W.;XdXCXDXKXKXKXFXFXFXFXFXFXFXFXFXFXFXFXFXFXFXFXFXFXFXFXFXFXFXFXFXFXFXFXFXFXFXFXFXFXFXFXFXFXFXFXFXFXFXFXFXFXFXFXFXFXFXFXFXFXFXFXFXFXFXFXFXFXFXFXFXFXFXFXFXFXFXFXFXFXFXFXFXFXFXFXFXFXFXFXFXFXFXFXFXFXFXFX",
"FXFXFXFXFXFXFXFXFXFXFXFXFXFXFXFXFXFXFXFXFXFXFXFXFXFXFXFXFXFXFXFXFXFXFXFXFXFXFXFXFXFXFXFXFXFXFXFXFXFXFXFXFXFXFXFXFXFXFXFXFXFXFXFXFXFXFXFXFXFXFXFXFXFXKXKXKXKXZXbXnXfXbXZXZXpX2XdXZXAXSXBXSXBXBXMXjXdXdXBXZXCXBXdXdXaXpX8X;X4X8X9XsXsXaXaXpX8XI.@.@.R.(./.<X9X8X8X<X<X,X-X)./.~.L.P.M.c.u.u.6.6.#.@.E E E ^ E R Y z z z z z U Y Y Y Q ~ { ~ E R Y Y W W W ` Y y : $ y H _ t.u.5.o.! Y H W ) P 5.a.' K +.+.7.3.y.d.H.W.`.pXBXDXDXKXFXFXFXFXFXFXFXFXFXFXFXFXFXFXFXFXFXFXFXFXFXFXFXFXFXFXFXFXFXFXFXFXFXFXFXFXFXFXFXFXFXFXFXFXFXFXFXFXFXFXFXFXFXFXFXFXFXFXFXFXFXFXFXFXFXFXFXFXFXFXFXFXFXFXFXFXFXFXFXFXFXFXFXFXFXFXFXFXFXFXFXFX",
"FXFXFXFXFXFXFXFXFXFXFXFXFXFXFXFXFXFXFXFXFXFXFXFXFXFXFXFXFXFXFXFXFXFXFXFXFXFXFXFXFXFXFXFXFXFXFXFXFXFXFXFXFXFXFXFXFXFXFXFXFXFXFXFXFXFXFXFXFXFXFXFXFXFXKXKXKXKXDXZXBXdXdXbXDXBX2X;XzXZXZXBXBXMXMXMXMXdXfXdXZXCXBXdXfXfXpX<X-X=X-X8X9XpXsXpX8X4X^.%.~ x.^.`./.4X;X-X,X,X-X).(.(./.Q.L.M.u.t.9.#.` ! H x j j j x x x x x z z z K Y W W Q ` ` ! R R Y W Q W Y ! Y H 2 % 2 H W 1.a.7.o.Q Y Y K W ) O.e.7.P K O.#.3.3.y.p.d.P.`.;XNXCXDXFXFXFXFXFXFXFXFXFXFXFXFXFXFXFXFXFXFXFXFXFXFXFXFXFXFXFXFXFXFXFXFXFXFXFXFXFXFXFXFXFXFXFXFXFXFXFXFXFXFXFXFXFXFXFXFXFXFXFXFXFXFXFXFXFXFXFXFXFXFXFXFXFXFXFXFXFXFXFXFXFXFXFXFXFXFXFXFXFXFXFXFX",
"FXFXFXFXFXFXFXFXFXFXFXFXFXFXFXFXFXFXFXFXFXFXFXFXFXFXFXFXFXFXFXFXFXFXFXFXFXFXFXFXFXFXFXFXFXFXFXFXFXFXFXFXFXFXFXFXFXFXFXFXFXFXFXFXFXFXFXFXFXFXFXFXFXKXKXKXKXCXDXDXDXCXfXfXSXAXpX:XpXZXSXdXzXMXdXMXMXdXpXdXSXCXBXdXfXpX8X;X=X/.=X-X8X9XpX9X8X=X^.%.U j.^.!./.:X=X-X-X-X(.(./.Q.Q.Q.Y.K.J.c.v.j.8.] H u w 7 7 7 w e r x Y Q Q W ! ! ! ! ! ! W Y E Y W ] ! H W E U y $ ; H _ ' a.5.o.Q Y Y Y Y ) ) 2.a.' H O._ 3.1.1.q.p.C.P.W.5XbXPXFXFXFXFXFXFXFXFXFXFXFXFXFXFXFXFXFXFXFXFXFXFXFXFXFXFXFXFXFXFXFXFXFXFXFXFXFXFXFXFXFXFXFXFXFXFXFXFXFXFXFXFXFXFXFXFXFXFXFXFXFXFXFXFXFXFXFXFXFXFXFXFXFXFXFXFXFXFXFXFXFXFXFXFXFXFXFXFXFXFXFXFX",
"FXFXFXFXFXFXFXFXFXFXFXFXFXFXFXFXFXFXFXFXFXFXFXFXFXFXFXFXFXFXFXFXFXFXFXFXFXFXFXFXFXFXFXFXFXFXFXFXFXFXFXFXFXFXFXFXFXFXFXFXFXFXFXFXFXFXFXKXKXDXDXDXKXKXKXKXDXDXDXDXDXZXBXfX;XxXAX<X`.dXZXdXMXMXjXdXaXpX9XaXsXAXdXfXfX<X<X,X/./.(.-X8X8X8X8X8X,X_.c.W ` F.^.=X/././.(.(.(.~.~.Y.Y.L.Y.Y.K.K.K.Z.z.z.q.4.] _ _ ` ] ] ] o.o.` ` ! ! R R Q ~ ~ ~ R R R ! ! W W W Q W l - - L _ K 7.7.1._ ! W Y Y W ) +.u.5.K _ o.1.O.O.1.3.y.p.C.W.>XfXDXFXFXFXFXFXFXFXFXFXFXFXFXFXFXFXFXFXFXFXFXFXFXFXFXFXFXFXFXFXFXFXFXFXFXFXFXFXFXFXFXFXFXFXFXFXFXFXFXFXFXFXFXFXFXFXFXFXFXFXFXFXFXFXFXFXFXFXFXFXFXFXFXFXFXFXFXFXFXFXFXFXFXFXFXFXFXFXFXFXFXFX",
"FXFXFXFXFXFXFXFXFXFXFXFXFXFXFXFXFXFXFXFXFXFXFXFXFXFXFXFXFXFXFXFXFXFXFXFXFXFXFXFXFXFXFXFXFXFXFXFXFXFXFXFXFXFXFXFXFXFXFXFXFXFXFXFXFXFXFXKXDXDXDXDXDXKXKXKXDXZXDXDXZXZXBXfXpXgXSXfX`.8XZXSXdXdXdXdXsXaX9X8X;XSXBXdXpX;X,X-X(.~.(.).-X<X<X<X;X,X(.J.` Q n.^.(./././.(.(.~.~.~.Y.Y.L.K.K.J.J.M.Z.Z.Z.z.u.8.7.5.5.4.#.#.O.o.] _ W W W R ! ~ Q ~ ~ ~ Q _ ! ! W W ! W H > - J ] K 2.7.4._ ! W Y Y W _ _ 7.7._ W Q O.O.+.+.2.7.y.i.d.W.:XnXDXFXFXFXFXFXFXFXFXFXFXFXFXFXFXFXFXFXFXFXFXFXFXFXFXFXFXFXFXFXFXFXFXFXFXFXFXFXFXFXFXFXFXFXFXFXFXFXFXFXFXFXFXFXFXFXFXFXFXFXFXFXFXFXFXFXFXFXFXFXFXFXFXFXFXFXFXFXFXFXFXFXFXFXFXFXFXFXFXFXFX",
"FXFXFXFXFXFXFXFXFXFXFXFXFXFXFXFXFXFXFXFXFXFXFXFXFXFXFXFXFXFXFXFXFXFXFXFXFXFXFXFXFXFXFXFXFXFXFXFXFXFXFXFXFXFXFXFXFXFXFXFXFXFXFXFXGXGXKXKXKXKXDXDXDXDXKXDXDXZXZXZXZXZXBXdXpX<XxXSX=X!.dXAXdXdXdXfXaXaX9X-X/.bXBXdX<X-X-X=X(.Q.~.(.=X-X-X-X-X)./.L.#.W j.T.(./././.!.~.~.~.~.Y.Y.L.K.P.J.c.c.p.p.a.a.u.y.q.7.6.5.4.O.o.] _ W ! ! ! _ ` ` ` ` ` ~ ` _ _ _ ! ! Q R ! 4 : y O.K 1.q.6.] ! W Y H K W P 1.q.O.W W ] O.O.+.1.3.7.y.s.d.W.:XnXDXFXFXFXFXFXFXFXFXFXFXFXFXFXFXFXFXFXFXFXFXFXFXFXFXFXFXFXFXFXFXFXFXFXFXFXFXFXFXFXFXFXFXFXFXFXFXFXFXFXFXFXFXFXFXFXFXFXFXFXFXFXFXFXFXFXFXFXFXFXFXFXFXFXFXFXFXFXFXFXFXFXFXFXFXFXFXFXFXFX",
"FXFXFXFXFXFXFXFXFXFXFXFXFXFXFXFXFXFXFXFXFXFXFXFXFXFXFXFXFXFXFXFXFXFXFXFXFXFXFXFXFXFXFXFXFXFXFXFXFXFXFXFXFXFXFXFXFXFXFXFXFXFXGXPXCXCXPXKXKXDXDXDXDXDXDXDXDXZXZXZXDXZXCXbXdX!.8XSXpXW.;XAXBXdXdXfXpXpX8X-X/.pXSXzX<X-X=X/.(.Q.Q./././.=X=X=X(./.~.8.U #.U.^./././.!.!.~.~.~.Y.L.L.P.P.H.c.c.u.q.q.7.7.7.5.1.2.1.+.' ' ' _ _ ] ] O.O.O.#.O.O.] ` ] ] _ _ _ _ ! W o.y $ 3 O.! ' q.q.O.W W Y H H W K +.w.5.! W o.O.O.O.1.2.3.7.y.i.d.W.:XbXDXKXFXFXFXFXFXFXFXFXFXFXFXFXFXFXFXFXFXFXFXFXFXFXFXFXFXFXFXFXFXFXFXFXFXFXFXFXFXFXFXFXFXFXFXFXFXFXFXFXFXFXFXFXFXFXFXFXFXFXFXFXFXFXFXFXFXFXFXFXFXFXFXFXFXFXFXFXFXFXFXFXFXFXFXFXFXFXFX",
"FXFXFXFXFXFXFXFXFXFXFXFXFXFXFXFXFXFXFXFXFXFXFXFXFXFXFXFXFXFXFXFXFXFXFXFXFXFXFXFXFXFXFXFXFXFXFXFXFXFXFXFXFXFXFXFXFXFXFXFXFXGXPXNXnXbXCXPXDXDXDXDXDXPXDXDXDXDXDXZXZXDXZXBXdXQ.!.zXzXW.!.SXZXdXfXfXpXpX8X-X=X:XzXBX8X-X(.~.~.Q.Q.Q.Q././.=X=X/./.~.u.W _ A.^.~.~.!.!.!.!.Q.Y.Y.L.L.L.L.J.Z.Z.j.e.q.6.6.6.6.5.2.2.O.O.O.O.O.O.5.5.5.5.5.#.O.O.O.O.] ] ] _ _ _ ! W #.H - 2 ] O.P q.w.O.! ! Y C H W ) _ 7.6.! Y _ _ O.O.O.1.2.2.7.y.y.i.W.;XBXDXFXFXFXFXFXFXFXFXFXFXFXFXFXFXFXFXFXFXFXFXFXFXFXFXFXFXFXFXFXFXFXFXFXFXFXFXFXFXFXFXFXFXFXFXFXFXFXFXFXFXFXFXFXFXFXFXFXFXFXFXFXFXFXFXFXFXFXFXFXFXFXFXFXFXFXFXFXFXFXFXFXFXFXFXFXFXFX",
"FXFXFXFXFXFXFXFXFXFXFXFXFXFXFXFXFXFXFXFXFXFXFXFXFXFXFXFXFXFXFXFXFXFXFXFXFXFXFXFXFXFXFXFXFXFXFXFXFXFXFXFXFXFXFXFXFXFXFXFXFXPXPXCXCXCXCXPXZXDXDXDXDXPXPXDXDXPXZXZXZXDXZXCXBX(.N.<XSX=XW.fXAXfXfXfXfXaX8X-X/.>XaXBXsX-X/.Q.Q.L.Q.Q.`.Q././.=X/.=X~.H._ U j.T.~.~.`.!.!.Q.Q.Y.L.L.L.L.L.K.J.Z.S.z.j.w.j.j.j.j.e.q.q.q.w.w.w.w.7.7.7.7.5.4.O.O.O.O.O.o.o._ ' _ ! W o.W 1 < ) 4.K 5.q.+.! R Y Y z Y _ _ 1.8._ K ! _ o.O.O.O.1.2.2.2.7.7.p.`.pXBXFXFXFXFXFXFXFXFXFXFXFXFXFXFXFXFXFXFXFXFXFXFXFXFXFXFXFXFXFXFXFXFXFXFXFXFXFXFXFXFXFXFXFXFXFXFXFXFXFXFXFXFXFXFXFXFXFXFXFXFXFXFXFXFXFXFXFXFXFXFXFXFXFXFXFXFXFXFXFXFXFXFXFXFXFXFXFX",
"FXFXFXFXFXFXFXFXFXFXFXFXFXFXFXFXFXFXFXFXFXFXFXFXFXFXFXFXFXFXFXFXFXFXFXFXFXFXFXFXFXFXFXFXFXFXFXFXFXFXFXFXFXFXFXFXFXFXFXFXFXGXDXDXDXDXDXDXZXPXPXDXDXPXPXPXDXPXZXZXDXDXDXZXCX<Xd.W.zX2XW.:XZXdXfXpXpXpX8X-X/.`.8XzXsX=X~.~.Q.L.L.L.L.`.`./././.:X/.L.5.H 4.I.~.~.`.`.`.Q.Q.Y.L.L.L.K.K.J.J.J.A.Z.c.c.c.c.c.z.c.c.z.z.z.z.u.u.q.q.q.6.6.5.O.+.O.O.o.o.o.o._ _ _ ! o.] y - G 8.K 5.q.O._ R Y Y z K _ K O.q.o.H W ! o.O.O.O.O.O.O.O.2.7.y.C.:XpXPXGXFXFXFXFXFXFXFXFXFXFXFXFXFXFXFXFXFXFXFXFXFXFXFXFXFXFXFXFXFXFXFXFXFXFXFXFXFXFXFXFXFXFXFXFXFXFXFXFXFXFXFXFXFXFXFXFXFXFXFXFXFXFXFXFXFXFXFXFXFXFXFXFXFXFXFXFXFXFXFXFXFXFXFXFXFX",
"FXFXFXFXFXFXFXFXFXFXFXFXFXFXFXFXFXFXFXFXFXFXFXFXFXFXFXFXFXFXFXFXFXFXFXFXFXFXFXFXFXFXFXFXFXFXFXFXFXFXFXFXFXFXFXFXFXFXFXFXFXKXKXDXDXDXDXPXZXZXZXDXDXPXPXPXDXDXZXZXDXDXDXZXCXgXd.N.hXdXW.W.SXBXfX4X;X8X8X-X=XW.;XzXhX=XQ.~.Q.L.L.K.L.Q.`././.=X:X`.~.w.H ` Z.~.~.`.`.`.Q.Y.Y.L.L.J.J.J.J.J.J.P.P.H.H.H.M.c.c.c.c.c.z.z.u.w.8.q.q.q.q.5.5.$.O.O.O.o.o.o.o._ _ +._ ! O.G - y 8.) 5.q.$.o.! Y Y U Y ` P ' w.#.H ! o.o.O.O.O.O.O.O.+.O.q.y.d.W.:XPXPXGXFXFXFXFXFXFXFXFXFXFXFXFXFXFXFXFXFXFXFXFXFXFXFXFXFXFXFXFXFXFXFXFXFXFXFXFXFXFXFXFXFXFXFXFXFXFXFXFXFXFXFXFXFXFXFXFXFXFXFXFXFXFXFXFXFXFXFXFXFXFXFXFXFXFXFXFXFXFXFXFXFXFXFXFX",
"FXFXFXFXFXFXFXFXFXFXFXFXFXFXFXFXFXFXFXFXFXFXFXFXFXFXFXFXFXFXFXFXFXFXFXFXFXFXFXFXFXFXFXFXFXFXFXFXFXFXFXFXFXFXFXFXFXFXFXFXFXKXDXDXDXDXDXDXDXCXCXCXDXDXDXZXZXZXPXPXPXDXDXDXPXzXW.3.W.SX>XN.aXZXdX4X;X;X;X8X).~.Q.sXSX8X/.L.~.P.K.K.K.K.Q.`././././.~.c.P W k.L.~.Q.Q./.!.Y.Y.L.L.J.J.J.J.J.J.P.P.H.H.H.H.H.M.c.c.p.p.u.u.u.u.u.q.8.7.5.5.1.O.O.O.o.o.` ' _ _ O.K ~  .R > 3 b.q.P 6.0.~ R W ) W K _ [ _ #.w.H W o.o.o.o.+.+.o.o.O.O.2.7.u.M.K.;XNXKXFXFXFXFXKXFXFXFXFXFXFXFXFXFXFXFXFXFXFXFXFXFXFXFXFXFXFXFXFXFXFXFXFXFXFXFXFXFXFXFXFXFXFXFXFXFXFXFXFXFXFXFXFXFXFXFXFXFXFXFXFXFXFXFXFXFXFXFXFXFXFXFXFXFXFXFXFXFXFXFXFXFXFXFX",
"FXFXFXFXFXFXFXFXFXFXFXFXFXFXFXFXFXFXFXFXFXFXFXFXFXFXFXFXFXFXFXFXFXFXFXFXFXFXFXFXFXFXFXFXFXFXFXFXFXFXFXFXFXFXFXFXFXFXFXFXFXKXKXKXKXKXDXDXDXPXCXPXDXDXDXZXZXZXPXPXPXPXDXPXZXzX!.9.N.hX<XN.1XCXjX4X;X;X;X4X).~.K.<XzXpX/.L.L.K.P.H.H.K.K.Q./././././.H.) W h.L.Q.Q.Q.!.Q.L.L.L.L.J.J.J.J.J.J.P.H.H.H.H.M.H.M.c.p.p.p.u.u.u.u.q.8.7.7.5.5.4.O.O.O.o.o._ ' _ _ _ _ _ !  .e 4 t.u.P 2.0.` ! W ) W K _ [ _ O.w.K W ` o.o.o.O.+.o.o.+.O.2.7.y.p.H.:XfXDXFXFXFXFXFXFXFXFXFXFXFXFXFXFXFXFXFXFXFXFXFXFXFXFXFXFXFXFXFXFXFXFXFXFXFXFXFXFXFXFXFXFXFXFXFXFXFXFXFXFXFXFXFXFXFXFXFXFXFXFXFXFXFXFXFXFXFXFXFXFXFXFXFXFXFXFXFXFXFXFXFXFXFXFX",
"FXFXFXFXFXFXFXFXFXFXFXFXFXFXFXFXFXFXFXFXFXFXFXFXFXFXFXFXFXFXFXFXFXFXFXFXFXFXFXFXFXFXFXFXFXFXFXFXFXFXFXFXFXFXFXFXFXFXFXFXFXKXKXDXGXKXDXDXDXDXDXPXDXDXDXPXZXZXPXZXZXPXPXPXCXdX=Xt.t.<XaXB.K.bXBX8X-X;X:X=X).~.K.`.dXdX/.W.P.K.H.H.H.H.K.L.~./.=X=X).P.O.W %.P.Y.Y.L.Q.Q.L.L.P.P.P.P.P.J.H.H.H.H.H.H.H.M.M.M.p.p.p.u.u.u.u.u.q.8.7.5.5.4.O.O.O.O.o.o._ ' _ _ W O.! W #.l < ,.H.+.O.6.o.! ! ) W K _ ) _ O.w.! K ! ` _ o.o.o.o.o.o.+.O.2.7.u.p.W.;XNXKXFXFXFXFXFXFXFXFXFXFXFXFXFXFXFXFXFXFXFXFXFXFXFXFXFXFXFXFXFXFXFXFXFXFXFXFXFXFXFXFXFXFXFXFXFXFXFXFXFXFXFXFXFXFXFXFXFXFXFXFXFXFXFXFXFXFXFXFXFXFXFXFXFXFXFXFXFXFXFXFXFXFXFX",
"FXFXFXFXFXFXFXFXFXFXFXFXFXFXFXFXFXFXFXFXFXFXFXFXFXFXFXFXFXFXFXFXFXFXFXFXFXFXFXFXFXFXFXFXFXFXFXFXFXFXFXFXFXFXFXFXFXFXFXKXKXDXKXKXKXKXDXDXDXDXDXPXPXDXDXDXZXZXZXCXZXPXPXPXCXjX8XN.,.!.zX!.M.fXSXpX:X:X=X/.).(.L.K.aXzX=XQ.K.P.H.H.N.H.H.P.Q./.=X=X).Y.7.) } H.L.Y.K.L.L.K.L.P.P.P.J.J.H.H.H.H.H.H.H.M.M.c.c.p.p.i.u.u.y.u.y.8.8.7.5.5.4.O.O.1.O.o.o.o.] ' _ _ ] ` R @.W 2 d K.3.+.6.#._ ) Q W W ! ) _ O.q.o.K W ` ` _ o.o.] o.o.o.O.O.5.q.u.C.`.fXDXFXFXFXFXFXFXFXFXFXFXFXFXFXFXFXFXFXFXFXFXFXFXFXFXFXFXFXFXFXFXFXFXFXFXFXFXFXFXFXFXFXFXFXFXFXFXFXFXFXFXFXFXFXFXFXFXFXFXFXFXFXFXFXFXFXFXFXFXFXFXFXFXFXFXFXFXFXFXFXFXFXFXFX",
"FXFXFXFXFXFXFXFXFXFXFXFXFXFXFXFXFXFXFXFXFXFXFXFXFXFXFXFXFXFXFXFXFXFXFXFXFXFXFXFXFXFXFXFXFXFXFXFXFXFXFXFXFXFXFXFXFXKXKXKXKXDXDXDXKXKXDXDXDXDXPXPXPXDXDXDXPXZXCXCXZXPXPXCXCXjXsXY.[ M.zX=Xi.:XSXsX-X=X/.~.^.^.Q.K.<XzX-XQ.K.P.H.M.M.M.H.K.Q./.:X/.).~.u.] ` c.L.Y.K.K.K.P.K.P.P.J.H.H.H.M.H.H.H.H.H.M.M.c.c.p.u.u.u.u.u.y.y.8.7.7.5.5.1.O.O.1.O.o.o.o.O.o._ ` _ ] o.~ ` i 3 H.u.+.5.5._ _ ! W W ! W _ ' 8.#.K W ! ` ` o.o.] o.o.o.+.O.5.7.q.p.K.-XCXKXFXFXFXFXFXFXFXFXFXFXFXFXFXFXFXFXFXFXFXFXFXFXFXFXFXFXFXFXFXFXFXFXFXFXFXFXFXFXFXFXFXFXFXFXFXFXFXFXFXFXFXFXFXFXFXFXFXFXFXFXFXFXFXFXFXFXFXFXFXFXFXFXFXFXFXFXFXFXFXFXFXFX",
"FXFXFXFXFXFXFXFXFXFXFXFXFXFXFXFXFXFXFXFXFXFXFXFXFXFXFXFXFXFXFXFXFXFXFXFXFXFXFXFXFXFXFXFXFXFXFXFXFXFXFXFXFXFXFXFXKXKXKXKXKXDXDXDXKXKXKXKXKXKXDXPXPXDXDXDXPXCXCXCXCXPXCXCXCXjXsX~.,.3.8X8XM.!.hXzX4X/.`.~.^.~.~.K./.hX8XW.H.H.H.M.M.c.M.H.L././././._.c.1.] a.P.L.K.K.K.P.P.H.H.H.H.H.M.M.M.M.M.M.M.M.c.c.c.u.u.u.u.u.y.y.8.8.7.7.5.5.1.#.O.1.O.o.o.o.O.o.o.o.! o.#.R o.J 4 y.H.3.1.6.] _ Q R W ! ! ' _ 7.6.Y W Q ` ` ] o.o. .o.o.O.O.5.5.7.a.C.`.fXDXFXFXGXFXFXFXFXFXFXFXFXFXFXFXFXFXFXFXFXFXFXFXFXFXFXFXFXFXFXFXFXFXFXFXFXFXFXFXFXFXFXFXFXFXFXFXFXFXFXFXFXFXFXFXFXFXFXFXFXFXFXFXFXFXFXFXFXFXFXFXFXFXFXFXFXFXFXFXFXFXFXFX",
"FXFXFXFXFXFXFXFXFXFXFXFXFXFXFXFXFXFXFXFXFXFXFXFXFXFXFXFXFXFXFXFXFXFXFXFXFXFXFXFXFXFXFXFXFXFXFXFXFXFXFXFXFXFXFXFXKXKXKXDXDXDXDXDXKXKXKXKXKXKXDXPXCXPXKXDXZXCXNXNXCXCXCXCXCXjXsX[.9.P !.gXK.N.8XzX9X`.`.(.E.~._.K.W.sXsXW.H.H.M.p.p.p.p.H.L.`./././.).J.5.O.y.H.L.H.H.K.H.J.H.H.H.H.H.M.M.M.c.c.M.M.M.c.c.p.u.u.u.u.y.y.8.7.8.7.7.5.5.4.#.#.4.O.o.o.O.O.O.o.o._ o.o.~ o.[ 4 1.L.3.] w.] ` Q R W ! ! ' _ 5.7.Y ! ` ` ` ` o.o.~ ` o.o.O.O.5.5.e.a.K.;XCXFXFXGXFXFXFXFXFXFXFXFXFXFXFXFXFXFXFXFXFXFXFXFXFXFXFXFXFXFXFXFXFXFXFXFXFXFXFXFXFXFXFXFXFXFXFXFXFXFXFXFXFXFXFXFXFXFXFXFXFXFXFXFXFXFXFXFXFXFXFXFXFXFXFXFXFXFXFXFXFXFXFX",
"FXFXFXFXFXFXFXFXFXFXFXFXFXFXFXFXFXFXFXFXFXFXFXFXFXFXFXFXFXFXFXFXFXFXFXFXFXFXFXFXFXFXFXFXFXFXFXFXFXFXFXFXFXFXFXFXKXKXKXDXDXDXDXDXKXKXKXKXKXKXKXPXCXPXDXDXCXNXbXbXCXCXNXNXNXjXsX[.t.L N.gXY.N.<XzXpX`.`.(.Y.Y.~.L.K.aXxX`.H.H.M.p.p.p.p.H.P.Q.(././.).K.7.O.7.Z.K.H.H.P.H.H.H.H.H.H.H.M.M.M.c.M.M.M.M.c.c.p.u.u.y.y.y.8.8.8.8.7.7.5.4.4.#.#.4.#.O.o.O.O.O.o.o.o.o.o.@.o.4.y P ~.3.' w.O.` ` R R ! ! ] W 5.q.W ! ` ` ` ] o.o.! ` o.o.O.O.$.5.q.y.H.:XbXGXFXGXFXFXFXFXFXFXFXFXFXFXFXFXFXFXFXFXFXFXFXFXFXFXFXFXFXFXFXFXFXFXFXFXFXFXFXFXFXFXFXFXFXFXFXFXFXFXFXFXFXFXFXFXFXFXFXFXFXFXFXFXFXFXFXFXFXFXFXFXFXFXFXFXFXFXFXFXFXFXFX",
"FXFXFXFXFXFXFXFXFXFXFXFXFXFXFXFXFXFXFXFXFXFXFXFXFXFXFXFXFXFXFXFXFXFXFXFXFXFXFXFXFXFXFXFXFXFXFXFXFXFXFXFXFXKXKXKXKXKXDXDXDXDXDXDXKXKXFXFXFXKXKXDXPXPXDXZXCXbXbXbXMXMXNXNXNXdXsX-Xu.J 9.eX/.j.T.gXsX/.`.L.Y.L.L.J.c.1XxX).H.M.c.i.u.u.a.Z.J.L._./././.Q.u.' 4.c.J.Z.H.K.M.c.H.M.M.M.M.M.c.c.c.c.M.M.c.c.p.i.u.u.y.q.q.q.8.7.7.7.7.5.5.5.4.5.1.O.O.$.O.+.' P +.O._ o.o.O.` l G ^.i.,.u.' O.@.W ! ! ! _ _ 1.l.] K ] o.! _ o.' o. .o.o.o.o.#.#.$.z.Z.K.8XDXFXFXFXFXFXFXFXFXFXFXFXFXFXFXFXFXFXFXFXFXFXFXFXFXFXFXFXFXFXFXFXFXFXFXFXFXFXFXFXFXFXFXFXFXFXFXFXFXFXFXFXFXFXFXFXFXFXFXFXFXFXFXFXFXFXFXFXFXFXFXFXFXFXFXFXFXFXFXFXFXFX",
"FXFXFXFXFXFXFXFXFXFXFXFXFXFXFXFXFXFXFXFXFXFXFXFXFXFXFXFXFXFXFXFXFXFXFXFXFXFXFXFXFXFXFXFXFXFXFXFXFXFXFXFXFXKXKXKXKXKXDXDXDXDXDXDXKXKXFXFXFXKXKXPXCXZXDXZXBXdXdXdXdXMXNXMXMXdXpX,Xv.) ] 1X).l.N.gXsX/.Q.P.I.P.J.Z.c.(.gX=XH.M.c.i.u.u.u.c.H.L.~./././.Q.i.' 4.b.J.Z.H.M.M.c.M.c.c.c.M.c.c.c.c.c.c.c.c.p.p.i.u.u.q.q.q.8.8.7.7.5.7.5.5.5.5.5.1.O.O.O.O.O.O.' +.O._ o.o.O.] J 3 K.p.P y.1.O.] _ _ ! _ ' _ O.u.` H ! o._ o.o._ o. .o.o.o.o.#.#.$.w.c.H.-XCXFXFXFXFXFXFXFXFXFXFXFXFXFXFXFXFXFXFXFXFXFXFXFXFXFXFXFXFXFXFXFXFXFXFXFXFXFXFXFXFXFXFXFXFXFXFXFXFXFXFXFXFXFXFXFXFXFXFXFXFXFXFXFXFXFXFXFXFXFXFXFXFXFXFXFXFXFXFXFXFXFX",
"FXFXFXFXFXFXFXFXFXFXFXFXFXFXFXFXFXFXFXFXFXFXFXFXFXFXFXFXFXFXFXFXFXFXFXFXFXFXFXFXFXFXFXFXFXFXFXFXFXFXFXFXFXKXKXKXKXKXDXDXDXDXDXDXKXKXFXFXFXKXKXPXCXCXDXZXMXfXfXfXdXdXbXbXbXfX8X6XU.[ W Y.,Xb.b.9XsX/.L.Z.J.A.J.Z.u.Y.eX,XP.M.p.u.u.w.u.a.Z.P.L./././.Q.p.1.] w.Z.Z.H.M.c.c.c.c.c.p.c.c.c.c.c.c.c.c.c.p.p.i.u.u.q.q.8.8.7.7.7.5.5.5.5.5.5.5.5.2.O.O.O.O.O.O.O.+.+.o.o.O.#.H 4 p.H.P 3.w.O._ _ _ _ _ _ _ O.8._ l K o.] ] _ _  . .o.o.o.o.o.#.#.0.z.Z.~.dXKXFXFXFXFXFXFXFXFXFXFXFXFXFXFXFXFXFXFXFXFXFXFXFXFXFXFXFXFXFXFXFXFXFXFXFXFXFXFXFXFXFXFXFXFXFXFXFXFXFXFXFXFXFXFXFXFXFXFXFXFXFXFXFXFXFXFXFXFXFXFXFXFXFXFXFXFXFXFXFXFX",
"FXFXFXFXFXFXFXFXFXFXFXFXFXFXFXFXFXFXFXFXFXFXFXFXFXFXFXFXFXFXFXFXFXFXFXFXFXFXFXFXFXFXFXFXFXFXFXFXFXFXFXFXFXKXKXKXDXDXDXDXDXDXDXKXKXKXFXFXFXKXDXCXbXMXZXZXdXpXfXpXfXdXfXdXdXdX8X6X^.#.u t.,XI.t.,XzX:XQ.Z.J.Z.P.A.l.v.7X9XW.c.p.u.w.w.w.a.Z.J.L.~./.(.~.c.3.[ 5.z.Z.M.d.c.c.c.p.p.p.c.c.c.c.p.p.c.c.p.p.i.i.u.u.q.q.8.7.7.7.5.5.5.5.5.2.2.2.5.5.2.O.O.O.2.O.+.o.o.o.o.O.#._ 4 7.Y.P ' u.5.o.] _ _ _ ' _ ' 6.o.c H o.o.o._ _  . .o. .o.o.o.o.#.6.a.Z.K.8XDXKXFXFXFXFXFXFXFXFXFXFXFXFXFXFXFXFXFXFXFXFXFXFXFXFXFXFXFXFXFXFXFXFXFXFXFXFXFXFXFXFXFXFXFXFXFXFXFXFXFXFXFXFXFXFXFXFXFXFXFXFXFXFXFXFXFXFXFXFXFXFXFXFXFXFXFXFXFXFXFX",
"FXFXFXFXFXFXFXFXFXFXFXFXFXFXFXFXFXFXFXFXFXFXFXFXFXFXFXFXFXFXFXFXFXFXFXFXFXFXFXFXFXFXFXFXFXFXFXFXFXFXFXFXFXKXKXDXDXDXDXDXKXKXKXKXKXFXFXFXFXKXPXCXnXdXCXSXfX8X8XpXpXfXfXfXfXfX4X6X^.8.y ,.[.T.8.~.gX-XQ.H.J.Z.P.A.l.l.[.0XQ.p.u.w.w.w.w.a.z.Z.L.~./.(.~.H.7.) #.w.Z.M.d.c.c.c.p.p.c.c.c.p.p.p.p.p.p.p.p.i.u.u.u.u.q.q.8.7.7.5.5.5.5.5.5.2.5.7.5.2.O.O.2.1.O.+.+.+.O.] O.#.` 3 ) ~.3.P u.5.+.' ' _ _ ' _ ' 5.5.l H ] O.o.' o. . . . .o.o.o.o.#.$.e.z.H.=XZXKXFXFXFXFXFXFXFXFXFXFXFXFXFXFXFXFXFXFXFXFXFXFXFXFXFXFXFXFXFXFXFXFXFXFXFXFXFXFXFXFXFXFXFXFXFXFXFXFXFXFXFXFXFXFXFXFXFXFXFXFXFXFXFXFXFXFXFXFXFXFXFXFXFXFXFXFXFXFXFX",
"FXFXFXFXFXFXFXFXFXFXFXFXFXFXFXFXFXFXFXFXFXFXFXFXFXFXFXFXFXFXFXFXFXFXFXFXFXFXFXFXFXFXFXFXFXFXFXFXFXFXFXFXFXDXDXDXDXDXDXKXKXKXKXKXKXFXFXFXFXDXPXCXdXpXBXSXfX;X4X4XpXpXfXfXfXfX4X6X^.x.u ) ^.{.t.H.9X8XQ.H.Z.Z.Z.A.j.8.T.0X~.p.u.q.8.6.w.u.z.Z.L.Q.~./.~.H.7.! ` 0.c.c.d.c.c.c.c.p.p.c.c.p.p.i.i.p.p.p.i.u.u.u.u.u.q.q.8.7.7.7.5.5.7.5.5.5.5.5.2.2.2.2.2.O.O.+.+.O.O.' o.o.#.y c Y.i.P q.5.O._ ' _ _ ' _ ' 2.8.H H ] O.O.] o. . . .o. .o.o.o.#.#.e.z.Z.~.dXDXFXFXFXFXFXFXFXFXFXFXFXFXFXFXFXFXFXFXFXFXFXFXFXFXFXFXFXFXFXFXFXFXFXFXFXFXFXFXFXFXFXFXFXFXFXFXFXFXFXFXFXFXFXFXFXFXFXFXFXFXFXFXFXFXFXFXFXFXFXFXFXFXFXFXFXFXFXFXFX",
"FXFXFXFXFXFXFXFXFXFXFXFXFXFXFXFXFXFXFXFXFXFXFXFXFXFXFXFXFXFXFXFXFXFXFXFXFXFXFXFXFXFXFXFXFXFXFXFXFXFXFXFXFXDXDXDXDXDXKXKXKXKXKXKXKXFXFXFXFXDXCXBXfX;XdXBXpX;X;X;X4XpXpXfXfXpX4X).E.v.H J J.[.l.y.,X9XL.H.Z.a.z.S.x.6.R.eX(.p.u.7.6.6.6.e.a.Z.L.Y.~././.H.y.Q Q 6.c.p.d.M.c.c.c.p.p.p.p.p.i.i.i.i.i.i.i.u.u.u.u.q.q.q.8.7.7.7.5.5.7.7.5.5.5.5.2.2.2.5.2.1.1.+.+.2.O.' o.` #.l 2 J.P.' 7.q.O.' ' _ _ ' _ _ O.w.H H ] O.O.o.]  . . . . .o.o.o.O.#.*.e.Z.L.4XZXFXFXFXFXFXFXFXFXFXFXFXFXFXFXFXFXFXFXFXFXFXFXFXFXFXFXFXFXFXFXFXFXFXFXFXFXFXFXFXFXFXFXFXFXFXFXFXFXFXFXFXFXFXFXFXFXFXFXFXFXFXFXFXFXFXFXFXFXFXFXFXFXFXFXFXFXFXFXFX",
"FXFXFXFXFXFXFXFXFXFXFXFXFXFXFXFXFXFXFXFXFXFXFXFXFXFXFXFXFXFXFXFXFXFXFXFXFXFXFXFXFXFXFXFXFXFXFXFXFXFXFXFXFXDXDXDXDXDXGXKXKXFXKXKXKXFXFXFXFXPXCXBXfX;XdXBXpX-X-X;X4X8XpXpXfXpX4X).Y.n.U J j.oXb.7.-XsXL.J.Z.a.w.x.x.6.I.eX).c.a.7.6.6.6.q.u.Z.P.Y.~./.(.K.y.` Q 6.z.p.d.M.c.c.p.p.p.p.p.i.u.u.u.i.i.i.i.u.u.y.q.8.8.8.7.7.7.7.7.5.7.5.5.5.5.2.2.2.2.2.2.2.2.+._ 2.O.' ] ! #.H ; c.Y.' 3.q.2.' ' _ _ _ _ _ +.6.H H ] ] O.] ' o. . . . .o.o.o.o.o.#.e.Z.H.=XZXFXFXFXFXFXFXFXFXFXFXFXFXFXFXFXFXFXFXFXFXFXFXFXFXFXFXFXFXFXFXFXFXFXFXFXFXFXFXFXFXFXFXFXFXFXFXFXFXFXFXFXFXFXFXFXFXFXFXFXFXFXFXFXFXFXFXFXFXFXFXFXFXFXFXFXFXFXFXFX",
"FXFXFXFXFXFXFXFXFXFXFXFXFXFXFXFXFXFXFXFXFXFXFXFXFXFXFXFXFXFXFXFXFXFXFXFXFXFXFXFXFXFXFXFXFXFXFXFXFXFXKXKXKXDXDXDXDXDXDXKXKXKXKXDXKXKXKXKXDXIXNXMXaXQ.!.sXpX-X/.-X9X8XpXsX5X9X,X-X~.I.W y g.[.T.5.K.rX^.P.Z.S.A.z.w.6.0.qX,XZ.u.q.6.6.6.q.e.Z.J.U.Q././.K.a.] ! O.a.c.i.p.c.c.c.p.p.i.i.i.p.u.u.u.u.u.u.u.y.y.y.q.q.q.7.7.7.7.2.2.2.5.7.7.5.5.5.2.2.2.2.O.O.O.O.O.O.o._ ` O.K 2 1.Y.,.3.q.7.O.O._ _ _ +.+.+.8.K H o.Q o.+.O.o.o.~  . . .~ ~ o.#.$.q.z.P./.sXDXKXFXFXFXFXFXFXFXFXFXFXFXFXFXFXFXFXFXFXFXFXFXFXFXFXFXFXFXFXFXFXFXFXFXFXFXFXFXFXFXFXFXFXFXFXFXFXFXFXFXFXFXFXFXFXFXFXFXFXFXFXFXFXFXFXFXFXFXFXFXFXFXFXFXFXFXFXFX",
"FXFXFXFXFXFXFXFXFXFXFXFXFXFXFXFXFXFXFXFXFXFXFXFXFXFXFXFXFXFXFXFXFXFXFXFXFXFXFXFXFXFXFXFXFXFXFXFXFXFXFXKXKXDXDXDXDXDXKXKXKXKXKXDXKXKXKXKXDXIXbXdXaX!.K.,XsX8X=X-X8X8XpXfX5X8X-X-X~.U._ y } [.^.7.J.0X^.P.c.S.S.z.j.6.6.[.6XJ.a.q.6.6.6.w.a.Z.J.U.Q././.P.a.] ! O.u.c.d.p.c.c.p.p.i.i.i.i.i.u.u.u.u.u.u.u.y.y.q.q.q.q.q.7.7.7.2.2.2.7.7.7.5.5.5.2.2.2.2.O.O.+.O.O.O.o._ ' o.K 2 ' !.3.1.q.2.O.O._ _ _ ' +.+.w.K H ` ! o._ ' o. .~ ~ ~ ~ ~ ~  .#.$.6.z.H.~.8XDXKXFXFXFXFXFXFXFXFXFXFXFXFXFXFXFXFXFXFXFXFXFXFXFXFXFXFXFXFXFXFXFXFXFXFXFXFXFXFXFXFXFXFXFXFXFXFXFXFXFXFXFXFXFXFXFXFXFXFXFXFXFXFXFXFXFXFXFXFXFXFXFXFXFXFXFXFXFX",
"FXFXFXFXFXFXFXFXFXFXFXFXFXFXFXFXFXFXFXFXFXFXFXFXFXFXFXFXFXFXFXFXFXFXFXFXFXFXFXFXFXFXFXFXFXFXFXFXFXFXFXKXKXDXDXDXDXDXKXKXKXKXKXDXKXKXKXDXPXCXfX5XaX1XN.K.gXsX-X=X<X8X8XpX4X6X-X-X~.Y.` e Q ].[.w.z.oX_.K.Z.S.S.z.j.6.6.].9XL.p.q.q.6.6.w.a.Z.J.L.Y././.L.a.] ! O.u.c.d.p.p.p.p.p.i.i.u.u.u.u.u.y.y.y.u.u.y.q.q.q.q.q.q.7.q.7.5.2.2.7.7.7.5.5.5.2.2.2.O.O.+.+.O.+.+.' _ _ o.! 2 L ~.7.P q.2.O.' _ _ _ ' _ _ w._ l ! ~ o._ +.~ ~ ~ ~ ~ ~ ~ E ~ o.#.$.w.c.L.-XZXKXKXFXFXFXFXFXFXFXFXFXFXFXFXFXFXFXFXFXFXFXFXFXFXFXFXFXFXFXFXFXFXFXFXFXFXFXFXFXFXFXFXFXFXFXFXFXFXFXFXFXFXFXFXFXFXFXFXFXFXFXFXFXFXFXFXFXFXFXFXFXKXKXKXKXKXKXKX",
"FXFXFXFXFXFXFXFXFXFXFXFXFXFXFXFXFXFXFXFXFXFXFXFXFXFXFXFXFXFXFXFXFXFXFXFXFXFXFXFXFXFXFXFXFXFXFXFXFXKXKXKXDXDXDXDXDXDXDXKXKXKXKXDXKXKXDXDXPXMXfX4X8X<XN.b.9XsX,X=X-X8X4X4X4X,X-X=X^.E.$.e U Y.7Xz.8.{.[.L.Z.x.z.z.z.h.5.I.0XY.c.u.w.6.6.e.a.Z.A.L.Y././.L.a.] W o.w.c.d.p.p.p.p.i.i.i.u.y.y.p.i.u.y.y.y.y.y.q.q.7.7.q.q.7.7.7.2.5.2.7.7.7.7.5.5.1.1.O.O.O.O.O.+.+.+._ _ _ _ o.4 y Q.t.P 7.5.O.' _ _ _ _ _ _ 6._ c Y ~ o.o.o.~ ~ ~ ~ ~ ~ ~ E E  .#.$.q.z.K.~.CXDXKXFXFXFXFXFXFXFXFXFXFXFXFXFXFXFXFXFXFXFXFXFXFXFXFXFXFXFXFXFXFXFXFXFXFXFXFXFXFXFXFXFXFXFXFXFXFXFXFXFXFXFXFXFXKXKXKXKXKXKXKXFXKXKXKXKXFXFXFXFXKXKXKXKXKXKXKX",
"FXFXFXFXFXFXFXFXFXFXFXFXFXFXFXFXFXFXFXFXFXFXFXFXFXFXFXFXFXFXFXFXFXFXFXFXFXFXFXFXFXFXFXFXFXFXFXFXFXKXKXKXDXDXDXDXDXDXDXKXKXKXKXDXKXKXDXPXCXdXfX4X;X<XB.9.T.sX8X=X=X4X4X;X<X-X=X=X~.E.0.u u J.qXJ.7.Y.{.Y.Z.k.w.u.z.j.5.b.0X~.H.a.u.8.6.q.u.c.A.P.Y.Q./.L.a.O.W ' w.p.d.p.p.i.i.i.i.i.u.y.y.p.u.y.8.8.y.y.y.q.q.7.7.7.7.7.7.7.2.2.2.5.7.5.5.1.O.O.O.O.O.O.O.O.o.+.' _ _ _ _ o.y 3 K.i.L 2.5.O.] ! ! ! _ _ K 6.o.c C ~ o.o.o.~ ~ ~ ~ ~ ~ ~ ~ E  .@.#.0.z.J.Q.dXDXKXFXFXFXFXFXFXFXFXFXFXFXFXFXFXFXFXFXFXFXFXFXFXFXFXFXFXFXFXFXFXFXFXFXFXFXFXFXFXFXFXFXFXFXFXFXFXFXFXFXFXFXFXFXKXKXKXKXKXKXKXKXKXKXKXKXKXKXKXKXDXDXDXDXDXDXDX",
"FXFXFXFXFXFXFXFXFXFXFXFXFXFXFXFXFXFXFXFXFXFXFXFXFXFXFXFXFXFXFXFXFXFXFXFXFXFXFXFXFXFXFXFXFXFXFXFXFXKXKXDXDXDXZXDXDXDXKXKXFXKXKXDXKXDXPXCXNXsXpX5X=X,XR.9.l.9X9X-X:X-X;X-X-X-X=X=X~.Y.j.l i l.7XR.5.Z.^.U.c.j.0.e.k.j.6.8.aX).H.a.u.8.6.q.e.z.Z.J.L.Q./.L.a.O.W _ 7.i.d.i.u.i.i.i.i.u.u.y.y.y.y.7.7.7.7.8.y.q.7.7.7.7.7.7.3.2.2.2.2.5.5.5.2.O.O.O.O.O.O.O.O.o.O.+.' _ _ _ ! ` y 4 c.M.P +.5.O.] ! ! ! _ _ ! 5.$.l z ~ ~ ! o.~ ~ ~ ~ ~ ~ ~ E E ....@.6.z.Z.L.pXZXKXKXFXFXFXFXFXFXFXFXFXFXFXFXKXKXKXKXKXKXKXKXFXFXFXFXFXFXFXFXFXFXFXFXFXFXFXFXKXKXKXKXFXKXKXKXKXKXKXKXKXKXKXKXDXDXDXDXDXDXDXKXKXDXDXDXDXDXDXKXDXDXDXDXDXDXDX",
"FXFXFXFXFXFXFXFXFXFXFXFXFXFXFXFXFXFXFXFXFXFXFXFXFXFXFXFXFXFXFXFXFXFXFXFXFXFXFXFXFXFXFXFXFXFXFXFXFXKXKXDXDXZXZXDXDXDXKXFXFXKXKXDXKXDXZXNXdXqX4X5X:X=X^.j.6.-X9X8X:X=X-X-X-X=X=X=XQ.Y.k.z i 8.[.T.4.l.Y.U.a.0.6.q.j.j.8.5.8X6XP.y.w.8.6.0.e.a.Z.A.P.Q./.L.p.#.! _ 5.i.i.i.u.i.u.u.u.y.y.y.y.7.7.7.7.7.7.7.7.7.7.7.7.7.7.7.3.2.2.2.2.2.5.2.2.O.O.O.O.O.O.O.O.O.O.o._ _ _ _ ! ` l 2 y.H.' ' 5.#.o.! ! ! ! ! ! #.%.l z ~ ~ ! o.~ ~ ~ ~ ~ ~ ~ E E  .~  .%.l.c.P.;XBXKXKXFXFXFXFXFXFXFXFXFXFXFXFXKXKXKXKXKXKXKXKXKXKXKXKXKXKXKXFXFXFXKXKXKXKXKXKXKXKXKXKXKXKXKXKXDXDXDXDXDXDXDXDXDXDXDXDXDXDXDXDXDXDXDXDXDXDXDXDXDXDXDXDXDXDXDX",
"FXFXFXFXFXFXFXFXFXFXFXFXFXFXFXFXFXFXFXFXFXFXFXFXFXFXFXFXFXFXFXFXFXFXFXFXFXFXFXFXFXFXFXFXFXFXFXFXFXKXKXDXDXZXZXZXDXDXKXFXFXKXKXDXDXPXCXbXdX9X/.4X:X(.[.b.6.(.9X9X:X:X-X-X-X).=X=XY.U.x.H i 8.{.T.4.8.U.J.w.6.6.w.j.j.8.3.9X9XP.y.q.8.6.8.e.a.c.Z.P.Q.~.L.c.#.! _ 5.i.i.i.u.u.u.u.y.y.y.y.y.7.7.7.7.7.7.7.7.7.7.3.3.7.7.7.3.2.2.2.2.2.5.2.2.O.O.O.O.O.O.O.O.o.o.o.' _ +._ ! o.H 2 3.M.' _ e.#.o.! ! ! ! _ _ O.6.c x  . .! o.~ ~ ~ ~ ~ ~ ~ E E E ~ ~ $.w.c.P.:XbXDXKXKXFXFXFXFXFXFXFXFXFXFXFXKXKXKXKXKXKXKXKXKXKXKXKXKXKXKXKXKXKXKXKXKXKXKXKXKXKXKXKXKXDXDXDXDXDXDXDXDXDXDXDXDXDXDXDXDXDXDXDXDXDXDXDXDXDXDXDXDXDXDXDXDXDXDX",
"FXFXFXFXFXFXFXFXFXFXFXFXFXFXFXFXFXFXFXFXFXFXFXFXFXFXFXFXFXFXFXFXFXFXFXFXFXFXFXFXFXFXFXFXFXFXFXFXKXDXDXDXDXZXZXDXDXKXKXKXGXKXKXDXDXCXbXdXpX4X-X=X=X/.~.R.8.!.9X9X;X:X=X;X-X).~.~.^.Y.z.Q e #.}.{.w.#.n.R.u.6.h.6.h.x.5.5.^.9XL.y.q.8.4.5.q.u.z.A.P.L.`.L.Z.5.' ) 1.y.i.y.w.y.y.y.y.y.y.7.7.5.5.5.5.7.7.5.5.2.2.5.5.5.5.5.5.5.5.5.5.5.1.1.O.O.O.O.O.O.O.O.o.o.o.` ] o.` ! !  .W 2 P H.' ' $.#.o.! W R R ! ! o.0.z k ..~ ~ o. .~ E ^ ^ E R R E E A E ..6.b.J.Q.9XAXDXDXKXFXDXKXKXKXKXKXKXKXKXDXDXDXDXDXDXDXDXDXDXDXDXDXDXDXDXDXDXDXDXDXDXDXDXDXDXDXDXDXDXDXDXDXDXDXDXDXDXDXDXAXAXAXAXAXAXAXDXDXAXAXAXAXDXDXAXDXAXAXAXAXAXAX",
"FXFXFXFXFXFXFXFXFXFXFXFXFXFXFXFXFXFXFXFXFXFXFXFXFXFXFXFXFXFXFXFXFXFXFXFXFXFXFXFXFXFXFXFXFXFXFXFXKXDXDXDXDXZXDXDXDXKXGXGXKXDXKXDXPXCXdXfXpX4X/./././.~.R.8.Q.-X,X4X:X=X-X=X/.Q.Q.^.Y.z.Q e g.[.7Xu.` j.D.u.8.0.6.g.x.6.5.^.8XL.y.q.8.5.1.5.u.z.Z.H.L.`.L.Z.5.' ) 1.y.i.y.w.y.y.y.y.y.7.7.7.5.5.5.5.5.5.5.5.5.2.2.5.2.5.5.5.5.1.1.1.1.O.O.O.O.O.O.O.O.O.O.o.o.o.` ] ` _ ! ! ~ W 2 P M.' _ 5.#.o.R Y Y R R ! ] 0.z k / .. .o. .~ E E E E E R E E E ^ ..%.z.c.L.,XSXDXDXKXKXDXDXDXDXDXDXDXDXDXDXDXDXDXDXDXDXDXDXDXDXDXDXDXDXDXDXDXDXDXDXDXDXDXDXDXDXDXDXDXDXDXDXDXDXDXDXDXDXDXDXDXDXDXDXAXAXDXDXDXDXAXDXDXDXAXAXAXAXDXAXAXAX",
"FXFXFXFXFXFXFXFXFXFXFXFXFXFXFXFXFXFXFXFXFXFXFXFXFXFXFXFXFXFXFXFXFXFXFXFXFXFXFXFXFXFXFXFXFXFXFXFXKXDXDXDXDXZXDXDXDXGXKXGXKXKXDXPXCXBXdXpX<X-X:X/.(./.(.T.l.Q.!.!.8X8X/./.=X/.Q.Y.Y.U.z.Q e %.}.rXb.! %.R.b.8.6.6.6.j.6.4.Y.8XL.a.e.8.5.1.5.e.z.v.H.K.W.K.Z.5.' ) 1.y.y.y.w.y.y.y.y.7.7.7.7.7.5.5.5.5.7.5.7.2.2.2.2.5.1.1.1.1.O.O.O.O.O.O.O.] ] O.O.O.O.] ] o._ _ ` ` ! ! R R ! 2 L c.' _ 6.#.` R Y Y R R ! o.0.z j ^ .. .@. .E E E E E T E ^ ^ ^ ^ ..$.j.z.P./.zXDXDXDXKXDXDXDXDXDXDXDXDXDXDXDXDXDXDXDXDXDXDXDXDXDXDXDXDXDXDXDXDXDXDXDXDXDXDXDXDXDXDXAXAXDXAXAXAXAXAXAXAXDXDXDXDXDXDXAXAXDXDXDXAXAXAXDXDXAXAXAXAXDXAXAXAX",
"FXFXFXFXFXFXFXFXFXFXFXFXFXFXFXFXFXFXFXFXFXFXFXFXFXFXFXFXFXFXFXFXFXFXFXFXFXFXFXFXFXFXFXFXFXFXFXFXKXKXDXDXDXZXDXDXDXDXKXGXGXDXDXZXCXbXfX8X;X-X=X/.(./.^.T.l./.(.K.!.9X(.`././.Q.Y.Y.U.S.~ e U T.7XI.) @.R.v.j.0.6.6.j.6.4.I.sX~.p.e.8.5.5.5.q.a.v.H.K.W.K.H.q.O.) O.y.y.y.8.y.8.8.8.7.7.7.7.5.5.5.2.2.2.2.5.5.2.2.1.1.1.O.O.O.O.O.O.O.O.O.O.] ] ] o.O.o.] ] _ ` ! ! ! ! R W R ! 2 G i.O._ $.#.` R Y Y Y R W o.0.z j ^ ~  .o. .E E ^ T E T R ^ ^ A ^ ..@.0.z.H.Y.sXAXDXDXDXDXDXDXDXDXDXDXDXDXDXDXDXDXDXDXDXDXAXAXAXAXAXDXDXDXDXDXDXAXAXAXAXDXAXAXAXAXAXAXAXAXAXAXAXAXAXAXAXAXDXAXAXDXDXDXDXDXDXAXAXAXAXDXDXDXAXAXAXAXAXAXAX",
"FXFXFXFXFXFXFXFXFXFXFXFXFXFXFXFXFXFXFXFXFXFXFXFXFXFXFXFXFXFXFXFXFXFXFXFXFXFXFXFXFXFXFXFXFXFXFXFXKXDXDXDXZXPXDXDXDXDXKXKXKXDXZXCXBXdXpX;X-X/.(.!.!.`.~.Q.t.Q.aXK.i.(.,X/././.Q.Y.Y.Y.A.{ e U R.7XR._ ` D.b.z.j.6.g.j.6.5.D.gX_.Z.e.7.5.5.e.e.a.c.H.K.P.K.H.q.O.) ] y.t.y.7.y.8.7.7.7.7.7.7.5.5.5.2.2.2.2.5.2.2.5.1.1.O.O.O.O.O.O.O.O.O.O.O.] ] ] ] ] ] ] ] ` ! ! ! ~ ! R W R ~ 2 y u.5._ #.#.` R Y Y Y R R o.0.z r E /  .o...E E ^ E Z E E E A A A E @.0.z.Z.P.6XSXDXZXZXDXAXAXAXAXAXAXAXAXDXDXDXDXDXDXDXDXAXAXAXAXAXDXDXDXDXAXDXAXAXAXAXDXAXAXAXAXAXAXAXAXAXAXAXAXAXAXAXAXDXDXAXDXDXDXDXAXDXAXAXAXAXAXDXAXAXAXAXAXAXAXAX",
"FXFXFXFXFXFXFXFXFXFXFXFXFXFXFXFXFXFXFXFXFXFXFXFXFXFXFXFXFXFXFXFXFXFXFXFXFXFXFXFXFXFXFXFXFXFXFXFXKXDXDXDXPXDXDXDXDXDXDXDXDXZXZXBXdXpX8X-X=X/.(.!.!.Q.~.Q.t.M.xX1X9.b.,X-X/./.Q.Q.Y.U.A.{ e U T.[.T.{ W x.x.z.w.6.6.h.6.#.b.0X^.S.q.5.5.7.e.q.w.b.c.K.H.K.J.e.O.) ' 3.y.7.7.8.7.7.7.7.3.2.5.2.2.2.2.2.2.2.2.5.5.2.1.1.O.O.O.O.O.O.O.O.O.O.O.] ] ] ] ] ] ] ] ` _ ! ! ! ! R W R ` 2 y t.7._ #.#. .R Y Y R R Y o.0.x t E .. .@... .E D Z Z Z E E A A A E ..6.w.Z.Z.).BXAXZXZXAXAXAXAXAXAXAXAXAXDXDXAXDXDXDXDXAXAXAXAXAXAXAXAXAXAXAXAXAXAXAXAXDXDXDXDXDXDXDXDXDXAXAXAXAXAXAXDXDXDXAXAXAXDXAXAXAXAXAXAXAXAXDXDXAXAXAXAXAXAXAXAX",
"FXFXFXFXFXFXFXFXFXFXFXFXFXFXFXFXFXFXFXFXFXFXFXFXFXFXFXFXFXFXFXFXFXFXFXFXFXFXFXFXFXFXFXFXFXFXFXKXKXDXPXPXZXDXDXDXDXDXDXDXDXZXBXdXfX8X-X=X=X/.(.!.!.Q.~.Q.t.i.hXeXb.<.M.-X/.~.Q.Y.L.L.A.@.r z D.{.T.#.U j.A.b.0.6.%.g.%.O.6.7X^.Z.q.5.5.7.e.q.e.z.c.M.H.H.J.u.O.) ' 3.r.7.7.8.7.7.3.3.2.2.2.2.2.2.2.2.2.2.2.2.2.O.O.O.O.O.O.O.O.O.O.O.O.O.O.O.] ] ] ] ` ` _ ` _ ! ! Q R R W Y @.y i 8.8._ @.#.o.R Y Y R R R o.0.x e Z ..@.@...E A Z V C Z A Z A A A E ..$.e.S.Z._.zXAXAXAXAXAXAXAXAXAXAXAXAXAXAXAXAXAXAXAXAXAXAXAXAXAXAXAXAXDXDXDXDXDXDXDXDXDXDXDXDXDXDXDXDXDXDXDXDXDXDXDXDXDXAXAXAXAXAXAXAXAXAXAXAXAXDXDXDXAXAXAXAXAXAXAX",
"FXFXFXFXFXFXFXFXFXFXFXFXFXFXFXFXFXFXFXFXFXFXFXFXFXFXFXFXFXFXFXFXFXFXFXFXFXFXFXFXFXFXFXFXFXFXFXKXKXDXPXPXZXDXGXGXDXDXDXDXDXBXBXdXpX;X-X=X).`.!.!.Q.L.~.Y.8.i.(.gX!.) ' L.-XQ.Q.Y.K.P.A.&.r u n.].E.6.U j.I.S.j.0.0.h.%.] 4.1XE.Z.e.5.7.7.e.q.e.z.c.M.H.K.J.u.O.) ' 3.r.7.7.7.7.7.2.2.1.3.2.2.2.2.2.2.2.2.2.1.2.O.O.O.O.O.O.O.O.O.O.O.O.O.o.O.O.] ` ` ' ' _ ` Q ! ! Q Q R R Y #.y 3 9.7.! #.#.o.~ Y Y R R R o.*.k e A ..@.$...^ A Z C M C A Z A D A A ..$.0.S.Z.~.gXVXAXAXVXAXAXAXAXAXAXAXAXAXAXAXAXAXAXAXAXDXDXDXDXDXDXDXAXDXDXDXDXDXDXDXDXDXDXDXDXDXDXDXDXDXDXDXDXDXDXDXDXDXDXDXAXAXAXAXAXAXAXAXAXAXAXDXAXAXAXAXAXAXAXAX",
"FXFXFXFXFXFXFXFXFXFXFXFXFXFXFXFXFXFXFXFXFXFXFXFXFXFXFXFXFXFXFXFXFXFXFXFXFXFXFXFXFXFXFXFXFXKXKXDXDXDXPXZXZXPXDXDXDXDXDXZXZXSXdXaX8X<X-X(./.~.!.Q.K.Q.L.Y.8.9.{.aX,Xc.H U V.E.).`.W.Y.v.} i e g.R.T.b.W } T.A.v.w.5.0.%.{ @.{.oXc.u.q.7.7.q.7.q.u.p.c.c.H.K.p.1.) ! ] 5.7.y.5.5.2.2.2.1.1.1.2.2.2.2.2.2.2.2.O.O.+.O.O.O.O.O.o.O.O.O.O.O.o.o.o.o.Q W R ! R Y R W W R R R R W Y ~ l 2 ,.9._ @.@.~ Y T Y C R R _ 0.j e ^ ..@.*.X.^ A D M m S Z A A V A A E ..0.j.S.L.6XAXAXZXDXAXAXAXAXAXAXAXAXAXAXAXAXAXAXAXAXAXAXAXAXAXAXAXAXAXAXAXAXAXAXAXAXAXAXAXAXAXAXAXAXAXAXAXAXAXAXAXAXAXAXAXAXAXAXAXAXAXAXAXAXAXAXAXAXAXAXAXAXAXAXAX",
"FXFXFXFXFXFXFXFXFXFXFXFXFXFXFXFXFXFXFXFXFXFXFXFXFXFXFXFXFXFXFXFXFXFXFXFXFXFXFXFXFXFXFXFXFXKXKXKXDXDXPXZXZXPXDXDXDXDXDXZXZXBXdXpX8X-X-X(./.~.Q.Q.K.Y.Y.U.8.<.(.aX,XY.#.Y { D.T.Q.L.H.v.4.u e j.R.T.l.W ] R.A.v.w.5.6.%.{ { {.oXZ.u.q.7.7.7.7.q.u.p.p.c.M.K.c.5.[ _ #.4.7.3.5.5.5.2.2.2.1.1.2.2.2.2.2.2.2.2.1.O.+.O.O.O.O.O.O.o.O.O.O.o.] ' o.` ! W W R R W R W W R R R R W Y ` l 2 ' 9._ o.@.~ Y T Y C Y R ! 0.c e / / @.%.X.^ A D b b M Z Z A A A A E ..6.j.z.L.6XVXAXZXDXAXAXAXAXAXAXAXAXAXAXAXAXAXAXAXAXAXAXAXAXAXAXAXAXAXAXAXAXAXAXAXAXAXAXAXAXAXAXAXAXAXAXAXAXAXAXAXAXAXAXAXAXAXAXAXAXAXAXAXAXAXAXAXAXAXAXAXAXAXAXAX",
"FXFXFXFXFXFXFXFXFXFXFXFXFXFXFXFXFXFXFXFXFXFXFXFXFXFXFXFXFXFXFXFXFXFXFXFXFXFXFXFXFXFXFXFXFXKXKXKXDXDXPXZXZXPXDXDXDXDXDXZXCXdXfXpX;X-X-X(./.L.Y.Y.K.Y.L.U.8.[ !.gX,X^.x.{ B Q n.{.Y.a.b.g.r e g.T.E.b.W [ I.A.v.j.6.0.%.{ ~ T.oXZ.u.q.7.7.7.7.q.u.u.u.i.c.H.H.7._ ! ` 4.1.3.5.5.5.2.2.2.2.2.2.2.O.2.2.2.2.O.O.O.O.O.O.O.O.O.O.o.O.O.o.' _ _ ` ~ ! W Y W R W R R R R R R R W Y ` l 2 [ 9.W o.@.E Z Z Z C Y R ! 0.k r / ..@.%.X.^ D V v h m V C A A V A A ..%.j.z.J.).SXAXZXAXAXAXAXAXAXAXAXAXAXAXAXAXAXAXAXAXAXAXAXAXAXAXAXAXAXAXAXAXAXAXAXAXAXAXAXAXAXAXAXAXAXAXAXAXAXAXAXAXAXAXAXAXAXAXAXAXAXAXAXAXAXAXAXAXAXAXAXAXAXAXAX",
"FXFXFXFXFXFXFXFXFXFXFXFXFXFXFXFXFXFXFXFXFXFXFXFXFXFXFXFXFXFXFXFXFXFXFXFXFXFXFXFXFXFXFXFXFXKXKXKXDXDXPXZXZXPXDXDXDXDXDXZXBXdXfX8X-X-X)./.~.L.L.Y.J.Y.J.A.6.[ ^.hX,XY.A.g.T t ( k.E.A.c.6.u e 6.Y.E.v.) ) n.I.S.z.w.w.6.@.Q R.[.J.a.q.7.7.7.8.7.q.u.u.u.c.H.L.u._ H W ] 1.2.5.5.2.2.2.2.2.2.2.O.O.O.2.2.2.O.O.O.O.O.O.O.O.` o.o.o.o.] ' _ _ ! ! ! ! W W R Q R R R R R R R W Y ~ l > ) 8.W o...E Z C C C C R o.h.x r / ..@.%.X.X.D V j j b S S A A V S Z / %.h.z.Z._.zXAXAXAXAXAXAXAXAXAXAXAXAXAXAXAXAXAXAXAXAXAXAXAXAXAXAXAXAXAXAXAXAXAXAXAXAXAXAXAXAXAXAXAXAXAXAXAXAXAXAXAXAXAXAXAXAXAXAXAXAXAXAXAXAXAXAXAXAXAXAXAXAXAXAX",
"FXFXFXFXFXFXFXFXFXFXFXFXFXFXFXFXFXFXFXFXFXFXFXFXFXFXFXFXFXFXFXFXFXFXFXFXFXFXFXFXFXFXFXFXFXKXKXDXDXDXPXZXZXPXDXDXDXDXPXCXMXdXfX8X-X=X(.~.Q.P.P.I.J.U.A.A.6.{ T.gX,XP.x.k.&.a 8 h x.E.I.6.l w 1.L.^.J.[ W n.J.v.z.e.e.6.#.Q v.[.U.a.q.7.7.5.7.7.q.u.u.u.c.J.Y.u._ H W ` O.2.2.2.2.2.2.2.2.2.O.O.O.O.O.O.O.O.O.O.O.O.O.O.] ` _ _ o.` ] _ _ _ ! ! Q ! ! R R ~ R R R R R R R Y Y ~ z ; ) 8.! @...E C C C S C Y o.h.k t ^ ..@.*.X.X.A M 9 9 b S V A D M b V ^ &.h.z.Z.~.gXAXAXAXAXAXAXAXAXAXAXAXAXAXAXAXAXAXAXAXAXAXAXAXAXAXAXAXAXAXAXAXAXAXAXAXAXAXAXAXAXAXAXAXAXAXAXAXAXAXAXAXAXAXAXAXAXAXAXAXAXAXAXAXAXAXAXAXAXAXAXAXAXAXAX",
"FXFXFXFXFXFXFXFXFXFXFXFXFXFXFXFXFXFXFXFXFXFXFXFXFXFXFXFXFXFXFXFXFXFXFXFXFXFXFXFXKXKXFXFXFXKXKXDXDXZXPXZXZXPXPXPXZXZXZXBXbXaXpX8X-X=X/.Q.L.H.J.K.J.U.S.x.&.Q n.9X8XL.x.j.&.( p t ( x.R.w.c 2 _ L.^.I.] J b.A.b.w.w.0.6.%.Q b.[.Y.a.7.7.7.5.7.7.q.u.u.u.c.Z.Y.a.] W W ] O.1.1.2.2.2.2.2.2.2.1.O.O.O.O.O.O.O.O.O.O.O.O.` ` ` ! _ _ ` ` ' _ _ ! ! ! ! R R R ~ R W W R R R W Y Y ~ H ; P u.W @...E C C C S S Y ! 0.c e ^ / @.%.X.X.D b 9 9 b b V D F n n V ^ &.0.x.S.L.sXAXAXAXAXAXAXAXAXAXAXAXAXAXAXAXAXAXAXAXAXAXAXAXAXAXAXAXAXAXAXAXAXAXAXAXAXAXAXAXAXAXAXAXAXAXAXAXAXAXAXAXAXAXAXAXAXAXAXAXAXAXAXAXAXAXAXAXAXAXAXAXAXAXAX",
"FXFXFXFXFXFXFXFXFXFXFXFXFXFXFXFXFXFXFXFXFXFXFXFXFXFXFXFXFXKXKXKXKXKXKXKXKXKXKXKXKXKXKXKXKXKXDXDXPXZXZXZXZXPXDXZXZXZXZXBXdXpX8X;X-X=X/.Q.P.H.J.J.J.U.z.k.@.( m.1X9XY.S.h.( ( :.D M } n.l.c 2 P P.^.Y.[ J l.J.b.w.q.6.0.%.Q l.oXY.z.7.7.q.5.7.8.q.u.u.u.u.c.~.c.O.W W _ O.O.1.1.1.1.3.2.2.2.O.O.O.O.O.O.O.O.O.O.o.] o.` ` Q ! _ ' ` ` ' _ _ ! ! ! ! R R R ~ W Y Y W R R W Y Y ~ H - L w.W @...E C C C S S C ! 0.c t ^ ....%.X.D V n 9 9 b b V D F g g m E &.6.x.c.P.9XAXAXAXAXAXAXAXAXAXAXAXAXAXAXAXAXAXAXAXAXAXAXAXAXAXAXAXAXAXAXAXAXAXAXAXAXAXAXAXAXAXAXAXAXAXAXAXAXAXAXAXAXAXAXAXAXAXAXAXAXAXAXAXAXAXAXAXAXAXAXAXAXAXAX",
"FXFXFXFXFXFXFXFXFXFXFXFXFXFXFXFXFXFXFXFXFXFXFXFXFXFXFXFXFXKXKXKXKXKXKXKXKXKXKXKXKXKXKXKXKXKXKXDXPXZXZXZXZXDXDXZXZXZXZXBXdXpX4X-X=X(.~.Q.K.Z.A.J.A.J.z.k.@.T j.1X9XL.S.k.{ / :.D D -.n.l.K 2 P H.~.Y.[ u 8.U.c.a.w.6.h.6.~ l.oXE.c.7.7.q.5.7.8.q.u.u.q.e.a.(.Z.O.H H Q O.O.1.1.1.1.1.1.1.1.O.O.O.O.O.O.O.O.O.o.] ` ` ` _ ! _ _ ' o.` _ _ ! ! W W R R R Y R Y Y Y W W W W Y Y R K - L w.K  ...E C C S m S C ! 0.k r ....&.%.X.D V j 9 9 b b V D n 9 9 m T / %.x.c.H.6XSXAXZXAXAXAXAXAXAXAXAXAXAXAXAXAXAXAXAXAXAXAXAXAXAXAXAXAXAXAXAXAXAXAXAXAXAXAXAXAXAXAXAXAXAXAXAXAXAXAXAXAXAXAXAXAXAXAXAXAXAXAXAXAXAXAXAXAXAXAXAXAXAXAX",
"FXFXFXFXFXKXKXKXKXKXKXKXKXKXKXKXKXKXKXKXKXDXDXDXDXDXDXDXDXDXDXDXDXDXDXDXDXDXDXDXDXDXDXDXKXDXDXZXZXZXZXZXZXDXZXZXZXZXBXbXdXpX8X-X=X).(.Q.L.U.S.S.D.D.v.j.%.T &.}.,XQ.v.w.{ E X.D ;.m.N.R.W 4 [ M.^.U.#.y O.U.Z.y.y.w.h.h.Q j.[.[.p.q.q.5.8.7.8.w.7.w.6.4.j.).Z.] Y x Y ` o.O.O.5.1.1.2.1.O.1.O.O.O.O.O.O.o.' ` ` _ Q Q Q ` ! ! ` ~ ~ ! ! ! Y Y Y W W W W R R W Y Y Y Y T Y C ~ z - J 5.R ....E C m m m C C ~ 0.k j ....h.%.X.^ m 9 8 j m b F D n 9 t b V ^ %.k.S.Z./.BXAXZXAXAXAXAXAXAXAXAXAXAXAXAXAXAXAXAXAXAXAXAXAXAXAXAXAXAXAXVXVXVXVXAXAXAXAXAXAXAXAXAXAXAXAXAXAXAXAXAXAXAXAXAXAXAXAXAXAXAXAXAXAXAXAXAXVXVXVXVXVXVXVX",
"FXFXFXFXFXKXKXKXKXKXKXKXKXKXKXKXKXKXKXKXKXDXDXDXDXDXDXDXDXDXDXDXDXDXDXDXDXAXAXAXDXDXDXDXDXDXDXZXZXZXZXZXZXDXZXZXZXCXBXbXdX8X4X-X=X).(.Q.L.J.S.S.D.I.R.n.j.Z &.}.,XQ.J.j.{ / A X.k.n.T.T.l 2 [ Z.^.R.] y ] D.J.i.u.8.0.h.~ 6.{.,XM.y.q.5.7.5.5.7.5.8.6.#.j.6XJ.] Y x H ` #.O.O.5.2.1.2.2.1.1.O.O.O.O.O.O.O._ ` _ _ ! Q Q _ ! ! ! ! ! ! ! ! Y R R W W W W R W W Y Y Y Y Y Y C ~ z , J 5.! ../ E C m m m C C ~ 0.k h ....-.%.X.A h 8 8 h m b F D v 9 t v M ^ %.k.x.Z._.zXAXZXAXAXAXAXAXAXAXAXAXAXAXAXAXAXAXAXAXAXAXAXAXAXAXAXAXAXAXVXVXAXAXAXAXAXAXAXAXAXAXAXAXAXAXAXAXAXAXAXAXAXAXAXAXAXAXAXAXAXAXAXAXAXAXAXVXVXVXVXVXVXVX",
"KXKXKXKXKXDXDXDXDXDXDXDXDXDXDXDXDXDXDXDXDXDXDXDXDXDXDXDXDXAXAXAXAXAXAXAXAXAXAXAXZXAXDXDXDXDXDXZXZXZXZXZXZXDXZXZXZXCXBXdXfX8X4X-X=X).(.Q.L.J.S.A.J.I.R.R.x.B ( {.7X~.J.j.@.( Z ;.'.R.1XT.2 4 ] J.^.R.] w ` D.J.p.u.8.0.6.~ %.{.7XH.u.q.5.7.5.5.5.5.8.6.#.j.7XJ.] W x z ! O.o.O.4.2.1.5.2.1.O.O.O.O.O.O.O.o._ _ _ ! ! Q Q Q ! ! ! ! ! ! ! ! Y Y Y R W W W ! W W Y Y Y Y Y Y C R z , J 4.! ../ A C m m m S C ~ %.x k ....6.%.^ V t 0 9 h b M F D n 9 t v m A %.k.x.z.Y.zXAXZXAXAXAXAXAXAXAXAXAXAXAXAXAXAXAXAXAXAXAXAXAXAXAXAXAXAXAXAXAXAXAXAXAXAXAXAXAXAXAXAXAXAXAXAXAXAXAXAXAXAXAXAXAXAXAXAXAXAXAXAXAXAXAXAXVXVXVXVXVXVXVX",
"DXDXDXDXDXDXDXDXDXDXDXDXDXDXDXDXDXDXDXDXDXAXAXAXAXAXAXAXAXAXAXAXAXAXAXAXZXVXAXAXAXZXZXDXDXDXZXZXZXZXZXZXZXDXZXZXCXCXBXdXfXpX4X-X=X).(.Q.L.P.A.A.A.I.Y.U.x.M ( }.eX(.H.j.} ( E h.E._.7XN.2 i 9.Y.^.T.4.i ) F.L.c.y.w.0.6.` #.{.7XK.u.q.5.5.5.5.5.#.6.6.#.0.6XZ._ ~ z z Y Q ] O.O.O.O.5.5.1.O.O.O.O.O.o.o.` _ _ ! ! ! Q Q Q ! ! ! ~ ~ ! Q ! Y R R W W R R R Y Y Y Y Y Y Y Y C R C , l 4.~ ..^ A S m m m S C ~ %.z z ..@.6.#.^ M 8 0 9 h v V D D v 9 9 v m ^ %.k.z.a.P.sXAXAXAXAXAXAXAXAXAXAXAXAXAXAXAXAXAXAXAXAXAXAXAXAXAXAXAXAXAXVXVXVXVXVXAXAXAXAXAXAXAXAXAXAXAXAXAXAXAXAXAXAXAXAXAXAXAXAXAXAXAXAXAXAXAXAXVXVXVXAXAXVXVX",
"DXDXDXDXDXAXAXAXAXAXAXAXAXAXAXAXAXAXAXAXAXAXAXAXAXAXAXAXAXAXAXAXAXAXAXAXAXVXVXVXAXAXAXZXAXZXZXZXZXZXZXZXDXDXZXZXCXBXMXdXfXpX4X;X-X=X(.~.Q.L.P.P.J.J.Y.U.x.D T '.9X(.N.l.#./ { h.Y.7X7X4.2 u j.T.{.T.9.y U U.U.c.y.w.0.6.` @.T.7XL.u.7.6.5.4.4.#.#.$.#.{ 6.6XZ.! Y z z Y ! ] O.O.O.O.1.1.O.O.O.O.O.O.o.o.` ! ` ` ` Q ~ Q Q  .! ~ ~ ~ ~ Q Q Y R R W W R R R Y Y Y Y Y Y Y Y C E C , c #.~ ..^ Z V S m m m C ` %.C C ..@.%.@.A b 0 , 9 j h V D D p 9 9 h m ^ &.k.x.e.Z.9XAXAXAXAXAXAXAXAXAXAXAXAXAXAXAXAXAXAXAXAXAXAXAXAXAXAXAXAXAXAXAXAXAXVXAXAXAXAXAXAXAXAXAXAXAXAXAXAXAXAXAXAXAXAXAXAXAXAXAXAXAXAXAXAXAXAXAXAXAXAXAXAXAX",
"AXAXAXAXAXAXAXAXAXAXAXAXAXAXAXAXAXAXAXAXAXVXVXVXVXVXVXVXVXVXAXAXVXVXVXVXVXVXVXVXAXAXAXAXAXZXZXZXZXZXZXZXDXDXZXZXCXBXMXdXfXpX;X;X-X-X(.~.Q.L.L.L.U.Y.Q.Y.A.( N R.9X(.H.b.6.{ @.w.Y.eX{.J w Q l.E.^.R.8.y l A.Y.c.y.w.6.%.@./ R.7XQ.u.7.6.5.#.#.#.@.#.&.{ %.7XZ.W Y x N Q _ _ O.O.O.O.O.O.O.O.o.+.+.' _ _ _ _ ` ` Q Q Q Q ~ ~ ~ ~ ! Q Q Q Q Y R R W W W W R Y Y Y Y Y Y Y Y C E C , y #.` ..^ Z V m m m m C ~ &.T Z X.&.%.{ A j 6 6 9 j v S D V 9 0 9 j b D &.x.S.q.a.4XSXAXAXAXAXAXAXAXAXAXAXAXAXAXAXAXAXAXAXAXAXAXAXAXAXAXVXAXAXAXAXAXAXAXAXAXAXAXAXAXAXAXAXAXAXAXAXAXAXAXAXAXAXAXAXAXAXAXAXAXAXAXAXAXAXAXAXAXAXAXAXAXAX",
"AXAXAXAXAXAXAXAXAXAXAXAXAXAXAXAXAXAXAXAXAXVXVXVXAXVXVXVXVXAXAXAXAXAXAXAXAXVXVXAXAXAXAXAXDXZXZXZXZXZXZXZXDXDXZXCXCXBXbXdXfXpX4X;X-X-X)./.Q.~.L.L.Y.Y.Y.U.A.( z I.9X-XK.l.9...@.b.E.[.l.e u 6.v.E._.R.l.y y S.Y.N.u.w.5.$.#.E R.3XQ.y.7.6.#.#.#.#.@.%.%.@.g.[.Z.! N k z Q ~ _ o.O.O.O.O.O.O.o.+.' ' _ _ _ _ _ ` ! Q Q Q Q Q ! ! R R R R R ~ Y R R W W W W R Y Y Y Y Y Y Y Y S E C , y #.`  .^ Z V m m b m C  .&.A A ....@.~ D 9 = 0 9 t v S D F 9 0 9 t v Z &.x.G.0.q.).SXAXAXAXAXAXAXAXAXAXAXAXAXAXAXAXAXAXAXAXAXAXAXAXAXAXVXVXAXAXAXAXAXAXAXAXAXAXAXAXAXAXAXAXAXAXAXAXAXAXAXAXAXAXAXAXAXAXAXAXAXAXAXAXAXAXAXAXAXAXAXAXAX",
"VXVXVXAXAXAXAXAXAXAXAXAXAXAXAXAXAXAXAXAXAXVXVXVXVXVXVXVXVXAXAXAXAXAXAXAXAXAXAXAXAXAXAXDXDXDXZXZXZXZXZXZXDXDXZXCXCXBXbXdXfXpX4X;X-X-X-X(.~.~.P.J.L.K.H.J.z./ x A.0X-XK.b.9. .o.I.{.R.W w | m.D.^.[.T.b.l 4 z.Y.K.i.8.$.$.%.R D.1XQ.u.q.6.O.#.o.o.` #.&./ -.^.v.` Y k k Y R _ ] o.O.O.O.O.O.+.+.' _ ' ' _ ! ! ! ! ! ! Q Q Q ! ! R W W W Q Q Y Y Y W R R W R Y Y Y Y Y Y Y Y S E Y , y #.~ E ^ V V m m b m C ~ ..A A X...@.Q V 8 = 0 9 t b V F b 9 0 9 t v Z &.G.G.0.q._.zXAXAXAXAXAXAXAXAXAXAXAXAXAXAXAXAXAXAXAXAXAXAXAXAXAXVXVXVXAXAXAXAXAXAXAXAXAXAXAXAXAXAXAXAXAXAXAXAXAXAXAXAXAXAXAXAXAXAXAXAXAXAXAXAXAXAXAXAXAXAXVXVX",
"VXAXVXVXVXVXAXVXVXVXVXVXVXVXVXVXVXVXVXVXVXVXVXVXVXVXVXVXVXVXAXAXVXVXAXVXAXVXVXVXVXAXAXAXDXZXZXZXZXZXZXZXDXDXZXCXBXMXdXfXpX8X4X;X-X-X-X(./.Q.Y.K.K.H.Z.z.k.{ U c.sX-XP.c.5.+.u.^.'./ w a } l.R.T.^.^.b.H > &.T.J.y.u.8.g.%.( x.qXQ.i.7.#.@.@.o.#.#.$.@./ &.].6.` Y 8 t T Q ` ` ] o.O.O.O.] _ _ ! _ ! ! ! ! R R R R ! ! ! ! R R R R R R R R R R Y R Y Y Y Y Y Y Y Y Y C C C N Z S , c o.E X.^ V F n n n m C { ..S S ....{ E Z 7 , 9 t t j V F n 0 0 9 h m V &.k.k.%.&.A.cXDXAXAXAXAXAXVXVXVXVXVXVXVXVXVXVXVXAXAXAXVXVXVXAXVXVXVXVXVXVXAXVXVXVXVXVXVXVXVXVXVXVXAXAXVXVXVXVXAXAXVXVXVXVXVXVXAXAXAXAXAXAXAXAXAXVXVXVXVXVXVXVX",
"VXVXVXVXVXAXVXVXVXVXVXVXVXVXVXVXVXVXVXVXVXVXAXAXAXAXVXAXVXVXVXVXVXVXVXVXAXVXVXVXVXAXAXAXDXZXZXZXZXZXZXZXDXDXZXCXBXMXdXfXpX4X4X;X-X-X-X(./.Q.Y.K.K.M.c.z.j./ U b.gX6XL.c.4.5.J.E.j.u 7 B -.v.^.^.[.).b.U > { R.J.y.u.6.%.@.T m.7XQ.i.9.] @. .` O.#.#.@./ &.'.#.Q z 8 t C ! _ ` ] o.o.O.] ] _ ` ! _ ! ! ! ! R R R R ! ! ! ! R R R R R R R R Y Y Y Y Y R W W Y Y Y Y Y C C C N Z C , u o.E X.^ V F n g n b C { ..C V ..../ E k = = 8 t t n F F n 0 0 9 j b V &.k.k.%.@.S.zXDXAXAXAXAXAXAXAXVXVXVXVXVXVXVXVXAXAXVXVXVXVXAXAXVXVXVXVXVXVXAXVXVXVXVXVXVXVXVXVXVXVXAXVXVXVXVXVXAXAXAXVXVXVXVXVXAXAXAXAXVXVXAXAXAXVXVXVXVXVXVXVX",
"VXVXVXVXVXVXVXVXVXVXVXVXVXVXVXVXVXVXVXVXVXVXAXAXVXAXVXAXVXVXVXVXVXVXVXVXAXVXVXVXVXAXAXAXDXZXZXZXZXZXZXZXDXPXZXBXMXbXdXfX5XpX4X;X-X-X-X(./.Q.Y.K.H.c.z.e.0.Q J b.sX9XL.c.9.a.Y.I.U 7 8 Z -.I.^.^.[._.v.W > Y F.K.u.u.4.%.@.T h.7X~.i.9.] ` R Q O.#.$.@./ h.R.@.Q z 8 t Y ! Q ` ] ` ` ` ] ] ! ! ! ! ! ! ! ! R R R R R ! ! ! R R R R R R R R Y Y Y Y R R W W Y Y Y Y Y C C C N C z , y ` E X.A V F n n n b C ~ ..A A X.../ Y 8 * = 8 t t b D F p 0 6 9 j h V &.k.h.&. .w.0XZXAXAXAXAXAXAXAXVXVXAXAXAXAXAXAXAXVXVXVXVXVXAXAXVXAXAXVXVXVXVXVXVXAXAXAXAXAXAXAXAXVXAXVXVXVXVXVXAXAXVXVXVXVXVXVXAXAXAXAXVXVXVXAXAXVXVXVXVXVXVXVX",
"AXAXVXVXVXVXVXVXVXVXVXVXVXVXVXVXVXVXVXVXVXVXVXVXVXVXVXVXVXVXVXVXVXVXVXVXVXVXVXVXVXAXAXZXZXZXZXZXZXZXZXDXDXZXCXBXMXdXfXpXpXpX4X;X-X-X-X(./.Y.Y.H.c.z.w.0.6.E H i.aXsXY.b.t.b.I.4.i = 9 ( ;.R.^.^.).^.x.Q > N D.Y.c.t.4.&.@.T g.oX~.i.5.] ` R ! o.#.%.../ m.F.@.Q z 8 j T ! _ ` ` ` ` ] ` ` ! ! ! ! ! R R R R R R R R R ! ! R R R R R R R R Y Y Y Y Y R R R Y Y Y Y C Z C C N Z x , y ` E X.A V F n n n b m / ..A A ^ / / N , * 7 9 9 t b D F 9 6 6 9 j h C @.k.h.&. .0.7XAXVXAXAXAXAXAXAXVXAXAXAXAXAXAXAXAXAXVXVXVXVXAXAXAXAXVXVXAXAXAXAXAXAXAXAXAXAXAXAXAXVXVXVXVXVXVXVXAXAXAXAXAXVXVXVXVXAXAXAXVXVXAXAXAXVXVXVXVXVXVXVX",
"VXVXVXVXVXVXVXVXVXVXVXVXVXVXVXVXVXVXVXVXVXVXVXVXVXVXVXVXVXVXVXVXVXVXVXVXVXVXVXVXVXAXAXZXZXZXZXZXZXZXZXDXDXZXCXBXbXdXfXpXpX8X4X;X;X-X-X(./.Y.K.Z.c.w.0.6.%.( Q t.8XsXQ.b.l.z.8.J = 6 t ( h.I.Y.~.).^.x./ 7 k D.Y.c.8.#.&.@.T 6.oX~.i.5.O.` R ~ o.@.&.E E n.D.#.Q z 8 j E ! Q ~ ` ` ` ` ` ` ! ! ! ! ! R W W R R R R R R R R R R R R R R R R Y Y Y Y Y R R R Y Y Y Y Z C C C N C x , y ` E X.A D n n n n b m ....A E / / E h * * 7 t 9 j M F n 9 6 0 9 t j C @.k.;.&. .$.[.AXAXAXAXAXAXAXAXVXAXAXAXAXAXAXAXAXAXVXVXVXVXAXAXAXAXVXVXAXVXAXAXVXAXAXVXAXAXAXAXAXVXVXVXVXVXVXVXAXAXAXVXAXVXVXVXVXAXAXAXAXAXAXAXVXVXVXVXVXVXVXVX",
"VXVXVXVXVXVXVXVXVXVXVXVXVXVXVXVXVXVXVXVXVXVXVXVXVXVXVXVXVXVXVXVXVXVXVXVXVXVXVXVXVXAXAXZXZXZXZXZXZXZXZXDXDXZXCXBXbXdXfXpX4X8X4X;X<X,X-X(./.Y.J.c.a.w.$.$.%.X.` t.-X0X~.b.l.j.U > = 7 p / h.I.U.Y.^.E.A.@.w u F.E.c.u.#.#.@.( %.oX_.i.5.#.~ R ` ` { ..C Y F.m.` Q x 7 j T Y R ! ~ ` ` ` ` ` ! ! ! ! R W W W R R R R R R R R R R R R R R R R R R Y Y Y R R W Y Y Y Y Z C C S C Z z , y o.~ ..A V n n n n b S ....A ^ / / Z 9 @ @ 8 t 9 v M F 9 0 6 8 9 9 j V @.k.-... .#.^.AXAXAXAXAXAXVXVXAXAXAXAXAXAXAXAXAXAXAXAXVXVXVXAXVXVXVXVXVXVXVXVXVXAXAXVXVXVXAXAXAXVXVXAXVXVXVXVXAXAXVXVXAXVXVXVXVXAXAXAXAXAXAXAXAXVXVXVXVXVXVXVX",
"VXVXVXVXVXVXVXVXVXVXVXVXVXVXVXVXVXVXVXVXVXVXVXVXVXVXVXVXVXVXVXVXVXVXVXVXVXVXVXVXVXAXAXZXZXZXZXZXZXZXZXDXDXZXCXMXdXfXfXpX4X4X4X;X-X-X-X(./.L.Z.z.e.6.#.@.&./ Q 5.Q.9X^.l.t.{ w * = t v / k.A.J.Y.^.Y.D.&.e e n.T.v.u.#.@...T @.{._.i.4.#.~ R ~ ~ ~ / B Y F.h._ Q x 7 h T K Y Y R Q ` ~ ~ Q ! ! ! R W W W Y R R R R R R R R R R R R R R R R R R Y Y Y W W W Y Y Y Z Z C C S C Z z , y o.~ X.A V n n n n b C ....^ ^ / ^ m , + * t t 9 v M M 9 6 0 t 9 8 j m @.k.%... . .Y.SXAXAXAXAXAXVXVXVXVXAXAXVXVXVXVXVXVXVXVXVXVXVXVXVXVXVXVXVXVXVXVXVXVXVXVXVXVXVXVXVXVXVXAXAXAXVXVXVXAXVXVXAXAXVXVXVXVXAXAXAXAXAXAXAXVXVXVXVXVXVXVX",
"VXVXVXVXVXVXVXVXVXVXVXVXVXVXVXVXVXVXVXVXVXVXVXVXVXVXVXVXVXVXVXVXVXVXVXVXVXVXVXVXVXAXAXZXZXZXZXZXZXZXZXDXDXCXCXbXdXfXpXpX4X;X;X;X;X-X-X(.~.L.Z.a.e.$.o.{ @.Z Y [ H.6X^.l.8.N = & 7 t B ( j.S.S.L.^.Y.v.&.e w m.T.v.u.#.@.~ M { {.).p.5.#.~ R ~ ~ E / N T '.g._ Q x 8 h T H Y Y R R Q Q Q Q ! ! R R R W Y Y R R R Y Y Y W W R R R R R R R R R R Y Y Y Y Y Y Y Y Y C C C C S C Z z - y o.~ X.A V n n n n m Z ..X.^ ../ E h = + = t t t b S n 9 6 0 v 9 8 h V &.k.%... .! K.zXAXAXAXAXVXVXVXAXAXAXAXVXVXVXAXAXVXVXVXAXVXVXVXVXAXAXAXVXVXVXVXVXVXVXVXVXVXAXVXVXVXVXAXAXAXAXAXVXVXVXVXAXVXVXVXVXAXAXAXVXAXAXAXAXVXVXVXVXVXVXVX",
"VXVXVXVXVXVXcXVXcXcXcXcXVXVXVXcXVXVXVXVXVXVXcXcXcXcXcXcXVXVXcXcXVXVXVXVXVXcXcXVXVXAXAXZXZXZXDXDXZXZXZXZXZXZXBXdXfXpX4X4X;X;X<X<X-X-X-X~.Y.K.c.j.$.@.{ / ..U U ~ x.oX^.l.{ 7 = ; 7 t B %.m.S.J.U.~.T.n.%.t 7 g.{.K.w.#.` ~ B &.T.[.c.5.` ` T R ! ~ Z B &.E.%.~ Y x 7 j N K C Y Y R ~ ~ ~ ~ ~ Q Q R R T T Y Y Y R Y Y Y Y Y Y R R W W R R R Y Y Y Y Y Y Y Y Y Y C Z E C m m m Z Y * u @.E ^ F F n n n n m Z ..^ A A ( C 8 @ @ 7 e 8 t M n n 0 0 8 t 8 7 t T %.k.X.X.^ E z.SXVXVXVXVXVXVXVXVXVXVXVXVXVXVXVXVXVXVXVXVXVXVXVXVXVXAXAXAXAXVXVXVXVXVXVXVXVXVXVXVXVXAXAXAXAXVXVXVXVXVXVXAXAXVXVXVXVXVXVXVXVXVXVXVXVXVXVXVXVXVXVX",
"cXVXcXVXVXVXcXcXcXcXVXVXVXVXcXcXVXVXVXVXcXcXcXcXcXcXVXVXVXVXcXcXcXcXVXVXVXcXcXVXVXAXAXZXZXZXPXPXZXZXZXZXZXBXjXsXfXpX4X4X;X;X<X<X-X-X-X~.L.H.c.0.#.@.{ ~ E N N / D.oX^.6.U 7 = > w t U &.h.c.J.Y.~.T.B.6.t ; %.^.L.w.#.` ~ B &.T.[.c.4.` ` E ~ ~ ..C B %.R.@.Q R k 7 j N K Y Y Y ~ ~ ~ ~ ~ Q Q Q R R Y Y Y Y R R Y W Y Y Y Y Y R W W R R R Y Y Y Y Y Y Y Y Y Y C C Z S m m b Z C * u @.E ^ F F n n n v m Z ..^ E ^ ( B 0 @ @ 7 8 t t b n g 0 0 8 8 8 8 j T *.k.X.X.A R q.kXVXVXVXVXVXVXVXVXVXVXVXVXVXVXVXVXAXVXVXAXAXVXVXVXVXAXAXAXVXAXVXVXVXVXVXVXVXVXVXVXVXVXVXVXVXVXVXVXVXVXVXVXVXVXVXVXVXVXVXVXVXVXVXVXVXVXVXVXVXVXVX",
"VXVXcXcXcXVXcXcXcXcXVXVXVXVXcXcXcXcXVXVXcXcXcXcXcXcXVXVXVXVXcXcXcXcXcXcXVXcXcXVXVXAXAXZXZXZXPXPXZXZXZXZXZXzXdXpXpXpX8X4X4X;X;X-X,X-X(.~.L.M.l.%.@.~ ~ E E T N / D.[.^.#.u 7 ; > w u | %.j.c.J.Y.~.!.I.g.r = &.T.Y.u.#.{ ~ B { E.[.c.4.` ~ E ~ ! @.N B k.A.` Q R k 7 j C Y Y Y R ~ ~ ~ ~ ~ Q Q Q R Y Y Y Y R R R R R R R R R R R W W W R R T Y Y C Y Y Y Y C Z C C C m b m b C N - c @./ X.F F n n v n m Z ..E E ^ ^ h = @ * 7 8 9 j b n 9 0 8 8 7 0 8 h Z -.;.X.^ D C 6.0XVXVXVXVXVXVXVXVXVXVXVXVXVXVXVXVXAXVXVXAXAXVXVXVXVXVXAXAXAXAXVXVXVXVXVXVXVXVXVXVXVXVXVXVXVXVXVXVXVXVXVXVXVXVXVXVXVXVXVXVXVXVXVXVXVXVXVXVXVXVXcX",
"VXcXcXcXVXcXcXcXcXcXcXcXcXcXcXcXcXcXcXcXVXVXcXcXcXcXcXcXVXVXcXcXcXcXVXVXVXcXcXVXVXAXAXZXZXZXZXZXZXZXZXZXZXjXfX8X8X8X4X;X;X-X<X-X-X-X(.!.K.v.w.#.~ E Q E E E m T m.{.E.` w ; > 7 w u Q g.j.b.M.K.!.Q.I.g.j = { E.Y.u.#.` ~ B { E.[.c.4.` ~ ~ ! ! @.B M F.c.Q W R k 7 j C Y Y Y ~ ~ ~ ~ Q Q Q Q Q Y Y Y Y Y Y Y Y Y Y Y Y Y Y Y Y T T T Y Y Y Y Y C Y Y Y Y T Z C S C m b b b C z ; l { / X.F F n n v v m A X.E E / D t = @ = 7 8 9 v b v 9 9 t 8 7 , 8 h E ;.;.^ D D R O.6XVXVXVXVXVXVXVXVXVXVXVXVXVXVXVXVXVXVXVXVXVXVXVXVXVXVXVXVXVXVXVXVXVXVXVXVXVXVXVXVXVXVXVXVXVXVXVXVXVXVXVXVXVXVXVXVXVXcXVXVXVXVXVXVXcXcXcXcXcXcXcX",
"VXcXcXcXVXVXcXcXcXcXVXcXVXVXcXcXcXcXcXcXVXVXcXcXcXcXcXcXVXVXcXcXcXcXVXVXVXcXcXVXVXVXAXZXZXZXZXZXZXZXZXZXZXsX9X4X4X8X;X-X-X-X-X,X-X).^.Q.K.l.6...E E E E E ^ m k &.'.R.Y = = > 7 w x { 6.j.u.M.Y.Q.Q.I.6.t = Q E.~.u.#.` ~ B { T.[.c.4.` ~ ~ ~ ! ..v T '.u.W W ~ k 7 j C Y R R ~ ~ ~ Q Q Q Q W Q Y Y Y Y Y Y Y Y Y Y Y Y Y Y Y Y Y R R Y Y C C C C C C C C Z Z C m V m v b b C x ; z { / X.F n n n v v m A ^ E / / V 8 = @ , 7 8 9 v b t 9 t t e 7 6 0 h ^ ;.;.D D D A o.).VXVXVXVXVXVXVXVXVXVXVXVXVXVXVXVXVXVXVXVXVXVXVXVXVXVXVXVXVXVXVXVXVXVXVXVXVXVXVXVXVXVXVXVXVXVXVXVXcXcXcXVXVXVXVXVXcXcXcXcXcXcXcXcXcXcXcXxXxXxXxX",
"VXcXcXVXVXVXVXVXVXVXVXVXVXVXVXVXVXVXVXVXVXVXVXVXVXVXVXVXVXVXVXVXcXVXVXVXcXcXcXVXVXVXAXZXZXZXZXZXZXZXZXZXZXsX8X-X-X4X-X-X-X-X-X,X,X).(.Y.J.j.@.E A E E E / E m t / '.R.z * = 7 e u U } 6.5.l.J.Y.Q.Q.I.6.t = Y Y.^.z.#.` R M { T.[.c.4.` ~ ` ~ ~ ^ v ( '.5.W Q R h 7 h T Y Y R R ~ ~ ~ Q Q W W Y Y Y Y Y Y Y Y Y Y Y Y Y Y C C Y Y Y Y Y Y Z C C C C Z Z C Z C m m M b v b b m j ; H { / ^ F n n n v v V A A E / ( b 0 = = , 7 8 t v b 9 0 t t e 7 6 0 b ^ ;.X.A D A A ! ^.VXVXVXVXVXVXVXVXVXVXVXVXVXVXVXSXSXVXVXVXVXVXSXVXVXVXVXVXSXVXVXVXVXVXVXVXVXVXVXVXVXVXVXVXVXVXVXVXcXcXcXcXcXcXcXcXxXxXxXcXcXcXcXcXxXxXxXxXxXxXkX",
"VXVXcXcXVXVXVXVXVXVXVXVXVXVXVXVXVXVXVXVXVXVXVXVXVXVXVXVXVXVXVXVXcXVXVXVXcXcXcXcXVXVXZXZXZXZXZXZXZXZXZXZXZX9X-X=X=X-X-X-X-X-X,X,X-X).~.Y.H.6...A A ^ ^ E / E M t N D.D.x = ; r z N / 6.6.6.b.A.U.Y.Y.I.%.e = U U._.c.4.o.R Z { R.).c.4.` ~ ~ ! o.E v -.F.+.W ~ R j 7 h T Y Y Y Y R R Q Q Q W Y Y Y Y Y Y Y Y Y Y Y Y Y Y Y C C T E T Y Y Y C C C C C C Z C C C m b m b v b v m e ; U { / ^ F n n n v v V ^ A E / E j 0 = = > 8 8 t v n 9 0 t t 8 , = 8 m ( ;.X.A D D A K Y.VXVXVXVXVXVXVXVXSXSXSXVXSXSXSXSXVXVXVXVXVXVXVXVXVXVXVXVXVXVXVXVXVXVXVXVXVXcXcXcXVXVXVXVXVXVXVXVXxXxXxXcXcXcXcXcXxXxXxXxXxXxXxXxXxXxXxXxXkXkXkX",
"VXVXcXVXVXVXVXVXVXVXcXVXVXVXVXVXVXVXcXVXVXVXVXcXVXVXVXVXVXVXVXVXVXVXVXVXVXcXcXVXVXVXAXZXZXZXZXZXZXZXZXZXZX9X-X(.=X-X,X,X,X-X,X,X).).^.Y.H.6./ Z V ^ ^ ^ / / Z t u n.n.U w w N Q Q &.g.j.w.z.A.U.Y.Y.I.#.8 = z I._.c.5.@.R Z { R.).c.#.` ` W W @.E b ;.F.' Q E R j , h T Y Y Y Y T R Q Q Q W W W Y Y Y Y Y Y Y Y Y Y Y Y Y C C T E E Y Y Y C C C C C Z C C C M m b b b n b j h w ; U / / ^ n n n n v v V A A E Q C 9 6 = = 7 8 9 t v n 9 0 e e 7 * = 9 V ^ X.X.A D D Z H L.SXSXSXSXSXSXSXSXSXSXSXSXSXSXSXSXVXVXVXVXVXVXVXVXVXVXVXVXVXVXVXVXVXVXVXVXcXVXVXVXcXcXcXcXcXcXcXcXxXxXxXxXxXxXxXxXxXxXxXxXxXxXxXxXxXkXxXkXkXkXkX",
"cXcXcXcXVXcXcXcXcXcXcXcXcXcXcXcXcXcXcXcXcXcXcXcXcXcXcXcXcXcXcXcXcXcXcXcXcXcXcXcXVXVXAXZXCXZXZXZXZXZXZXZXMX,X^.Y.~.-X-X-X,X-X=X=X).)._.U.v.@.R C Z A E E Q ^ D t t g.F.` x N Q ` } 4.8.l.l.v.Y.K.Y.Y.A.&.7 ; x D.[.H.5.@.Q Z { T.^.b.o.Q ! Y R R C v n.m.W ~ / ^ 8 > h C T C Y T T Y Y T R Y Y Y Y T T T T T T T C T T T T C C C Z Z Z C C C C C C C Z V V m m b b b b b b n t * > W ..^ D V b b b h h Z E Z A ^ M e = @ = > e e j M g 0 8 r 7 * @ 6 t V X.;.( D F D C z v.xXVXVXVXVXVXxXcXVXVXVXVXVXVXVXVXcXcXcXcXcXcXcXcXcXcXcXcXcXcXcXcXxXxXxXxXxXxXxXxXxXxXxXxXxXxXxXxXkXkXkXkXkXkXkXkXkXkXkXkXkXkXkXkXkXkXkXyXyXyXiX",
"cXcXcXcXcXcXcXcXcXcXcXcXcXcXcXcXcXcXcXcXcXcXcXcXcXcXcXcXcXcXcXcXcXcXcXcXcXcXcXcXVXVXAXZXCXZXZXZXZXZXZXZXMX,X~.Y.~.).-X-X,X-X=X).).).^.U.v.@.T C V A ^ E Q T T t 7 &.n.{ Y T ~ } 4.8.j.l.b.v.Y.K.Y.U.v.@.> ; u v.[.P.5.o.E M Q R.^.b.#.` ` T R R m B V.h.Y ` ~ E 8 , j N N Y T Y T T Y Y Y Y Y Y T T T T T T Z C C C C C C C C C Z Z Z Z C C C C C C C M m m m b b b v v b n t * > Y ..^ D M v v v h b Z E V A ^ m 7 @ * = 7 e e j M 9 0 8 e > * @ 0 j D X.X.D D F D m z x.xXVXVXcXVXcXxXcXcXcXcXcXcXcXcXcXcXcXcXcXcXxXxXxXxXxXxXxXxXxXxXxXxXxXxXxXxXxXxXxXxXxXxXxXxXxXxXxXkXkXkXkXkXkXkXkXkXkXkXkXkXkXkXkXyXyXyXyXyXyXiX",
"cXcXcXcXcXcXcXcXcXcXcXcXcXcXcXcXcXcXcXcXcXcXcXcXcXcXcXcXcXcXcXcXcXcXcXcXcXcXcXVXVXVXAXZXCXZXZXZXZXCXZXZXMX,X~.U.E.^.-X-X[.-X-X).).).^.U.c.@.Y m Z A ^ ~ W N E t > Q n.#.Q ~ { #.6.8.l.c.v.N.Y.K.Y.U.x.~ > ; r l.[.P.5.` E B U R.T.b.#.` ` E R E h Z V.&.W { E T 7 , j m N C Y T T Y Y Y Y Y Y Y T T T T T Z C C C C C C C C C C C C C Z C C C C N M N m B m m M b v n v v v w # ; W ..^ V M v v v h m V E V A ^ k = @ * = 7 e e j b 9 0 7 7 ; @ @ 7 h A X.( A D F A h k k.kXVXVXxXcXcXxXxXxXxXxXxXxXxXxXxXxXxXxXxXxXxXkXkXxXxXxXxXxXxXxXxXkXkXkXkXkXkXkXkXkXkXkXkXkXkXkXkXkXkXkXkXkXkXkXkXkXkXkXkXyXyXyXyXyXyXyXyXiXiXiX",
"cXcXcXcXcXcXcXcXcXcXcXcXcXcXcXcXcXcXcXcXcXcXcXcXcXcXcXcXcXcXcXcXcXcXcXcXcXcXcXcXVXVXAXZXCXZXZXZXZXCXZXZXdX).Y.L.Y.^.).[.[.).).).).).^.U.c.@.Y m V A ..~ R Y E t = z x.g.Y ~ o.4.8.w.z.c.Z.J.Y.K.U.U.x.T > 6 i g.[.L.5.` E B N I.^.l.#.` ` ~ E T j / *X/ Q @.~ Y 7 , j m C C C T T T T Y Y Y T Y T T T T Y C C N N N C C N N N N m m N C C S S m m N N B B B m b b v n n n j > # 2 ! ..^ V m v b v v m A A V A ^ t @ + * , 8 e e h v 8 7 7 ; * @ * 7 h A X.A V F D V j j j.kXcXxXxXxXxXxXxXxXxXxXxXxXxXxXxXxXxXxXxXxXxXkXkXkXkXkXkXkXkXkXkXkXkXkXkXkXkXkXkXkXkXkXkXkXkXkXkXyXyXyXyXyXyXyXyXyXiXiXyXyXyXyXiXwXwXwXiXwXwXwX",
"cXcXcXcXcXcXcXcXcXcXcXcXcXcXcXcXcXcXcXcXcXcXcXcXcXcXcXcXcXcXcXcXcXcXcXcXcXcXcXcXVXSXAXZXCXZXZXZXZXCXZXSXdX^.Y.A.U.^.^.).[.).).).).).^.U.b.@.Y m S V ^ ~ R Y C r ; w 8.l.Q ` o.4.8.u.z.Z.J.K.K.Y.I.R.j.z > w e #.^.Y.5.` / M z I.^.l.o.` ! ~ E C t X.F.Y Q #.` Y 7 = t m V C C T T T T T T Z C C C C C C C N N m k k k k k h h k h h k k m m m m m m N B B m b b b v n v v 8 = + 2 ] ..^ C m b b b b C E Z S A T 7 + + = > > 8 r v h 8 ; ; : & + * 8 m A X.D V F D V 8 e j.kXxXxXkXxXxXkXkXkXkXkXkXkXkXkXkXkXkXkXkXkXkXkXkXkXkXkXkXkXkXkXkXkXkXkXyXyXyXyXyXyXyXyXyXyXyXyXyXiXiXiXiXiXiXiXiXiXiXiXiXiXiXiXwXwXwXwXwXwX+X+X",
"cXcXcXcXcXcXcXcXcXcXcXcXcXcXcXcXcXcXcXcXcXcXcXcXcXcXcXcXcXcXcXcXcXcXcXcXcXcXcXcXVXSXAXZXCXZXZXZXZXSXZXSXdX^.U.A.R.T.^._._.^.[.[.).).^.U.b./ Y m m S E  .~ W Y k ; ; ] b.#.o.O.5.8.u.z.Z.J.K.K.Y.J.D.g.u > u e } ^.Y.6.` / Z x I.^.b.o.` ! T E B t &.k.N Q %.{ T > = 8 j m m N C C Z T T T C C C C C C N N B k k j j j j r r r r r r r x k m m m B m m m m b b v v v v v p 7 & O i #...^ C m m m b m Z A S S A m = + + = 7 > 8 r m j 7 = = : # # * r Z A ^ D D V D V 7 e j.yXkXkXkXkXkXkXkXkXkXkXkXkXkXkXkXkXkXkXkXkXkXkXkXyXyXyXyXyXyXyXyXyXiXiXiXiXyXyXiXiXiXiXiXyXyXyXyXiXiXiXiXiXiXiXiXwXwXwXwXwXwXwXwXwXwXwXwX+X+X+X",
"cXcXcXcXcXcXcXcXcXcXcXcXcXxXxXxXxXxXxXxXxXcXcXcXcXcXcXcXcXcXcXcXcXcXcXcXcXcXcXcXVXSXAXZXCXZXCXCXZXSXZXSXdX^.U.A.D.T.T.^.^.^.[.[.(.).^.U.z./ T m b m Z  .~ W W x , 2 4.b.j.O.#.5.w.u.a.Z.J.K.K.Y.v.v.6.e > T r [ T.T.8.` / M u v.{.l.o.` ! Y E B j %.h.z Q $.o.W > * 7 9 h m m C C C C C C C C N N N m m m x r r r r r e r e r r r r r x k m m m B m m m h b h h v v v t t > & # y #.@.^ C m m m b m Z A m S ^ j & + & = > > 8 j m t > * : : # # ; j E A A D V V A m , e j.eXkXkXkXkXkXyXkXkXkXkXkXkXkXkXkXkXyXyXyXyXyXyXyXyXyXyXyXyXyXyXyXyXyXyXyXwXyXwXwXiXiXiXwXwXwXwXwXiXiXiXiXiXiXiXiXwXwXwXwXwX+X+X+X+X+X+X+X+X+XOX",
"cXcXcXcXcXcXcXcXcXcXcXcXcXxXxXcXxXxXxXxXxXxXcXcXcXcXcXcXcXcXcXcXcXcXcXcXcXxXxXcXVXSXAXZXCXZXCXCXZXSXZXSXdX^.U.S.F.R.T.E.^.^.[.[.(.).).U.z./ T m b h C ~  .! ~ r ; l l.b.j.#.4.5.w.u.a.c.A.K.K.Y.v.x.&.e > / u ) T.T.6.` ~ B u b.^.l.` ` ! Y / B h *.*.Y { $.` W > * 7 8 j b m m S S S S C S m m m m m m m r e e e e e e r r r x x x x x x v k k m m m h h b h j h v t t t ; & # u #.~ ^ Z k m m m m Z A m S X.e + X * = > 8 8 j m t = & & : # # , k ^ A Z D D M A b , e j.eXkXkXyXyXyXyXyXyXyXyXyXyXyXyXyXyXyXyXyXyXyXyXyXyXyXyXyXyXyXyXyXyXyXyXwXwXwXwXwXwXwXwXwXwXwXwXwXiXiXiXiXiXiXiXiXwXwXwXwX+X+X+X+X+X+X+X+X+XOXOX",
"xXxXxXxXxXcXxXxXxXxXxXcXcXxXxXcXxXxXxXxXcXcXxXxXxXcXxXxXxXxXxXxXxXcXcXcXcXcXxXcXVXVXZXCXZXCXZXZXCXZXZXSXbX_.A.k.m.F.R.E.E.^.^.^.[.[.^.U.c.O.Y m b n m E  .~ ` l ; y u.l.l.w.w.q.7.7.u.Z.L.L.L.A.x.k.Y w u h.r B '.^.u.` E m e t.^.u.#.o.~ Y / B N k.R Y &.6.o.N , = > 8 t v m M V M m m C m N N B k k r r e e r u u r e e w w w e r u r x x k k x k x x k h h t t t w e > - # # H #.@./ T m h m j k ^ E h E Z , X + & > > > e h h 8 = & : : # & e C A Z Z A V M ^ r & e z.rXeXyXyXwXiXwXiXwXwXwXwXwXwXwXyXwXwXwXwXwXwXwXwXwXwXwXwXwXwXwXwXwXwXwXwXwXwXwXwX+X+X+X+X+X+X+X+X+X+X+X+X+X+X+X+XOXOXOXOXOXOXOXOXOXOXOXOXOXOX X",
"xXxXxXxXxXxXxXxXxXxXxXxXcXxXxXxXcXxXxXxXcXcXxXxXxXxXxXxXxXxXxXxXxXxXcXcXcXcXxXcXVXSXSXCXZXZXZXCXCXZXZXSXBX_.A.h.m.G.F.E.E.E.E.^.^.[.^.U.S.#.Y m b n m E  .~ ~ H 2 y 5.8.j.j.j.q.q.q.a.c.Z.H.J.S.k.g.U w U h.r u '.].u.` / M u l.^.u.#.o.~ Y E v Q k.W ~ &.6.o.N , = ; 7 8 v b m m m m m N C C B k r r r e e e e u u r e e e e e e r r r r r r u r r j j j h k e w 7 ; ; : : # # H #.../ T m m m h m ^ C k ^ N * X + * > 7 > r h h 8 = & : # + * t Z A Z A V V V T e & y Z.7XrXyXiXwXiXwXiXwXwXwXwXwXwXwXwXwXwXwXwXwXwXwXwXwXwXwXwXwXwXwXwX+X+X+X+X+X+X+X+X+X+X+X+X+X+X+X+X+X+X+X+X+X+X+X+XOXOXOXOXOXOXOXOXOXOXOXOXOX X X",
"xXxXxXxXxXxXxXxXxXxXxXxXxXxXxXxXcXxXxXxXxXxXxXxXxXxXxXxXxXxXxXxXxXxXxXcXcXxXxXcXVXSXSXZXZXZXZXBXBXSXZXSXBX).A.;.;.k.F.E.E.T.E.T.^.[.^.U.S.5.Y m b n b E ~  .~ W u J 5.8.9.j.j.j.w.w.u.a.a.H.Z.x.j.&.u w [ j.r u '.{.u.o./ C k b.^.w.#.` T E E u &.k.Y ~ h.0.` z ; = = 7 7 t t v m N N N N N k k r r r k l l l l H H H H H z z l l l l u u r u u r e w 2 w r r w > ; : # # : # - ) #...^ C m m b h Z ^ m k ..x + X # ; > 7 8 r k j 7 * & & + + , j V V V Z S Z Z N w * c A.oXoXyXiXwXwXwXiXwXwXwXwXwXwXwXwX+X+XwXwX+X+X+X+X+X+X+X+X+X+X+X+X+X+X+X+X+X+X+X+X+X+X+XOXOX+X+X+XOXOXOXOXOXOXOXOXOXOXOXOXOXOXOXOXOXOXOXOX X X X",
"xXxXxXxXxXxXxXxXxXxXxXxXxXxXxXxXcXcXxXxXxXxXxXxXxXxXxXxXxXxXxXxXxXxXxXxXxXxXxXcXSXSXSXCXZXZXZXBXBXSXSXSXBX).v.-.;.;.G.F.R.R.T.E.T.{.{.Y.A.6.W m b j v Z ~ ~ ~ ` ` ] 5.5.} 6.j.x.l.8.w.u.z.H.A.z.g.~ w w %.m.u i I.{.z.o./ E z b.^.w.#.` Q / N r h.h.H ` h.0.~ z ; = ; 7 7 > 8 j m N N N z r r c x z U W _ ) ! _ ] ` ` _ ` _ ! ! W W H H z l l l u w > ; - 2 e 2 ; ; : % $ : # 2 ] o.~ E C b b h k E E k C / w + X & = > 7 e t k r > * & & X & 7 m A A V Z S ^ T k > - H A.oXoXiXiX+X+X+XiX+X+X+XwX+XwX+X+X+X+X+X+X+X+X+X+X+X+X+XOXOXOXOXOXOXOX+XOXOXOXOXOXOXOXOXOXOXOXOXOXOXOXOXOXOXOXOXOXOXOXOXOXOXOXOXOX X X XOX X X X",
"xXxXxXxXxXxXxXxXxXxXxXxXxXxXxXxXxXxXxXxXxXxXxXxXxXxXxXxXxXxXxXxXxXxXxXxXxXxXxXcXVXSXSXCXZXZXZXBXCXBXSXSXSX,Xx.X.X.;.k.F.U.F.R.R.E.{.{.E.J.6.R m v 9 j V / ~ ~ ` #.5.6.5.{ ` 6.x.x.w.5.w.c.c.c.j.%.U > e j.k.z w n.}.c.O.{ ^ z v.T.l.#.~ E / k u x.6.H ` j.j.~ k = = ; > > , 7 e e e e r x c l H W _ ` #.#.] ] ] ] ] ] ] ] _ _ _ _ ! W W U Y U U z u w > ; ; w 2 - - - % $ & # 4 O.~ ^ E M b b h m ^ E B E Y > X . & = , 7 e r k t > * # # X * t V A V V V S ^ E e ; > K A.oXoX+X+X+X+X+X+X+X+X+X+X+X+X+X+XOXOXOXOXOXOXOX+XOXOXOXOXOXOXOXOXOXOXOXOXOXOXOXOXOXOXOXOXOXOXOXOXOXOXOXOXOXOXOXOXOXOXOXOXOXOXOXOXOXOX X X X X X",
"xXxXxXxXxXxXxXxXxXxXxXxXxXxXxXxXxXxXxXxXxXxXxXxXxXxXxXxXxXxXxXxXxXxXxXxXxXxXxXcXVXSXSXCXCXZXCXCXCXBXSXBXSX6Xv.X.D X.;.S.U.F.F.F.R.T.{.E.U.q.~ S n 9 9 m ^ E E Q #.5.5.5.#.W { j.v.l.8.8.z.c.z.0.@.r ; l j.S.Y w m.[.c.#.{ ^ z l.T.z.#.~ / ( r z D.#.H #.k.h.R j = ; ; ; , , > > , , w l z W ! o.O.#.O.] ] O.O.' ] ' ' _ _ _ _ ! ! ! ! W W Q W W W U x r w ; ; ; : - - % $ # # i #.R E Z M b j h m ^ ^ C / z - . X * = , w e j x r 7 * + + + , j V V V S m V A N > * 2 _ U.&X&X@X+X+X+XOX+XOXOXOXOXOX+X+XOXOXOXOXOXOXOXOXOXOXOXOXOXOXOXOXOXOXOXOXOXOXOXOXOX XOXOXOXOXOXOX XOXOXOXOXOXOXOXOXOXOXOXOXOXOXOXOXOXOX XOXOX X X",
"xXxXxXxXxXxXxXxXxXxXxXxXxXxXxXxXxXxXxXxXxXxXxXxXxXxXxXxXxXxXxXxXxXxXxXxXxXxXxXcXVXSXSXBXCXCXCXZXZXSXBXBXSX9XD.X.D D ;.S.F.F.F.F.F.T.].E.U.w.o.C b 9 0 b T R ..T ` 5.O.$.6.` W [ j.x.w.8.l.z.w.%.~ w ; W l.D.{ w j.[.Z.5.{ E l 8.T.c.#.~ / T e W D.} U $.S.h.R r = - ; ; - - ; , , 2 y H ) O.O.#.4.O.] ' _ +.+.+.' ' ' ' ) ! ! ! ! ! ! ! ! W Y Y Y Q Y N k 7 > > - : - % $ : # y $.R ^ Z M b j b V E ^ T / r # . O * , , w e r k e > & + + & 7 m V V V V m S C k ; * y #.E.E.].@X+X+X+XOX+XOXOXOXOXOXOXOXOXOXOXOXOXOXOXOXOXOXOXOXOXOXOXOXOXOXOXOXOXOXOXOXOX XOXOXOXOXOXOX X#X#X#X#XOXOXOXOXXXXXXX#X#X#X#XXXOXOXOXOXXX X X",
"xXxXxXxXxXxXxXxXxXxXxXxXxXxXxXxXxXxXxXxXxXxXxXxXxXxXxXxXxXxXxXxXxXxXxXxXxXxXxXcXVXSXSXBXCXCXCXZXZXSXBXBXSXsXD.X.F D ;.G.F.F.F.F.D.R.E.T.U.a.#.Z b 0 0 v Z S ..Q ` 5.O.#.6.&.U J #.l.l.w.l.e.6.@.T > > { v.F.&.i g.[.J.5.o.E l 8.Q.v.$.~ { Z 7 ` v.[ U 6.S.h.R j ; ; - - * - ; 2 e l P ] ] O.O.O.O.O.O.O.1._ _ _ _ _ _ _ _ _ ! ! W ! W W W Y Y Y Y R E C C v e w ; : $ % % - : G 6.E ^ Z M b j m C E ^ E E w # . O * , , w r j r 7 = + + # * e N V V V V m V S r * * c *.E.U.E.@X+X+X+XOX+XOXOXOXOXOXOXOXOXOXOXOXOXOXOXOXOXOXOXOXOXOXOXOXOXOXOXOXOXOXOXOXOX#XOXOXOXOXOXOXOX#X#X#X#XOXOXOXOXXXXXXXXXXXXXXXXX#X#XOXOXOXOX#X",
"xXxXxXxXxXxXxXxXxXxXxXxXxXxXxXxXxXxXxXxXxXxXxXxXxXxXxXxXxXxXxXxXxXxXxXxXxXxXkXSXZXZXZXCXSXZXCXZXSXCXSXBXBXjX(.g.M F ;.G.F.S.G.G.G.F.F.R.E.x.#.~ Y e = 8 M V ^ / ` #.#.O.#.6.4.) J ) 8.j.6.j.#./ w ; u 9.n.x.{ i %.[.P.6.@.T x 4.Y.c.4.Y ..v 7 6.j.W ! 0.A.e.! e : $ % $ - : - 4 l P ' ] ] ] ] ] O.O.O.' ' ! ! _ _ _ _ _ _ _ ! ! W W W W W Y Y Y W Y R R E m b B r * # $ # : - _ #...E V V n j S Z E E E C % + . # - , , e x r r > & # + & 2 k C V V S S E Y z , & 2 H 6.^.S.F.@X#XOX X#XOX X XOXOXOXOXOXOXOXOXOXOXOXOXOXOXOXOXOXOXOXOXOX#XOXOXOXOXOXOXOXOX#X#X#X#X#X#X#X#X#X#X#X#X#X#X#X#X#X#X#X#X#X#X#X#X#X#X#X#X#X#X#X",
"xXxXxXxXxXxXxXxXxXxXxXxXxXxXxXxXxXxXxXxXxXxXxXxXxXxXxXxXkXkXkXkXxXxXxXxXxXxXxXSXZXZXZXCXSXZXCXZXSXSXSXBXBXzX,Xj.D F :.;.x.S.S.x.G.F.F.U.U.x.%.Q Y e = 6 v V E / ` #.#.#.#.6.6.5.] ] 5.w.j.6.{ N > - d <.v.D.%.u } {.U.6.@.E x 4.Y.c.4.Y / v w j.l.W _ 0.A.S.! e # # # % - > 2 y J [ ] O.O.O.] O.O.O.] ' ' ! ! ! _ _ _ _ ) _ ! ! W W W W W Y Y Y Y Y Y Y Y V b m k ; # $ $ & 2 ` #. .E V V n j S Z / E N k # + . # - , > e c k w & & # + * w z Z V V S S E N r * * e K 0.E.S.F.@X#X#X X#XOX XOXOXOXOXOXOXOXOXOXOXOXOXOXOXOX#X#X#X#X#X#X#X#XOX#X#X#X#X#X#X#X#X#X#X#X#X#X#X#X#X#X#X#X#X#X#X#X#X#X#X#X#X#X#X#X#X#X#X#X#X#X#X",
"xXxXxXxXxXxXxXxXxXxXxXxXxXkXxXxXxXxXxXxXxXkXkXkXkXkXkXkXkXkXkXkXkXkXkXkXkXxXxXSXZXZXZXCXSXZXZXZXZXSXSXBXBXSX9XD./ F D ;.h.k.k.k.k.k.S.F.F.S.6.{ T j = = e b Z E ~ #.#.O.#.#.0.j.w.8.w.b.x.0.@.x ; ; J ] l.D.g.u [ {.Y.6.#.E k 4.^.c.5.~ E k r x.l.W W 6.A.Z.o.e # # # - 2 w y l W ' o.O.O.O.o.' ' _ _ _ _ ! ! ! ! ! _ _ _ ! ! W W W W Y Y Y Y Y Y Y Y Y Y V m m k w # # - # 2 #.#.~ E V V n j C E / N c 2 # + . # - > > e r x , + # # # > r N A V V V C Y x > & ; u ! j.E.S.S.@X#X#X X#XOXXX#X#XOX#X#X#X#XOXOXOXOXOXOXOXOX#X#X#X#X#X#X#X#X#X#X#X#X#X#X#X#X#X#X#X#X#X#X#X#X#X#X#X#X#X#X#X#X#X#X#X#X#X#X#X#X#X#X#X#X#X#X#X",
"xXxXxXxXxXkXkXxXxXxXxXxXxXkXkXkXkXkXkXkXkXkXxXkXkXkXkXkXkXkXkXkXkXkXkXkXkXkXxXSXZXZXZXZXBXCXCXZXZXCXBXBXMXBXsX^.-.V V ^ ;.j.k.k.k.k.G.F.F.D.j.@.E N 7 * > j m E E { #.O.#.O.$.q.z.c.x.x.z.0.#.z , 2 W ,.l.A.6.i U {.^.6.%./ u ] ^.c.5.` T t u D.8.W Y 5.A.S.o.e # # : 2 e j l K ! _ _ o.+.+.+.' _ ! ! ! ! W W ! ! ! ! ! ! W W W W Y Y Y Y Y Y W Y Y Y Y T V m h r w & O - # 4 #.@.~ E D M n h S E / x e , + . . # - > 7 e r r * + # # * 7 x C A V S S C C e * & > x ` k.U.k.G.@X#X#XOX#X#XXX#X#X#X#X#X#X#X#X#X#X#X#X#X#X#X#X#X#X#X#X#X#X#X#X#X#X#X#X#X#X#X#X#X#X#X#X#X#X#X#X#X#X#X#X%X%X%X#X#X#X#X#X#X$X%X%X%X%X%X$X$X$X",
"xXxXxXxXxXxXkXkXxXxXxXxXxXkXkXkXkXkXkXkXkXkXkXkXkXkXkXkXkXkXkXkXkXkXkXkXkXkXxXSXAXZXZXZXBXCXCXZXZXCXBXBXMXzXhX7XS.E j V X.g.k.k.k.k.G.F.F.F.k.@.~ E e * = 8 h Z E { o.o.#.O.$.6.w.b.b.j.w.$.@.z > w [ 8.v.U.6.i U {.^.6.@./ u _ E.v.6.{ Y w u D.5.W Y 6.U.z.o.e # # - > e c x K R ~ o.o.o.+.o.o._ ! W W W R W W W ! ! ! ! W ! W W Y Y Y U Y Y Y Y Y Y Y T M m t t w : # % X 4 O.` ~ ^ A M n b Z E Q u w * . . . # ; > w e l 2 & & # # , e x C V V V Z C z > + * e z o.S.F.0.G.@X+X#XOX%X#XXX#X#X#X#X#X#X#X#X#X#X#X#X#X#X#X#X#X#X#X#X#X#X#X#X#X#X#X#X#X#X#X#X#X#X#X#X%X$X$X$X$X$X$X$X$X$X$X%X%X$X$X$X$X$X$X$X$X$X$X$X$X$X",
"kXxXxXxXxXkXkXkXxXxXxXxXxXkXkXkXkXkXkXkXkXkXkXkXkXkXkXkXkXkXkXkXyXkXkXyXkXyXkXSXZXZXZXZXBXCXCXZXZXCXBXBXNXdXzXsX^.$.h n F -.;.k.j.j.k.G.G.F.k.%./ E r ; & 7 t N T ~ { ` ` o.$.6.w.j.w.w.0.#.o.Y > e [ u.I.U.%.i J ].{.w.@./ k W U.A.6.{ Y w l R.#.W W w.Y.S.O.c # # * > 7 e r x K R ! o.o._ o.o.! ! W W W R W R ! ! ! ! ! W W W W Y Y U H z z z z z N N C M M h w w ; # # X y O.` ..^ A M b m Z E U e e & . . . # , > e u l - + & # # w j x S Z V m C N r * # > l K @.G.G.*.G.@X%X%X#X%X+X#X#X#X#X#X#X#X#X#X#X#X#X#X#X#X#X#X#X#X%X#X%X#X#X%X#X#X%X$X$X$X$X$X$X$X$X$X$X$X$X$X$X$X$X$X$X$XtX$X$X$X$X$X$X$X$XtXtXtXtXtXtXtX",
"kXkXkXxXxXkXkXkXkXkXkXkXkXkXkXkXkXkXkXkXkXkXkXkXkXyXkXyXyXyXyXyXyXyXyXyXyXeXkXSXZXZXZXZXBXCXCXZXZXCXCXBXMXdXdXdX,Xx.E v n ( &.;.-.-.h.m.m.D.k.%.@.E z 2 & , t B Y E ~ ` ` ` #.6.6.8.w.w.0.#.{ T e w [ l.I.S.%.u u I.7Xx.#./ z H I.A.8.o.Q e H R.] Q Q w.Y.Z.5.l & # * , 7 e r k z Y ! ! _ _ _ ! ! W W W R Y Y Y W W R R ! W W W Y Y H z z z z z z z B N M M M v e 7 > : # # y #.o...E D M b m A E N e e + .   . % > 2 e l e # # & # - r k S S S m m N x > # * e Y Y &.G.h.*.k.@X%X%X#X%X%X#X#X#X%X%X%X#X#X#X#X#X#X#X#X#X#X$X$X$X$X$X$X$X$X$X$X$X$X$X$X$X$X$X$X$X$X$X$X$X$XtXtXtXtXtXtXtXtXtXtXtXtXtXtXtXtXtXtXtXtXuXuXuX",
"kXkXkXkXkXkXkXkXkXkXkXkXkXkXkXkXkXkXkXkXkXyXyXyXyXyXyXyXyXyXyXyXyXyXyXyXyXeXkXSXZXZXZXZXBXCXCXZXZXCXBXBXMXhXdXfX9XE.&.M n Z / &.%.%.h.k.m.D.x.j.&.E U w : = e k C E ~ ~ ~ ` #.#.#.6.6.6.#.#.~ R e i <.v.U.P.j.U u v.7XA.@...H H I.I.8.o.~ i U R.] Q ` e.Y.J.6.l & & * > 7 r j k N W Q _ ! ! ! ! W W W ! Q Y Y Y Y Y W Y Y Y Y U U z z z x z z z z z B N M M M h e > , : # # l 5.@.@.Z V M M m Z E x e y X . . . % > w e l ; + # # # 2 r k C S S m k k r ; # - l W ~ %.G.*.$.k.@X%X$X#X$X%X#X#X#X%X%X%X%X%X$X$X$X$X$X$X$X$X$X$X$X$X$X$X$X$X$X$X$X$X$X$XtXtXtXtX$XtXtXtXtXtXtXtXtXtXtXtXtXtXtXtXtXtXtXtXtXtXuXuXuXuXuXuXuX",
"kXkXkXkXkXyXyXyXyXyXyXyXyXyXyXyXyXyXyXwXyXwXwXwXwXwXwXwXwXwXwXwXwXwXwXwXwXrXkXSXZXZXAXZXBXCXCXZXCXCXBXNXMXsXsXsXaX,XY.&.t v D X.&.%.h.m.;.S.x.h.@.~ Q r = * w k C C E @.{ ` @.#.#.%.%.#.#.@...Y z L 9.v.R.P.x.Q w 5.7Xv.g.o.K l x.E.1.O.} u g.Y.O.! _ w.E.L.5.c - # * 8 8 r k C Y ~ ~ Q Q ! ! ! W K Y Y R R W W Y K H H z H z z z z z k k z z z B m m m v n b h e ; # # # # K $. .^ D F b M S X.E 8 x 2 X o   X - > e u e # # O X ; e x x S Z C N x u > & - e z Y @.h.;.&.&.*.].tX%XtXtXtX$X$X$X$X$XtXtXtX$X$X$XtXtXtXtXtXtXtXtXtXtXtXtXtXtXtXtXtXtXtXuXuXuXuXuXuXuXuXuXuXuXuXuXuXuXuXuXuXlXlXlXlXlXlXlXlXlXlXlXlXuXuXlX",
"yXyXyXkXkXyXyXyXyXyXyXwXyXyXyXyXwXwXwXwXwXwXwXwXwXwXwXwXwXwXwXwXwXrXrXrXwXrXkXSXZXZXAXZXMXBXCXCXCXCXBXNXMXsXsXsXaX8XQ.g.B v M ^ &.$.&.;.m.x.S.j.&.@./ k > * > k C Z E / { o.o.@.#.#.$.#.#.` ..~ Q 4.b.I.Y.J.v.&.e 1.6XI.g.` H l x.^.7.#.] U l.T.O.W _ z.^.Y.q.H , + * 7 7 8 j k N Y Y Y Y Y Y Y Y Y Y W ~ W K H l l l l z z z x x x x x x z z k k k b v j n v t 7 - # # # : K $.~ D D M n M V ..C w u > . o . # - 2 e e , # # # # ; r k S S C N k r w ; & > u Y E &.-.%...@.*.F.tX$XtXtXtX$X$X$X$XtXtXtXtXtXtXtXtXtXtXtXtXtXtXtXtXtXtXuXuXtXtXuXuXuXuXuXuXuXuXuXuXuXuXuXuXlXlXlXlXlXlXlXlXlXlXlXlXlXlXlXlXlXlXlXlXlXlXlX",
"wXwXwXwXyXeXeXrXeXwXwXwXwXrXwXrXwXwXrXrXrXrXrXwXwXwXwXwXwX+X+X@X@X@X@X@X+XrXkXSXZXZXZXSXdXNXNXBXCXBXBXMXMXsXsXaXaXpX[.v.&.v v C ..$.&.-.;.k.x.j.%.&./ B e * > r C Z T E { ` ` ` o.@.@.o.o.~ ~  .#.l.J.Y.Y.J.D.g.u ) [.T.g.` H u j.T.w.4.] U l.{.O.K o.z.^.E.u.K , + & , , 8 j k N N C C T Y z z Y Y C C Y H l l l l l H H H H z l k k x x k x k j j h v h j j e > : # # % - ) $.E D D M b S A X.k e y : . o . # - w e > & % # # : w k N N C m k r > * * ; r z R ..&.&.&...$.*.G.+XtXtXuXtXtXtXtXtXtXtXuXuXtXuXtXuXuXuXuXuXuXuXuXuXuXuXuXuXuXuXuXuXuXlXlXlXlXlXlXuXlXlXlXlXlXlXlXlXlXlXlXlXlXlXlXlXlXlXlXcXcXcXcXlXlXcXcX",
"wXrXrXrXrXwXwXwXrXrXrXrXrXwXwXwXwXwXwXwXwX+X+X+X+X+X+X+X+X@X@X@X@X@X@X@X@XrXvXSXZXZXSXBXdXNXBXCXCXCXBXNXMXdXsXsXaXfX8XY.b.C j j Y #.#.%.-.h.k.j.%.@./ C r ; = w N E T T ~ ~ ~ ~ ~ o.o.o.~ ` ~ o.6.z.J.L.Y.L.D.k.u J ^.{.8.o.W u 4.Y.z.5.#.H 8.^.O.W O.c.Y.~.a.W > + # - = > r k k k k k N N z z z x c r c H H H K W W W W W W Y H l x x x j j t t j h j t t r w ; # % % # 2 ' $.^ D D D M V ^ ..r r w # . . . X - e e - + # X # > w x N k x j r w = # * w x z R @.&.&.....@.*.*.oXuXuXuXuXtXtXtXuXuXuXuXuXuXuXuXuXuXlXlXlXlXlXlXlXlXlXlXlXlXlXlXlXlXlXcXlXlXlXlXlXlXlXlXlXlXcXcXcXcXcXcXcXcXcXcXcXcXcXcXcXcXcXcXcXcXcXcX",
"rXrXrXwXwXwXwX+XrX+X+X+X+X+X+X+X+X+X+X+X+X@X@X@X@X@X@X@X@X@X@X@X@X@X@X@X@XrXvXSXZXZXSXBXdXNXBXCXCXCXBXNXMXdXsXpX9XaXaX[.Y.&.k e k ` #.$.%.*.h.j.6.&./ T k > * , k T T T E ~ ~ ~ ~ ~ ~ ~ ~ ` ~ o.0.b.M.P.Y.Y.A.j.l u T.1Xt.o.! l 4.Y.v.8.4.U ] T.O.W #.b.Y.T.z._ 2 # # : - > e x x k x x x j x k x r e r l H K W _ ] ] ] ] _ ` ! W H z z z j j j t t r e 7 w e 2 - $ % % % y O.$./ ^ D F S V ^ E e u 2 # . o . . ; e 2 & + + X & w u k z k r w > > * # , c z S E ..X.......@.@. .&XlXuXlXlXuXuXuXlXlXlXlXlXlXlXlXlXlXlXlXlXlXlXlXlXlXcXcXcXlXlXcXcXcXcXcXcXcXcXcXcXcXcXcXcXcXcXcXcXcXcXcXcXVXVXVXVXVXVXVXVXVXVXVXVXVXVXVX",
"wXwX+X+XwX@X+X+X@X+X+X+X+X@X@X@X@X@X@X@X@X@X@X@X@X@X@X@X@X@X@X@X@X@X@X@X@XrXvXzXSXSXZXBXdXNXBXCXCXCXBXMXMXsXsXqX0XaX9X,X^.S.E r r H ` #.$.*.0.h.6.&...E S 8 * = r Y T T T ~ ~ ~ ~ ~ ~ ~ ~ Q Y ~ 0.v.M.H.Y.E.A.k.J y B.3Xc.o._ z ] R.I.8.4.U ) Y.5.W ] l.Q.^.S.o.e # # : - ; 2 w e e r e e e r l z l l H ! ) _ _ ' ' ] O.O.` ] _ _ W Y H H k k k j r e 7 ; 2 2 ; $ % % $ $ G 5.#.E ( D F S V E E > u 2 + o + . X ; w , % + . # - r x k k t 8 > ; * * * > x C C E ..../ / ..@.$.c U.lXuXlXcXlXlXlXlXlXlXcXcXlXcXcXlXcXcXcXcXcXcXcXcXcXcXcXcXcXcXcXcXcXVXVXVXVXVXVXVXVXVXVXVXVXVXVXVXVXVXVXVXVXVXVXVXVXVXVXVXVXVXVXVXVXVXVX",
"@X@X@X@X@X@X@X@X@X@X@X@X@XOXOX@X@X@X@X@X@X@X@X@X@X@X|.|.|.|.|.|.|.|.|.|.|.rXeXzXBXSXAXSXjXMXBXBXCXSXBXMXjXsXsXpX9X8X9X,X).U.0.Y u u U ~ @.&.%.0.6.&...^ Z j , = e N Y T T E T T T T T E E W z Y 6.c.c.H.Y.E.U.x.U y b.3XL.o.` l ) I.Y.l.6.Q H Y.8.K H 9.Y.^.D.%.y & % - - : - ; 2 2 w > > e x W W W _ ] O.] ] ] ' ' ] O.] ] ' _ _ _ R W Y S S z z x u w , ; - - $ % $ < 1 L 5.#.E ( D D S Z E E > u ; o o # . + , > - # + . & 2 r x r e e , = & & - > r C C A E ^ / / ~ ..*.$.4 S.cXlXcXcXlXlXlXlXcXcXcXcXcXcXcXcXcXcXcXcXcXcXcXcXVXVXVXVXVXVXVXVXVXVXVXVXVXVXVXVXVXVXVXVXVXVXVXVXVXVXVXVXAXAXAXAXAXAXAXAXVXAXAXVXVXVXVX",
"@X@X@X@X@X@X@X@X@X@X@X@X@X@X@X@X@X@X@X|.|.@X@X@X|.|.|.|.|.|.|.|.|.|.|.|.|.rXeXzXBXSXAXSXjXbXMXBXBXBXBXbXdXaXsX8X9X9X9X6X).Y.S.$.z u l Y ~ @.&.%.%.&...E Z m 7 , r N Y C Z T T N B N U T T Q z Y 6.b.c.H.^.Y.U.A.) y 8.1X^.$.] y J v.T.b.8.U J Y.l.H l ' N.^.R.0.c : % - - < 2 2 2 y y i 2 l W [ ` [ ] 1.] ] ] O.O.O.O.] ] ] ] ] _ ` Q ! W T T Y Y Y z e 2 2 - - $ $ < 4 5 ' w.#.E ( D V b A A E , u - o o + . # ; ; & # . + - e r x e 7 7 = * & & ; e z Y A A ^ ^ ^ ......0.+.> a.cXlXcXcXlXlXcXcXcXcXcXcXcXcXVXcXVXVXVXVXVXVXVXVXVXVXVXVXVXAXAXVXAXAXAXAXAXAXAXAXAXAXAXAXVXVXVXVXAXAXVXAXAXAXAXAXAXAXAXAXAXAXAXAXAXAXAX",
"@X@X@X@X@X|.|.|.|.@X|.|.|.|.@X@X@X|.|.|.|.|.|.|.|.|.|.|.|.|.|.|.|.|.|.|.|.@XeXzXCXCXZXSXSXdXBXBXjXBXMXdXfX0X9X9X6X7X6X6X,XE.U.j.#.z r r U ~ @.6.%.@.{ E R S j t h k N C C N N C B r u | [ l y K 0.z.b.I.!.E.U.Z.9.u ) ^.).j.] y y b.{.u.7.T u K.v.W W 3.M.).Y.b.W > # $ < < < 1 4 y y u H } } } ] O.O.+.o.1.1.O.1.1.O.O.O.O.O.o.+.' _ ! ! W ! _ Q W W z j 2 > < $ # 4 L I ' $. ...^ D V b E &.r 2 y # X X # X # ; * # # o : 2 r x e , * : - # # ; r x N T C A A Z E ..@.~ e.0., *.VXVXZXAXVXVXVXAXAXVXAXAXAXAXAXAXAXAXAXAXAXAXAXAXAXAXAXAXAXDXAXAXAXAXAXAXDXDXDXDXDXDXDXDXDXAXDXDXDXDXAXDXDXDXDXAXAXAXAXDXAXAXAXAXAXAXAX",
"@X@X@X@X@X|.|.|.|.|.|.|.|.|.|.|.|.|.|.|.|.|.|.|.|.|.|.|.|.|.|.|..X|.|.|.|.@XyXBXBXCXZXSXbXjXjXjXjXBXBXdXdXsX9X9X6X6X6X6X).{.U.x.6.Q x u u T ~ @.6.%.{ E Y S h j m B N C C C N z k r t u u y y W 6.j.v.Y.Q.Y.Y.U.j.f | R.[.A.5.J y 9.T.Z.w.| l v.v.) _ 7.M./.~.A.` 2 # % - < 1 3 3 y y H ` } } } #.O.O.O.o.O.O.O.O.1.O.O.O.O.o.o.+._ _ _ ! ! ! ! W Y Y z k 2 2 2 $ $ G P s ' $. .X.^ D S b E &.r e y # X o o # # : & # + # , w y w > - - - : # - w z C Y T R Z C C Z E ~ R l.0., +.cXAXZXAXAXAXAXAXAXAXAXAXAXAXAXAXAXAXAXAXDXDXDXDXDXDXDXDXAXAXAXAXDXAXAXAXDXDXDXDXDXDXDXDXDXDXDXDXDXDXDXDXAXDXDXAXAXAXAXDXAXAXAXAXAXAXAX",
"|.|.|.|.|.|.|.|.|.|.|.|.|.|.|.|.|.|.|.|.|.|.|.|.|.|.|.|.|.|.|..X.X.X|.|.|.@XyXzXBXCXZXSXdXjXdXdXdXBXBXjXdXsX0X9X6X6X6X[.).{.E.A.k.%.Q l w r l H ` #.@.E T Z m h m m m N C C C N h t t e t e r U $.j.A.Y.Y.Y.Y.Y.l.W ) I.{.E.w.) y ) R.T.u.T J w.J.] ` 8.i.Q.(.Y.6.y % o $ < 1 3 3 y J ) #.#.#.4.4.4.#.#.#.O.O.O.O.O.O.O.O.o.o.o.o.o._ ! ! ! ! W Y W W z c 2 y 2 % 2 ] L 4 ' $. .X.^ D S S E &.w r i # . + X # % : : X X : > e 2 - - - - - # - w z Y T Y Y R C m m Z E  ...v.$., +.jXDXDXDXAXAXAXAXDXDXDXDXAXAXAXDXDXAXAXAXDXDXDXDXDXDXDXDXDXDXDXDXDXDXDXDXDXDXDXDXDXDXDXDXDXDXDXDXDXDXDXDXAXDXDXDXAXAXAXAXAXAXAXAXAXAXAX",
"|.|.|.|.|.|.|.|.|.|.|.|.|.|.|.|.|.|.|.|.|.|..X|.|.|.|.|.|.|.|..X.X.X|.|.|.+XkXzXMXCXZXSXfXpXpXaXdXdXzXzXdXsX0X9X6X6X[.[._.^.T.I.x.j.%.Y e > > e U @.@.E R Z m h h h h B T k T S j t t t 9 e u U %.l.A.L.Y.~.E.Y.b.] [ b.[.^.c.] y u v.{.u.` H #.U.4._ 7.w.K.(.T.l.) - + $ < < 1 y L _ ] #.#.4.#.4.4.4.#.#.O.O.O.O.O.O.O.O.O.o.o.o.o._ ! ! W W W W ! W l y 4 3 < $ G 7.s < [ $. .X.^ D V S / / > u 2 # X o . # : : # X + , 8 w - $ $ - : : - 2 l Y Y C N N T B k m C A ~ @.J.o., 2.jXKXKXDXDXDXDXDXDXDXDXDXDXDXDXDXDXDXDXDXDXDXDXDXDXDXDXDXDXDXDXDXDXDXDXDXDXDXDXDXDXDXDXDXDXDXDXDXDXDXDXDXAXAXAXAXAXAXAXAXAXAXAXAXAXAXAX",
"|..X|.|.|.|.|.|.|.|.|.|.|.|.|.|.|.|.|.|.|..X.X.X|.|..X|..X.X.X.X.X.X.X|.|.+XkXzXMXBXAXSXfX=X;XfXaXaXzXBXdXsX0X9X6X6X[.[.^.T.T.I.v.x.j.o.H w > w z @.@.~ ~ Z C h j j t r B k Y C z m v t t N N Q %.x.v.J.~.Q.~.E.v.4.W 4.E._.J.4.l y 8.{.M.4.W Q R.l.[ 4.w.H.~.^.J.5.3 % % < < 4 G ' O.O.O.$.5.5.4.4.4.4.#.O.O.O.O.O.O.O.O.O.o.o.o.o._ ! ! Y W W W U J y 4 4 < < 2 ] 5.4 : [ %...X.T D V Z @.T > l 2 # o o X + : $ . X - 7 w > $ % $ $ : * w c N N k k k N N k h b m C R @.v.H , q.BXKXKXDXDXDXDXDXKXKXKXKXDXDXDXDXDXDXDXDXDXDXDXDXDXKXKXDXDXDXDXDXDXDXDXDXDXDXDXDXDXDXDXDXDXDXDXDXDXDXDXDXDXDXDXDXDXDXDXDXAXAXAXAXAXDXDX",
".X.X.X.X.X.X.X.X.X|. X X X|.|.|.|.|.|.|.|. X X X X|. X X X.X.X.X.X.X.X X|.+XyXzXMXBXAXSXhXW./.8X9X8XsXxXgXsX0X8X6X[.[.^.^.T.U.I.v.x.k.%.` l e e z ~ ` ~ ~ C Z m h h t 8 r U z z R E m v V @./ / g.x.v.Z.L.Y.~.^.U.8.J H A.[.Y.g.U y [ Y.Q.8.) z x.v._ ` %.c.Y.T.Y.u.K 2 % $ < 3 J ' O.O.6.$.5.5.4.4.4.4.$.O.O.O.O.O.O.O.O.O.O.] ] ] ` _ ! R R Y H y y 4 1 < $ 1 G u.] - : ` $...X.D D V A &.z > u ; # o . O o # # . # 2 w > - # # % $ ; e k k k j t r j k k h v b m T { #.4.y 2 C.ZXFXGXDXDXDXDXKXKXKXKXKXKXKXKXKXKXKXKXKXDXDXDXDXDXDXKXDXDXDXDXDXDXDXDXDXDXDXDXDXDXDXDXDXDXDXDXDXDXDXDXDXDXDXDXDXDXDXDXDXAXAXAXDXDXDXDX",
".X.X.X.X.X.X.X.X.X.X.X.X.X X.X.X.X.X.X X.X.X X X X X X X X X.X.X.X.X X X X+XyXzXMXMXSXSXSX=XW.=X8X-X8XsXsXsXsXqX6X[.{.^.T.R.R.I.A.v.z.0.$.Q z l z Y Q ~ ` Z A m v v t 7 w u w w c k m Z ^ &.&.&.g.x.v.Z.L.Y.~.^.Y.x.J y w.).^.x.{ u u l.^.c.` u %.R.O.! { l.v.Q.~.c.7.J - $ 1 3 u P #.$.$.$.$.5.4.4.5.5.5.2.2.O.1.1.1.O.O.O.] ] ' ] _ _ W Y Y K l 3 2 1 1 < 1 G ,.w.H # : ) $...X.D D Z E @.u > y - # o . O # o . X & < 2 % # # # : ; w k r r t e e t t r h v v b m E { O.J 2 c ~.CXFXGXDXDXKXKXKXKXKXKXKXKXKXKXKXKXKXKXKXKXKXKXKXKXKXKXKXKXKXKXKXKXKXKXKXDXDXDXDXDXDXDXDXDXDXDXDXDXDXDXDXDXDXDXDXDXDXDXDXAXAXDXDXDXDXDX",
".X.X.X.X.X.X.X.X.X.X.X X X X X X X X X X X X X X X X X X X X.X.X.X.X X X XiXyXzXMXMXzXSXAX-XW.!.8X-X(.6X9XjXsX0X6X[.{.E.Y.R.I.D.D.A.z.0.*.%.~ H z H Y ~ ~ E E m h v 9 7 w * * * * , h ^ E @.&.&.%.x.A.Z.L.~.Q.Y.T.R.) i 4.Q.^.R.g.z w ] ^.K.4.x { T.7.! E w.l.^.).H.M.1.< $ 2 4 4 H 4.6.#.$.$.5.5.5.5.5.5.2.2.1.O.1.1.1.1.] ] _ _ ] _ _ W z C H c 4 < 1 1 1 5 ,.7.5.l + : ! @...X.D D E E @.e 2 i % O o . O $ .   # - - $ % # # $ > e e e e 7 7 7 9 t t t v v n n m Y W L 4 2 K 6XBXFXKXKXKXKXKXKXKXKXKXKXFXFXFXFXFXFXFXFXKXKXKXKXKXKXKXKXKXKXKXKXKXKXKXKXDXDXDXDXDXDXDXDXDXDXDXDXDXDXDXDXDXDXDXDXDXDXDXDXAXAXAXDXDXAXAX",
".X.X.X.X.X.X.X.X.X.X X X X X X X X X X X X X X X X X XXX X X XXXXXXXXXXXXXyXkXzXMXMXzXSXAXBX:XW.-X9X,X~.(.gXeX7X[.[.{.T.T.U.S.S.G.G.x.x.m.h.#.~ C x z Y ~ T C C m h 8 6 6 * & # # - e ! @.6.#.@.%.x.A.J.L.Q.~./._.Y.5.y J N.{.P.j.O.y J v./.l.B u v.N.L { %.k.P.~./.K.7.K - < 2 2 y } 6.{ @.@.#.$.$.O.O.5.$.O.O.4.O.O.] O.` _ ! _ _ W W W Q z G s 5 1 < 5 I ,.5.6._ < # - _ %...A A V E / o., e r # O # o % o . % $ - % % . % - > 2 2 2 - - ; 7 8 9 9 t j k B N z l u y y 4 J y.8XZXKXFXFXKXKXKXKXKXFXFXFXFXFXFXFXFXFXFXFXKXKXKXKXKXKXKXKXKXKXKXKXKXKXKXKXDXDXDXDXDXKXKXKXDXDXDXDXDXDXDXDXDXAXAXDXDXDXAXDXAXAXAXAXAXAXAX",
".X.X.X.X.X.X.X.X.X X X X X X X X X X X XOXXXXXXXXXXX#X#X#XXXXXXX#X#X#X#X#XyXkXzXMXMXzXBXZXAXdX/.W.!.,X,X/.6X9X0X7X7X{.E.U.D.S.G.k.k.k.m.m.h.%.{ Y N z z Y T Z C m v 9 0 = * & * : : 2 W $.#.#.#.6.x.J.K.Y.~.~.).).~.u.J u 8.^.E.A.6.u J l./.I.U u l.I.] W #.w.S.Y.(.Q.u.] 3 2 2 e u H [ { @.#.#.$.6.O.O.O.$.O.o.O.O.] ] ] Q Q ` ` Q W W W H ) J 3 < 1 5 I P 1.q.5.J - # $ _ %...^ A V ^ ..! - e i # O o o # . o % $ # o + $ - 2 , * # & - # : > e h h v v N N x e 2 2 4 y K O.H.pXDXKXKXFXKXKXKXKXFXFXFXFXFXFXFXFXFXFXFXFXKXKXKXKXKXKXKXKXKXKXKXKXKXKXKXKXDXDXDXDXDXDXDXDXDXDXDXDXDXDXDXDXDXAXAXDXDXDXDXDXAXAXAXAXAXAXAX",
" X X X X X X X X X X X X X X XXXXX#X#X#X#X#X#X#X#X#X#X#X#X#X#X#X#X#X#X#X#XyXkXzXMXjXzXzXSXAXZX8XB.N.=X8X=X(.,X0X9X6X_.E.Y.F.S.G.k.h.h.k.k.h.6.&.@.T N z z Y Y C C m h 7 = = * * * : 2 H 5.#.5.6.l.A.I.U.T.~.(.-X).).Y.] y ] U._.E.l.U J ] Y.T.{ u <.Y.l.H o.$.j.J.Q.Q.v.w.L y 2 y G J J W ` @.#.#.$.$.+.+.o.o.o.o.o.` ` ` ! ~ ` _ W K K W J J y 1 1 s >.r.7.O.0.o.4 $ o $ ! $...X.A Z ^ @.H * e 2 O O o o o . o # + . + $ 2 2 ; - # % : - - ; 2 r j j r r e e e e w y J P #.w.~.jXDXKXFXFXKXKXKXFXFXFXFXFXKXKXKXKXKXKXKXKXKXKXKXDXDXKXKXKXDXDXDXDXDXDXDXDXDXDXDXDXDXDXDXDXDXDXDXDXDXDXDXDXDXDXDXDXDXDXDXDXAXAXAXAXAXAXAX",
"XXXXXXXXXXXXXXXXXX#X#X#X#X#X#X#X#X#X#X#X#X#X#X#X#X%X%X%X%X%X%X%X%X%X%X%X%XyXvXzXBXjXhXhXzXSXAXzX:XW.K.!.;X1X,X9X7X[.^.Y.E.F.G.k.k.-.-.-.h.h.h.g.%.@.Y z x z C C C C B e = = * * * : > l O.4.q.u.b.A.I.Y.^.~.(.-X=X).[.l.u L v.^.E.v.4.W J 8.T.j.H ) N.R.) _ ` 6.z.J.Y.J.z.8.L y y y J J d W _ ] O.O.O.O.+.O.O.O.o.o.` ` ` ` ~ ! W W W ! W L 3 1 5 >.y.i.i.q.O.$.H 2 % o < ] #...X.A V ^ &.y * l , O # . o o   o o O + % ; ; - % % - - - $ - ; > > > > > 2 > w u l K _ 4.8.$.z.).SXKXFXFXFXKXKXFXFXKXKXFXFXKXKXKXKXKXKXKXKXKXKXKXDXKXKXKXKXDXDXDXDXDXDXDXDXDXDXDXDXDXDXDXDXDXDXDXDXDXDXDXDXDXDXDXDXDXDXDXDXAXAXAXAXAXAXAX",
"#X#X#X#X#X#X#X#X#X#X#X#X#X#X#X#X#X%X%X%X$X$X%X%X%X%X$X$X$X$X$X$X$XtXtXtXtXyXkXBXBXzXgXgXgXBXSXAXBX;XK.W.!.,X,X,X,X[.^.Y.Y.D.S.G.k.-.&.&.-.h.h.h.g.%.~ Y z x z N N C M t 7 = = * * * ; y Q 5.u.z.c.J.K.Y.^.~.).-X=X(.,XI.W y 5.^.^.I.b.} l H v.R.4.J 9.R.u.W ! o.0.z.c.v.b.v.8.) s y y s y G K ] 4.5.5.2.+.O.O.O.] _ W W ! ` Q W W _ ` _ K 5 5 L 3.d.~.H.7.O.$.O.y < o   1 O.#...X.A Z ..&.2 - l - X # . o     o o % % % & # # # : - - - - - ; ; > 2 w y l H Y Q @.#.$.#.#.0.Z.6XAXKXKXGXFXKXKXKXKXKXKXKXFXDXDXDXDXDXDXDXDXDXDXDXDXDXDXDXDXDXDXDXDXDXDXDXDXDXDXDXDXDXDXDXDXDXDXDXDXDXDXDXDXAXAXAXAXAXAXAXAXAXAXAXAXAXAXAX",
"#X#X#X#X#X#X#X#X#X#X%X$X$X$X$X$X$X$X$X$X$X$X$X$X$X$XtXtXtXtXtXtXtXtXtXtXtXkXcXSXBXzXgXeX0XdXzXVXAXzX<X!.W.W.W.!.(.^.^.E.E.D.S.x.k.j.&.&.&.%.g.h.6.%.@.E Y k x z z B B v t = = = = * = w T 8.l.c.M.H.K.Q.(.^.,X-X-X=X,X^.4.i K L.[.Y.I.j._ u 4.Y.J.[ ) v.Y.` W R @.0.l.l.l.u.w.w.3.L s y y y G [ 1.1.' ' P P P P L J J K ) _ _ ) ) [ ] K c 1 s d.W.i.M.c.7.o.0.' 3 < o   3 $.@...X.A E &.{ - , c # X O   .       o + % # # # % - ; < < 2 2 e y l l K ! ` ] @.@.@.@.@.@.o.` 0.S.).BXDXDXGXFXDXDXKXKXKXKXKXKXDXDXDXDXDXDXDXDXDXDXDXDXDXDXDXDXDXDXDXDXDXDXDXDXDXDXDXDXDXDXDXDXDXDXDXDXDXDXDXDXAXAXAXAXAXAXAXAXAXAXAXAXAXAXAX",
"#X#X#X%X%X%X$X$X$X$X$X$X$X$X$X$X$X$XtXtXtXtXtXtXtXtXtXtXtXtXtXtXuXuXuXuXuXkXcXSXBXzXgX0X0X0XjXzXBXSXSXdX:XW.B.B.K.K.I.U.U.D.D.x.x.j.-.&.&.%.%.6.%.&.&...E C N x k k B b j 0 0 = & * = 8 M 8.l.M.H.K.Q.Q.(.^.,X-X;X;X-X{.x.l y y.).^.T.n.j.U J 8.Y.8.) 1.H.8.` Y  .%.w.8.8.6.6.z.c.8.,.L G s s I L L I d d s s s s s G G L L P ' ' ,.1.P G I I 3.K.,.y ' 8.] 6.) 3 $ o $ I $.@.E ^ A ^ ..Y # > c + . o .     . o o # % $ : < 2 2 y y y l z H Y Q Q Q ! W W Q T T E ^ ..@.#.*.j.~.aXPXDXKXKXDXDXDXDXDXDXDXDXDXDXDXDXDXDXDXDXDXDXDXDXDXDXDXDXDXDXDXDXDXDXDXDXDXDXDXDXDXDXDXAXAXAXDXAXAXAXAXAXAXAXAXAXAXAXAXAXAXAXAXAXAXAXAX",
"$X$X$X$X$X$X$X$X$X$X$X$X$X$X$X$X$XtXtXtXtXtXtXtXtXtXtXtXtXuXuXuXuXuXuXuXuXxXcXSXBXzXgX0XqX0XsXjXzXSXAXSXhX<X!.N.i.t.8.l.A.D.D.x.x.j.g.&.&.%.%.%.#.#.&.@...~ Y x x k v v v 8 0 @ @ = 6 8 v 8.b.M.K.Q.~.~./.(.,X:X8X8X,X[.R.} e P Q.(.^.R.n.g.e J K.R.} L 7.v.$.R E %.w.8.7.e.5.6.w.c.M.y.,.I s s s s 5 5 s 5 5 5 3 5 s s 3 s L ' ,.3.t.7.3.i.3 1 3.G . i O.o.5.) 3 $ o 1 ' #. .E A A ^ / x # 2 c + X o o   . o % $ $ $ $ - 4 3 y G J H U Q { ~ Q Y N l l u u k B C Z E / &.*.e.P.pXDXKXDXDXDXDXDXDXDXDXDXDXDXDXDXDXDXDXDXDXDXDXDXDXDXDXDXDXDXDXDXDXDXDXDXDXDXDXDXAXDXDXDXDXDXDXDXDXDXDXDXAXAXAXAXAXAXAXAXAXAXAXAXAXAXAXAX",
"tXtXtXtXtXtXtXtXtXtXtXtXtXuXuXuXuXuXuXlXlXuXuXuXuXuXuXuXuXlXlXlXlXlXlXlXlXzXcXcXkXkXkXeX7XeXrXeXsXsXhXMXBXdXpX=XQ.N.t.9.1.g.x.D.D.k.%.%.%.%.$.@.@.#.&.@.@.~ R Y k t t t h v 9 @ @ 7 w 7 r <.N.K.W.`./.(.~.).=X-X;X<X,X[.^.I.u y u./.(.^.Y.D.O.y L I.N.[ L v.w.#.` #.h.0.#.6.6.5.5.q.w.l.z.y.3.>.L I I I s 5 5 5 5 5 5 5 s L 3.d.i.7.w.j.$.' 4 - l 5.-   2 ! 5.#.y $ - G $.&./ A A A ..o.2 o u w + O o . . . . X O # - > 2 H K ) +.O.O.4.5.1.1.1.1.O.' _ K K H l l z K o.$.q.u.H.8XAXDXPXDXDXDXDXDXDXDXDXKXDXDXDXDXDXDXDXDXDXDXDXDXDXDXDXDXAXDXDXDXDXDXDXDXAXAXAXAXAXAXAXAXAXAXAXAXAXAXAXAXAXAXAXAXAXAXAXAXAXAXAXAXAXAXAX",
"tXtXtXtXuXtXtXtXtXuXuXuXuXuXuXuXuXlXlXlXlXuXuXuXuXuXuXuXlXlXlXlXlXlXlXlXcXcXcXcXkXvXvXrX7X7X7XqX0X0XsXdXdXhXsX8X,X~.Y.v.l.6.6.g.6.%.%.6.h.%.%.%.%.%.&.@.~ / / E T B k t 9 t 9 = = e k e 7 [ v.L.W././.).(.).-X=X;X;X,X).^.'.[ y P K.(.(.^.F.j.) G ,.N.b.[ _ z.j.o.#.6.#.5.6.5.#.#.5.6.8.q.u.u.y.i.i.t.r.r.>.>.>.>.,.,.r.r.M.i.i.u.7.O.o.o.y y K 2 G J + # 4 ` 5.H u J [ O.{ / ^ A E @._ - # u e # O o .     . # : 2 i u U _ ' O.O.O.#.5.6.5.5.5.5.6.5.5.#.5.#.O.] _ W W ! +.3.y.W.dXZXDXDXDXDXDXDXDXDXDXDXDXDXDXDXDXDXDXDXDXDXDXDXDXDXDXDXAXAXAXAXAXAXAXDXAXAXAXAXAXAXAXAXAXAXAXAXAXAXAXAXAXAXAXAXAXAXAXAXAXAXAXAXAXAXAX",
"uXuXuXuXuXuXuXuXuXuXuXuXuXlXlXlXlXlXlXlXlXlXlXlXlXlXlXlXlXcXcXcXcXcXcXcXcXVXcXcXxXvXvXrX7XoX7X7X7X7X9X9XaX9X9X9X9X7X[.^.^.v.b.l.6.4.O.#.#.&.%.%.%.%.&.@.../ E E E T M t 9 0 0 = = t T u 7 W c.Y.Q././.=X(.^.^.=X-X-X-X-X).}.l.y y 3.W.Q.^.E.I.w.J G t.I.8.P O.l.z.#._ #.w.#.#.#.O.#.#.#.#.O.5.7.w.u.u.y.y.t.t.t.y.y.u.u.u.u.w.1.O.#.] H y 2 K 8.# - 8.4 . # H %.~ #.5.#.#.` ......E @.H # # k w & # O   . . # : 2 i y J _ _ ` o.O.#.#.#.#.#.#.#.#.$.$.5.4.6.6.6.8.7.4.1.O.+.3.y.d.=XBXAXDXDXDXDXAXAXDXDXDXDXDXDXDXDXDXDXDXDXDXDXDXDXDXDXDXAXAXAXAXAXAXAXDXAXAXAXAXAXAXAXAXAXAXAXAXAXAXAXAXAXAXAXAXAXAXAXAXAXAXAXAXAXAXAX",
"uXuXuXuXuXlXlXlXlXlXlXlXlXlXlXlXlXlXlXcXcXcXcXcXcXcXcXcXcXcXcXcXcXVXVXVXVXVXcXzXzXvXvXrX7XoXoXoXoXoX[.1X7X6X6X,X,X,X[.6XoX[.^.Y.J.c.t.3.,.] #.4.6.%.%.&.&./ E C C Z ( M b 8 0 = = 7 B B r H c.~././.:X=X=X[.[.(.-X-X-X-X-X{.R.! i L i.K.Q.{.U.J.t.L L t.b.7.L O.v.w.O.4.O.o.o.o.o.O.O.` ] ` ` _ _ ` ` #.#.7.5.4.#.#.#.o.` R ~ W W _ K e ; J 5.) o % 4.[ # X e E ....` ` #.o. .....` ` u # * k w & : O . . # % : ; 2 2 y H ! ! ` o.o.#.@.@...../ { @.#.#.} O.O.1.5.7.u.u.c.u.H.M.M.`.pXBXZXDXDXAXAXAXAXAXDXDXDXDXDXDXDXDXDXDXDXDXDXDXDXDXDXAXAXAXAXAXAXAXAXAXAXAXAXAXAXAXAXAXAXAXAXAXAXAXAXAXAXAXAXAXAXAXAXAXAXAXAXAXAXAX",
"lXlXlXlXlXcXcXcXlXcXcXcXcXcXcXcXcXcXcXcXcXcXcXcXVXVXVXVXVXVXVXVXVXVXVXAXAXVXSXzXxXxXvXeX7X[.}.[.{.{.{.{.{.7X6X[._.^.^.^._.).^.^.^.~.Q.H.c.9.9.4.4.4.4.6.6.&./ Y N C T ( D m t 0 = = 7 u x [ K./.=X:X>X:X:X[.[.[.,X-X4X4X4X[.{.j.J y ,.d.K.~.Y.T.Y.y.L P 9.7.3.' ' u.v.7.' ] o.O.#.#.#.] ] ` Q W K K K Y Y W W Y Y Y Y C z Y Y K K H e 2 y 5.O.3 # # J 6.2 # * j ..~ W ` @.o.#.@.R W L 2 # 7 k 7 & : O . X o # # # : ; i J _ _ ` o.#.#.@.&.@.....@.@.@.@.#.1.O.+.O.1.2.q.u.Z.L.L.K.Q.=XaXSXDXDXDXDXAXAXAXAXAXAXAXAXAXAXAXAXAXAXAXAXAXAXAXAXAXZXZXAXAXAXAXAXAXAXAXAXAXZXZXAXAXAXAXAXAXAXAXAXAXAXAXAXAXAXAXAXAXAXAXAXAXAXAX",
"cXcXcXcXcXcXcXcXcXcXVXVXVXVXVXVXVXVXVXVXVXVXVXVXVXVXAXVXAXAXAXAXAXAXAXAXAXVXzXzXSXSXvXeX7X[.[.[.{.{.{.{.{.{.{.{.^.E.E.Y.Y.Y.Q.~.^.^.^.~.Q.Y.N.b.t.8.8.8.l.6.%.` T Y T C M ^ N r 9 6 7 u U 8.Y.(.=X;X:X=X=X[.[.,X,X8X8X4X4X6X_.R.} y s 3.i.N.~.~.Y.P.y.P L P ,.1.P ' 8.u.u.O.O.O.5.5.4.O.] ! ! W Y Y K z z z z z C Y Y C x k z l e 2 2 H 8.o.c 1 $ # G 4.H ; + , T @.@.#.` o.#.o.H H J 2 & j j > * & O . . . X X # - w l Q [ ` ` @.@.@.@.{ ../ { { @.#.4.4.4.O.O.O.+.+.1.5.w.z.c.J.L.Q.8XVXDXDXDXDXDXAXAXAXAXAXAXAXAXAXAXAXAXAXAXAXAXAXAXAXAXZXZXAXAXAXAXAXAXAXAXAXZXZXZXAXAXAXAXAXAXAXAXAXAXAXAXAXAXAXAXAXAXAXAXAXAXAXAX",
"cXcXVXVXVXVXVXVXVXVXVXVXVXAXAXAXAXAXAXAXAXAXAXAXAXAXAXAXAXAXDXDXAXDXDXDXDXVXzXzXSXSXxXgX9X7X7XoX}.[.{.{.}.].{.{.{.E.E.^.^.^.^.^.^.~.~.~.~.^.T.I.J.Z.v.v.v.l.l.8.#.@.@./ E / E T B t e k { 8.N.K.W.(./.^.{.(.[.,X6X8X8X8X4X4X).T.m.| y L r.i.L.~.Y.Y.P.y.,.L G P ,.L L 3.c.5.6.5.5.5.5.4.4.O.' _ ` ~ ! W K K Y Y Y Y Y z l 2 e u w y K 5.8.H 4 4 < % u #. .u * & e ) #.@.R _ ! l l ) u * > h t > = # o o . . # # & 2 l ) @.] O.#.#.#.@.@.@.{ { { #.#.#.5.5.O.+.+.O.+.o.+.$.O.6.e.z.A.Y.8XVXDXDXDXDXDXDXAXAXAXAXAXAXAXAXAXAXAXAXAXAXAXAXAXAXAXAXAXAXAXAXAXAXAXAXAXAXZXZXZXAXAXAXAXAXAXAXAXAXAXAXAXAXAXAXAXAXAXAXAXAXAXAXAX",
"VXVXVXVXVXVXVXVXVXVXVXAXAXAXAXAXAXAXAXAXAXAXAXAXAXAXAXDXDXDXDXDXDXDXDXDXDXSXzXzXSXSXxXgX9X7X7X7X7XoX[.[.}.{.{.{.{.{.^.^._.{.{.[.{.).^.^.^.U.P.A.Z.J.J.Z.c.J.J.v.x.x.k.h.%.` / / T v r N &.4.u.y.M.~.Y.Y.E.(.,X6X9X9X9X8X4XpX).].'.g.d d ,.i.M.L.~.Q.K.H.p.P L 5 I ,.L G ,.u.w.7.5.5.5.4.3.5.O.' _ _ ` ! ! Y R R R R Y l y y 4 y W 4.l.8.[ c y y 3 $ y $. .` w # : y W R R K y 2 u } i + e j 8 > ; # o o . o # # : w U } #.4.6.6.6.6.6.%.%.6.%.#.5.5.5.5.5.5.5.$.$.O.o.o.#.#.0.e.w.Z.~.9XVXDXDXDXDXDXDXAXAXAXAXAXDXDXAXAXAXAXAXAXAXAXAXAXAXAXAXAXAXAXAXAXAXAXAXAXAXAXAXAXAXAXAXAXAXAXAXAXAXAXAXAXAXAXAXAXAXAXAXAXAXAXAXAX",
"AXAXAXAXAXDXDXDXDXDXDXDXDXDXDXDXDXDXDXDXDXDXKXDXDXDXDXDXDXKXKXKXKXKXKXKXKXSXBXsXzXVXSXzXdXgXeX9X9X0XrX0X7X9X9X9X9X9X9X7X7X0X7X7X6X,X[.[.[.{.T.I.v.v.v.x.z.k.m.j.j.j.j.g.g.-.&.{ Q x e y u t.<.[ } l.D.E.].).oXoX[.9XaXaXpX5X2X;X(.v.#.H u 1.t.N.Y.Y.Y.L.P.b.,.G s s I G G L ' 7.w.u.w.7.5.3.3.7.7.1.,.1.,.1.' ' P L G s s G [ 8.l.8.#._ W ` ) ! J 2 3 #.` ! H i : : 4 e e > 2 z [ u = = t k w > ; : O . . O & ; y ` 8.l.l.c.v.c.c.v.b.b.l.j.w.q.q.q.q.q.w.e.q.7.5.5.5.5.$.6.0.e.e.A.oXvXVXDXDXDXDXDXAXAXAXAXAXAXAXAXAXAXAXAXAXAXAXAXAXAXAXVXVXVXAXAXAXAXAXAXAXAXAXAXAXAXAXAXAXAXAXAXAXAXAXAXAXAXAXAXAXAXAXAXAXAXAXAXAXAX",
"AXAXAXAXAXDXDXDXDXDXDXDXDXDXDXDXDXDXDXDXDXKXKXKXKXKXKXKXKXFXFXFXFXKXKXKXKXZXBXaXsXSXSXzXzXvXvXgXgXgXvXgXeXgXgXgXsXsXsXsXsX0X0X0X0X9X7X1X1X{.E.U.I.D.D.A.x.x.b.l.8.6.6.8.j.j.j.j.g.%.[ W J 4.8.9.} 9.v.Y.E.).[.).[.9XsXdXdX5X5X<X).Y.l.[ J L 1.c.K.Y.K.K.P.J.u.,.L I G J L s s L ' 8.u.u.w.7.7.7.7.' ' ,.' ' L G y s G [ <.t.u.8.9.] ) ! ! W Y ` #.y 4 ] #.x Y ] J < : - 4 z ! W y ; ; w k u w > ; : X X % - y ) 4.4.] [ ] ' ' 1.7.8.w.u.w.6.8.q.u.z.a.a.u.a.a.u.q.5.6.6.6.0.e.w.Z.Y.qXcXVXDXDXDXDXDXAXAXVXAXAXAXAXAXAXAXAXAXAXAXAXAXAXAXAXVXAXAXAXAXAXAXAXAXAXAXAXAXAXAXAXAXAXAXAXAXAXAXAXAXAXAXAXAXAXAXAXAXAXAXAXAXAXAX",
"DXDXDXDXDXDXDXDXDXDXDXDXDXKXKXKXKXKXKXKXKXKXKXKXKXKXKXKXKXFXFXFXFXFXFXFXFXAXBXsXsXxXVXxXxXzXzXzXvXvXvXvXvXvXzXzXzXzXzXzXzXzXzXzXzXgXsX0X9XoX{.^.E.E.U.U.U.Y.Y.U.J.v.Z.I.Y.E.Y.I.A.v.v.l.8.#.5.8.b.R.T.Q.(.-X6X[.[.9XsXaXdX5XpX8X,X^.R.l.] G ' 9.N.K.L.K.H.K.N.c.9.[ L L L s y 3 y L ' 3.u.c.b.c.u.3.,.,.' P L L [ ,.9.b.N.v.l.4.` W ! Q ` ~ R o.#.y ; H 0.x R 6.5.G 2 < 3 J J 4 : * w k t r 7 > > : # : 2 y H W J G y y G G L P 3.7.w.w.w.O.1.1.6.q.w.u.u.a.z.z.a.e.e.e.a.w.z.Z.P.).gXVXAXZXZXZXAXAXAXAXVXAXAXAXAXAXAXAXAXAXAXAXAXAXAXAXAXAXAXAXAXAXAXAXAXAXAXAXAXAXAXAXAXAXAXAXAXAXAXAXAXAXAXAXAXAXAXAXAXAXAXAXAXAXAXAX",
"DXKXKXKXKXKXKXKXKXKXKXKXKXFXFXFXFXFXFXFXFXFXFXFXFXFXFXFXFXFXFXFXFXFXFXFXFXAXBXaX8XgXxXvXvXxXzXzXzXzXzXzXzXBXBXBXBXBXBXBXBXSXSXzXzXzXhXsXsX7X7X7X7X6X6X[.[.7X6X6X[.^.^.^.^.Y.L.Z.b.b.v.b.w.%.o.@.v.}.7X3XaX8X9X6X,X6X9X9XaXpXfX8X-X[.[.R.l.' P ' 9.M.K.K.H.N.J.K.c.9.,.[ ' P G 3 3 4 3 G [ y.y.c.M.i.y.y.y.t.t.c.J.I.N.v.l.O.` W W W Q ~ Q ` W z l - % J 0.R ~ @.O.O.' G 3 3 - # % w x B t t 7 > w ; : ; i y i 2 2 4 s L P 3.3.y.i.p.p.u.u.5.1.O.' +.1.1.2.y.a.c.Z.c.a.a.a.a.c.J.Y.6XzXAXAXAXAXAXAXAXAXAXVXAXAXAXAXAXAXAXAXAXAXAXAXAXAXAXAXVXVXVXAXAXAXAXAXAXAXAXAXAXAXAXAXAXAXAXAXAXAXAXAXAXAXAXAXAXAXAXAXAXAXAXAXAXAXAX",
"KXFXFXFXFXFXFXFXFXFXFXFXFXFXFXFXFXFXFXFXFXFXFXFXFXFXFXFXFXFXFXFXFXFXFXFXFXAXBX9X,X0XvXvXkXxXzXxXzXxXzXzXzXSXSXBXBXSXSXSXSXSXSXBXBXBXBXzXjXsXsXgXgXzXgXsXsX9X6X).^.~.Y.P.H.a.z.b.z.z.z.8.4.%.@.~ } b.}.aXhXaXaX8X,X6X6X6X9X8XpXpX8X,X,X(.R.b.3.[ P ,.t.M.K.c.M.N.N.c.t.9.9.,.P G s 3 1 4 3 s G P 3.7.y.c.M.b.c.b.l.u.5.O._ ! W W Q ~ ~ U l y y 2 - # $ J 8.O.O.#._ ` $.! l 3 2 2 y z x k t w 7 7 w > : - 2 - 2 i G ] t.i.c.W.W.L.K.K.H.c.a.c.u.8.5.1.O.' ' 3.7.a.H.P.Z.c.a.z.c.P.~.9XSXAXZXAXAXAXAXAXAXAXVXAXAXAXAXAXAXAXAXAXAXAXAXAXAXAXAXVXVXVXAXAXAXAXAXAXAXAXAXAXAXAXAXAXAXAXAXAXAXAXAXAXAXAXAXAXAXAXAXVXAXVXAXVXVXVX",
"FXFXFXFXFXFXFXFXFXFXFXFXFXFXFXFXFXFXFXFXFXFXFXFXFXFXFXFXFXFXFXFXFXFXFXFXFXAXSX9X,X7XeXeXvXkXkXvXkXkXxXzXzXcXSXcXBXBXBXBXSXBXBXBXSXSXSXSXSXSXSXBXBXdXfXpX<X).~.L.K.H.c.c.a.a.c.Z.A.A.v.b.l.*.%.@.` [ <.N.<XaXaX8X8X9X6X,X6X,X9XsX8X8X<X(.!.T.M.9.[ L >.r.M.b.b.c.c.M.M.c.c.y.3.P L I s 3 4 < < 1 3 3 s L P ' P J c y G J J K H K H l y 2 , - 2 - - - < J 6.] } #.~ R ~ T ~ ) W W W N k j r 7 7 w 2 - # # : 2 G 4.l.M.H.K.!.(.(.!.Q.K.J.c.c.H.c.c.c.a.8.1.) P ) 1.a.J.L.J.Z.Z.Z.P.~.9XSXAXSXAXAXAXAXAXAXAXAXAXAXAXAXAXAXAXAXAXAXAXAXAXAXAXAXAXVXAXAXAXAXAXAXAXAXAXAXAXAXAXAXAXAXAXAXAXAXAXAXAXAXAXAXAXAXAXAXVXVXVXAXAXVXVX",
"FXFXFXFXFXFXFXFXFXFXFXFXFXFXFXFXFXFXFXFXFXFXFXFXFXFXFXFXFXFXFXFXFXKXKXKXFXAXSXaX).[.1X7X7XeXeXeXgXvXvXvXvXvXvXvXvXzXzXzXzXBXBXSXZXZXZXSXSXZXBXdXfX8X-X/.`.Q.Y.K.H.P.K.J.J.P.J.J.K.J.J.J.I.S.k.k.x.8.' 3.B.=X-X<X8X0X6X-X,X,X8X9X8X4X;X=X/.^.Y.N.t.,.P >.3.9.9.9.u.b.c.N.N.c.u.7.3.,.>.L G 3 1 < < < $ < < 2 1 < < < 2 4 2 2 2 2 2 2 < ; ; 2 i e y y < l $.} [ { / E E T / [ { Q N k x r e > w 2 - # # - 2 J 4.l.v.c.M.K./.=X(.!.K.H.c.v.z.p.c.c.H.Z.c.w.7.) K J P 7.Z.L.Y.A.J.P.Q.9XSXAXSXAXAXAXAXAXAXAXAXAXAXAXAXAXAXAXAXAXAXAXAXAXAXAXAXAXAXAXAXAXAXAXAXAXAXAXAXAXAXAXAXAXAXAXAXAXAXAXAXAXAXAXAXAXAXAXAXVXVXVXAXAXVXAX",
"FXFXFXFXFXFXFXFXFXFXFXFXFXFXFXFXFXFXFXFXFXKXKXKXFXFXFXFXFXFXFXFXKXKXKXKXKXAXSXaX^.~.^.[.{.[.oXqXrXrXeXeXeXeXeXeX0X0XsXsXsXBXSXZXAXAXZXSXBXdXpX;X=X/./.~.Q.Y.L.Y.Y.Y.U.Y.Y.Q.L.L.~.Q.Q.!.!.E.E.E.E.E.H.d.d.N.W./.8XsX9X6X7X7X6X-X;X;X:X=X=XR.Y.!.W.d.,.L I P [ 1.9.u.i.b.c.u.a.p.i.y.t.r.3.>.I 5 3 1 $ $ $ $ $ $ $ $ - $ $ $ $ < < 1 3 s L [ [ W ] G - w &.&.{ / E E / T Q U U N k j r r w > w 2 : . # 4 ) #.6.8.u.H.Q./.=X(.(.!.K.J.v.z.u.u.u.u.a.c.Z.Z.v.q._ c y P q.J.E.P.J.H.Q.8XSXAXBXZXZXAXAXAXAXAXDXAXAXAXAXAXAXAXAXAXAXAXAXAXAXAXAXAXAXAXVXAXAXAXAXAXAXAXAXAXAXAXAXAXAXAXAXAXAXAXAXAXAXAXAXAXAXAXAXAXAXAXAXAXAXAX",
"FXFXFXFXKXFXFXFXFXFXFXFXFXFXFXFXFXFXFXFXFXKXKXKXKXKXKXKXKXFXKXKXKXKXKXKXKXAXZXhX,X~.T.T.R.'.].].].{.}.[.[.].}.[.[.^.,XaXSXZXZXZXAXSXzXsX8X=X(.(./././.~.~.E.E.E.~.E.^.).[.;X4X4X4X4X6X,X,X_.~.Y.L.H.c.i.b.6.4.6.v.[.gXsXpX<X,X,X-X-X/./.).^.E.Y.Y.Q.H.r.>.I >.,.,.3.t.u.u.q.q.7.y.y.u.u.t.3.3.P L I 5 3 1 1 1 1 < < < 1 1 4 3 y J P ) ' +.` @.~ ~ ` 2 - ' 4.] ~ T ^ ^ C E N N N k r e w 7 2 w - O : i J [ ] 8.J.~.(.-X<X8X-X,X).).^.Y.J.Z.u.q.1.7.c.c.H.Q.H.y.P c 4 J w.x.E.Y.P.Q.;XSXAXZXZXAXVXVXVXVXAXAXAXAXAXAXAXAXAXAXAXAXAXAXAXAXAXAXAXAXAXVXAXAXAXAXAXAXAXAXAXAXAXAXAXAXAXAXAXAXAXAXAXAXAXAXAXAXAXAXZXZXZXVXVXVXVX",
"FXFXFXFXFXFXFXFXFXFXFXFXFXKXKXKXKXKXKXKXKXKXKXKXKXKXKXKXKXKXKXKXKXKXKXKXKXZXZXBXaX).!.!.^.].].'.'.].T.T.T.Y.^.,X9X9XgXSXAXAXSXBXdXaX8X-X=X(.(.(.(.(.).(.(.^.^.^.).).[.6X6XaXpX0X8X8X,X,X(.~.L.H.c.c.c.c.c.l.w.7.t.M.!.-X;X,X-X).-X)./._._.E.~.~.~.~.!.K.d.>.L I L >.,.r.y.7.7.3.3.5.5.5.5.5.3.3.3.,.,.P P P L L L I L L P ,.O.O.O.O.O.o.o.Q ` Q ~ ` 2 - L 5.] ~ E ^ ^ N T U N B t e w w w i 2 : & w J ) #.v.Y.[.,X-X-X-X=X/././.~.Q.Y.K.J.Z.Z.z.u.7.3.y.K.H.H.p.1.J y l ` a.L.~./.;XzXAXAXAXAXVXVXVXVXAXAXAXAXAXAXAXAXAXAXVXAXAXAXVXAXAXAXVXVXVXVXAXAXAXAXAXAXAXAXAXAXAXAXAXAXAXAXAXAXAXAXAXAXAXAXAXAXAXAXVXVXVXVXVXVXVX",
"FXFXFXFXFXFXFXFXFXFXFXFXFXKXKXKXKXFXFXKXKXKXKXKXKXKXKXKXKXKXKXKXKXKXKXKXKXDXZXSXzX9X,X[.[.1X[.{.{.^.^.~.!.=X<XgXxXSXSXSXSXhXsX8X,X).(./.~.(.(.(.,X,X,X,X,X{.[.[.,X6X9XsXsXdXdXpX8X-X(.!.Q.P.J.H.H.J.P.L.Y.Y.K.H.c.c.H.L.W.(.(.).6X6X).~.Q.Y.Y.Y.Y.Y.Q.L.K.M.r.L I I L >.<.t.7.1.) J H W ] ] O.O.O.] 1.3.1.7.3.1.1.1.O.O.4.#.O.O.` ! R R W W Q W Q ` 4 : s 8.O.Q R ^ ^ N T ( B k t e w w w y 2 : - y ] 9.x.T.^.,X<X4X4X4X4X=X:X/.Q.L.P.P.H.J.Z.Z.c.7.1.1.3.L.L.H.Z.w.J 4 c +.a.Y./.-XsXVXAXAXAXAXVXVXAXAXAXAXAXAXAXAXAXAXAXAXVXVXVXVXAXAXAXVXVXVXVXAXAXAXAXAXAXAXAXAXAXAXAXAXAXAXAXAXAXAXAXAXAXAXAXAXAXAXAXVXZXVXVXVXVXVX",
"FXFXFXFXFXFXFXFXFXFXFXFXFXKXKXKXKXKXKXKXKXKXKXKXKXKXKXKXKXKXKXKXKXKXKXKXKXDXZXZXSXzXsX9XaXgXeX9X7X7X9XaXgXBXSXZXAXAXBXsXpX,X1X(.(.^.^.^.^.).-X,X9X9X9X7X7X7X7X6X9XsXdXMXMXsXpX8X-X(.!.L.K.H.K.Y.Q.~.).[.[.).).,X[.)._.Q.L.!.Q.Q.(.(.(.(.!.^.^.T.U.I.I.U.Y.~.H.y.,.L I I I ,.3.3.] J l l H K Y W W W L ) ) ` ! ! Q Q W W ! W W W W Y Y Y Y ! W W Q ) i - y 8.1.! T ^ T C T T U B u r w w e y 2 - ; u [ l.T.(.-X;X4XpXfXfXfX8X-X=X/.Q.L.P.H.c.u.u.u.a.u.1.G 5.v.U.J.Z.q.P c J ' u.L.).zXVXVXAXAXAXAXAXAXAXAXAXAXAXAXAXAXAXAXAXAXAXVXVXVXAXAXAXAXZXZXAXAXAXAXAXAXAXAXAXAXAXAXAXAXAXAXAXAXAXAXAXAXAXAXAXAXAXAXVXVXVXZXZXVXVX",
"FXFXFXFXKXKXKXKXKXKXKXKXKXKXKXKXKXKXKXKXKXDXDXDXDXDXDXDXDXDXDXDXDXDXDXDXDXDXCXBXSXAXSXzXzXzXvXhXhXvXxXSXAXAXZXCXBXsX9X,X-X[.[.^.^.~.^.).).6X9X9X0XgXeXeX0XeXeXgXsXzXBXMXdX8X4X-X/.~.Q.L.K.W.!.(.(.,X6X6X6X0X0X0XgXgX0X).L.K.H.M.M.K.Q.(.(.Y.Y.R.R.D.D.D.R.J.L.L.H.t.,.I s s I [ <.,.[ H H l l l z H l J H Y H z Y Y C C Y Y W W Q T T T Y ) W Y W U i - 3 9.4.! T ^ T T ( T U B x r e e u G 2 : 2 L t.Y.{.sXpXpXpXfXfXpXpX8X-X=X/.~.Q.L.K.c.q.2.2.8.c.w.P y 1.Y.Y.c.c.a.1.G J P q.^.vXVXBXAXAXAXAXAXAXAXAXAXAXAXAXAXAXAXAXVXAXAXVXVXAXAXAXAXZXZXAXAXAXAXAXAXAXAXAXAXAXAXAXAXAXAXAXAXAXAXAXZXAXAXAXAXVXVXVXVXVXVXZXZXVXVX",
"FXFXFXFXKXKXKXKXKXKXKXKXKXDXDXDXDXDXDXDXDXDXDXDXDXDXDXDXDXDXDXDXDXDXDXDXDXDXCXBXBXSXVXAXSXSXSXSXAXAXAXSXSXzXzXsX8X,X^.).).[.{.^.^.^.[.7X9X0XgXgXgXgXgXgXgXgXvXxXSXSXBXfXpX-X/./.Q.Q.Q.Q.Q.=X-X,X<X8XsXsXsXjXjXgXgX0X).P.i.c.M.M.H.L.Q.(.(.Y.Y.I.D.D.D.S.D.z.A.P.W.W.W.t.>.I s s G ' 1.1.] ! K H W W H l l z x x z z Y Y Y Y Y Y Y T T Q Q ` W H z u 2 - 4 ,.1._ T E T E ( T T Z k r r u l i - : s b.(.1X7X9X8X4X5X5X5X;X;X-X=X/.~.~.Q.L.P.H.c.7.' P O.w.l.J y P U.E.c.p.c.O.P G K q.oXcXAXVXAXAXAXAXAXAXVXAXAXAXAXAXAXAXAXVXAXAXAXAXAXAXVXAXVXVXAXAXAXAXAXAXAXAXAXAXAXAXAXAXAXAXAXAXAXAXAXZXVXVXVXVXVXAXVXVXVXVXVXVXVXVX",
"KXKXKXKXKXDXDXDXDXDXDXDXDXDXDXDXDXDXDXDXDXDXDXDXDXDXDXDXDXDXDXDXDXDXDXDXDXDXZXBXdXzXSXSXSXSXSXAXAXSXSXzXhX0X6X[.^.^.^.^.{.{.{.[.[.1X9XgXvXvXvXvXzXzXzXzXzXSXSXSXBXjXpX-X:X`.Q.Q.Q./.(.=X-X8XpXaXsXdXzXBXBXzXzXgX,XY.c.u.y.K.Q.).-X6X-X=X(.^.Y.A.A.D.D.x.x.l.l.c.K.W.W.W.N.t.,.I s G L ,.3.4.4.4.O.O.` W H l l l u z U W H z Y Y Q Q Q Q Q U l u i 2 2 < 3 L ,.` Q T C E ( T ( T k x l l u < - y t.(.<X,X,X)./.:X-X;X-X=X=X(./.Q.Y.Y.L.J.Z.H.H.p.3.P J ` j.w.y 2 ' Y.L.c.M.z.7._ H K p.0XAXVXVXAXAXAXAXVXVXAXAXAXAXAXAXAXAXVXAXAXAXAXAXAXVXVXVXVXAXAXAXAXAXAXAXAXAXAXAXAXAXAXAXAXAXAXAXAXAXAXVXVXAXVXAXAXAXVXVXVXVXVXVXVX",
"KXKXDXDXDXDXDXDXDXDXDXDXDXDXDXDXDXDXDXDXDXDXDXDXDXDXDXDXDXDXDXDXDXDXDXDXDXDXZXjXpXpXzXzXzXBXBXzXhXdXsXaX9X{.^.E.U.E.].].].{.[.oX7XeXgXhXhXvXxXvXzXzXBXSXVXAXZXBXsX4X:X/.Q.L.L.~.(.-X8X9XaX9XdXzXBXSXCXCXBXjXsX,XB.9.9.N.^.,X0XgXsXpX0X8X4X~.Z.w.w.j.x.j.g.8.8.i.H.P.d.N.K.W.W.d.r.L I s I P ' 1.' ] 4.O.) J J l u J ! _ W Y Y Q ` Q W H J i 2 2 ; - < 2 y G ,.` ~ T N E T T E T B x H z y < y t.1X,X`.`.=X-X-X-X;X;X/.!.`.Q.Y.K.K.K.K.J.Z.p.c.c.c.7.H l _ z.4.y 2 ' Y.Y.i.c.v.z.+.K 1._.SXVXVXAXZXZXAXVXVXAXAXAXAXAXAXAXAXAXVXVXAXAXAXAXAXAXVXVXAXAXAXAXAXAXAXAXAXAXAXAXAXAXAXAXAXAXAXAXAXZXVXVXAXAXVXVXVXVXZXZXZXZXZXZX",
"DXDXDXDXDXDXDXDXDXDXDXDXDXDXDXDXDXDXDXDXDXDXDXDXDXDXDXDXDXDXDXDXDXDXDXDXAXZXDXBX4X-X9XeX9X9X0X0X9X3X[.{.T.'.'.'.T.T.].{.{.7X6X9XsXhXxXSXhXgXzXBXBXZXDXDXZXjXsX4X/.~.Q.~.~.~./.-X2XfXfXdXjXzXjXNXPXDXZXBXBXsX,XM.,.O.Z.[.rXpXpXsXaX8XsXqX/.7.' K ) 4.8.w.l.y.7.7.t.c.M.M.H.Z.P.P.M.i.t.,.L G G s s s I L >.I I I I J L L L J J L L s y 3 3 < < < 1 1 3 5 3 2 P [ W Q T T ( T T B B T Q u > 1 ' N.Q.(.-X-XsXsXsXsXaXaX8X,X(.T.Y.J.J.J.J.Z.z.c.c.l.c.c.u.1.P 1.b.8.y 2 ) Z.J.z.z.Z.c.7.+.z.qXVXVXAXDXDXSXSXVXSXVXVXVXVXVXVXSXAXAXSXSXVXVXVXAXAXAXAXAXAXAXAXAXAXAXAXAXAXAXAXAXAXAXVXVXVXAXAXZXZXVXVXAXAXAXAXVXVXZXZXAXZXZXZX",
"DXDXDXDXDXDXDXDXDXDXDXDXDXDXDXDXDXDXDXDXDXDXDXDXDXDXDXDXDXDXDXDXDXDXDXDXAXDXDXZXdX8X,X,X7X7X7X1X[.{.].'.T.'.'.R.T.'.{.{.[.6X7X0XgXvXzXzXzXzXBXZXZXPXZXMXfX4X-X/.~.`.~./.).4X8XpXfXbXMXMXzXSXBXBXCXZXZXSXhX(.p.3.u.T.7XeX9XsXjXsX8XgXgXY.3.G ' u.J.J.v.l.u.i.7.,.,.t.i.p.p.a.p.c.c.c.M.c.i.9.3.,.L G s s y 3 3 3 3 3 3 3 3 4 4 3 3 4 3 4 4 4 3 s L P ,.[ J - 2 ` 6.Q T E T | U N N U U i ; 3 3.K.!.).-X=X8X-X=X/.W.W./.(.=X^.Q.K.H.c.c.c.Z.u.u.u.u.u.u.y.7.] 5.l.7.G 2 J A.E.v.u.c.Z.u.Z.oXVXSXZXZXZXAXVXVXAXAXAXAXAXAXAXAXAXAXAXAXAXVXVXSXAXAXAXAXAXVXVXVXAXAXAXAXAXAXAXAXZXVXVXVXVXVXAXZXAXAXVXAXZXZXAXVXAXAXZXAXAXAXAX",
"DXDXDXAXDXDXDXDXDXDXDXDXDXDXDXDXDXDXDXDXDXDXDXDXDXDXDXDXDXDXDXDXDXDXDXDXAXAXAXAXAXsX,X^.{.{.{.{.T.R.R.F.F.n.F.F.'.].{.oX7XqXrXeXgXgXgXhXzXBXZXZXZXCXdX4X/.~.Q.`.Q./.=X-X8XdXdXbXCXCXCXZXZXSXSXZXZXZXSXsX(.y.7.i.(.gXvXgXgXsXjXsXgXhX(.<.L 3.K.7X7X^.Y.J.c.b.t.,.[ [ 1.3.3.7.3.7.8.w.8.8.w.z.z.j.8.5.] ' [ L L L G G G G G G J J L P ' [ ,.O.4.4.9.8.4.[ W 2 & _ x.W W Q Y [ ) ) ] <.[ L G 3.K././././.`.`.`.W.W.N.d.P.Q./.Y.Y.Y.K.H.c.c.Z.u.u.q.q.q.y.u.a.y.' 5.Z.7.y 2 l z.J.J.c.a.z.L.oXVXAXAXZXZXZXAXVXAXAXAXAXAXAXAXAXSXZXAXAXAXZXSXZXAXAXAXZXZXVXVXVXAXAXAXAXAXAXAXAXZXVXVXVXVXVXVXZXAXAXVXZXZXVXAXVXVXZXZXAXAXVXVX",
"DXDXDXDXAXDXDXDXDXDXDXDXDXDXDXDXDXDXDXDXDXDXDXDXDXDXDXDXDXDXDXDXDXDXDXDXDXZXZXAXAXSX9X^.T.'.'.T.R.n.n.n.m.m.V.F.'.].}.oXrXyXeXeX0X0XsXzXzXZXZXCXbXfX;X/./.~.~./.(.-X8XfXdXBXCXCXPXPXPXZXZXNXCXZXAXSXsXL.8.9.K.9XzXhXsXdXzXjXsXjXSX1X<.L l.6X0X0X(.Q.K.K.H.N.N.u.1.' ,.,.' ] ' ' ] #.O.` ` $.%.0.j.j.l.b.b.b.u.u.t.8.8.8.t.u.u.8.9.9.9.9.9.6.6.#.] 4.O.[ 4.J 4 P l.7.8.z.b.M.M.H.Y.Q.W.K.K.L././.W.W.W.P.P.H.P.W.W.W.W.L.K.Z.H.H.L.L.H.p.p.u.e.q.7.5.5.7.7.c.q.1.7.u.8.J ; y 2.I.K.p.a.J.^.zXVXAXAXAXZXAXSXAXAXAXAXAXAXAXAXZXZXZXZXZXZXZXDXAXVXVXAXAXAXAXZXAXAXAXAXAXAXAXAXZXVXVXAXAXAXAXAXAXAXAXZXZXZXAXVXAXAXAXVXVXZXZX",
"DXDXDXAXDXDXDXDXDXDXDXDXDXAXAXAXDXDXDXDXDXDXDXDXDXDXDXDXDXDXDXDXDXDXDXAXZXAXAXAXAXSXhX{.D.F.n.m.m.j.j.m.m.m.n.*X].{.oX7XrXrXrX7X9XgXzXSXSXSXBXdX8X-X/.(.(.^.(.-X<XpXdXbXbXCXCXCXPXPXPXPXZXZXZXAXSX8XK.y.3.Q.9XzXzXjXMXBXdXjXjXzX8Xr.L t.3XsX8X(.Q.K.K.Q.Q.Y.!.!.Y.K.M.i.y.[ [ [ ` ] { ` ~ Q Q Q _ ` ] ] O.5.4.4.4.4.4.7.8.3.7.9.9.9.9.9.9.7.u.u.z.Z.v.Z.Y.M.7.3.M.(.).(.(.~.(./.~.~./.`.`.K.K.H.p.d.d.d.d.d.H.K.W.`.Q.P.M.a.y.y.p.Z.Z.c.p.u.q.7.2.2.2.2.2.q.c.u.1.5.c.u.) 4 y P c.Y.H.Z.L.4XsXVXAXZXAXAXAXAXAXAXAXAXAXAXAXAXAXAXAXZXZXZXZXZXAXAXAXAXVXVXZXZXZXZXVXVXVXVXZXZXAXAXAXAXAXVXAXAXVXAXAXZXZXZXVXAXAXAXVXVXAXAX",
"AXDXDXDXDXAXDXDXDXDXDXDXDXDXAXAXAXAXDXDXDXDXAXAXAXAXAXAXDXDXDXDXDXZXAXDXZXAXDXZXZXAXSX1XI.n.x.j.j.g.k.m.F.F.'.].}.@X7X7X7X1X7X7XgXkXSXSXSXsX9X<X=X=X/.).-X,X,X8XpXdXbXNXCXNXCXCXCXZXDXDXPXDXZXzX-Xc.3.u.Y.zXzXzXBXBXBXBXMXjXzX0Xy.I r.9XSX8X/.Q.Q.Q.W.Q./.(.,X9X0XeX7XQ.c.4.<.] ) W W W U K W ) _ ] 1.3.9.w.w.w.w.u.l.l.v.c.M.J.Y.Y.Q.T.!.~.[.,X[._._.).6X-X,XK.K.9X,XL.M.p.p.p.a.y.y.y.y.q.7.7.7.7.y.y.y.y.y.y.p.H.P.P.Z.e.5.O.O.5.w.c.J.z.a.q.5.2.2.2.2.1.7.u.u.q.q.a.Z.3.L G L q.H.H.P.`.4XzXAXAXZXZXZXZXAXAXAXAXAXAXAXAXAXAXAXAXAXZXSXZXVXAXVXVXVXVXVXVXAXAXVXVXAXAXZXAXAXAXZXZXVXVXAXVXAXAXAXAXAXAXVXVXAXAXVXVXVXZX",
"AXAXDXDXDXAXDXDXDXDXDXDXDXZXZXZXAXAXZXZXZXDXAXAXDXDXAXDXDXDXAXAXDXZXAXAXZXZXZXZXDXDXVXeX{.R.F.n.v.x.n.F.R.].}.}.oX@X7X[.[.,X7XgXxXSXSXzXdX6X[.).).-X-X,X8X9X9XsXdXMXBXCXCXNXNXNXSXZXDXDXDXCXdX!.i.3.t.!.hXAXCXBXNXNXMXMXSXzXzXK.P ' ,XVXsX/.K.M.M.M.N.K.!.-X8XsXvXgX^.v.8.] [ ) [ [ ] ] ] 8.u.c.I.Q.(.,X<X7X6X6X8X9X8X9X9X0X0X0X9X9X8X,X,X-X).).Y.A.J.Y.E.K.K.c.u.v.v.8.5.O.+.O.O.+.+._ +.' _ ' O.' ' O.1.1.3.3.7.u.c.Z.Z.j.6.O.K J H ] l.z.w.e.q.5.O.O.O.5.O.1.u.c.y.y.p.K.c.1.L P 7.p.H.W./.pXSXAXZXZXZXAXAXZXZXZXZXAXAXAXSXSXSXSXAXAXAXAXVXVXVXVXVXVXVXAXAXAXVXVXAXZXAXAXAXVXZXZXVXVXVXVXAXAXAXAXVXVXVXVXAXZXVXVXVXVX"
};
