/* XPM */
static char *d1058d0f318b4517e2f6acb9120a35fcGnM1V4hUyryyjXw7[] = {
/* columns rows colors chars-per-pixel */
"300 300 240 2 ",
"   c #332F2B",
".  c #181714",
"X  c #453D37",
"o  c #4C443E",
"O  c #3D6467",
"+  c #3C5A5C",
"@  c #56504B",
"#  c #665A53",
"$  c #6E635B",
"%  c #4D6C6D",
"&  c #44676A",
"*  c #526C6C",
"=  c #496D72",
"-  c #536F71",
";  c #547374",
":  c #5B7475",
">  c #5C7A7B",
",  c #5B767A",
"<  c #527072",
"1  c #756B65",
"2  c #637B7D",
"3  c #67797B",
"4  c #767571",
"5  c #4F5F5F",
"6  c #3E413E",
"7  c #877C74",
"8  c #83766C",
"9  c #6A817F",
"0  c #8D827B",
"q  c #93857C",
"w  c #96887C",
"e  c #687E81",
"r  c #737E81",
"t  c #5B8B94",
"y  c #648383",
"u  c #6B8385",
"i  c #6C8689",
"p  c #6D8A8B",
"a  c #688887",
"s  c #738B8D",
"d  c #7B8C8D",
"f  c #758487",
"g  c #7B918F",
"h  c #758E91",
"j  c #7B8E91",
"k  c #66949B",
"l  c #769293",
"z  c #7B9394",
"x  c #7D969A",
"c  c #7C989B",
"v  c #668C95",
"b  c #769CA5",
"n  c #6C9AA2",
"m  c #7AA3A9",
"M  c #838A8C",
"N  c #958B83",
"B  c #9A8D84",
"V  c #988C86",
"C  c #9D9186",
"Z  c #9D928A",
"A  c #95918E",
"S  c #848E92",
"D  c #839395",
"F  c #8B9395",
"G  c #849599",
"H  c #8A959A",
"J  c #839B9D",
"K  c #8C9B9D",
"L  c #889996",
"P  c #949A9D",
"I  c #96999A",
"U  c #8C918F",
"Y  c #A2958C",
"T  c #A5998E",
"R  c #A5978B",
"E  c #A59A92",
"W  c #AA9D94",
"Q  c #A69C97",
"!  c #92A09F",
"~  c #ACA096",
"^  c #ADA39A",
"/  c #A2A09E",
"(  c #B2A69C",
")  c #B3A89E",
"_  c #B6A79A",
"`  c #8B9EA1",
"'  c #849DA1",
"]  c #949DA2",
"[  c #9B9EA1",
"{  c #8CA2A4",
"}  c #85A7AC",
"|  c #94A3A4",
" . c #9CA3A5",
".. c #9CA5AA",
"X. c #9DAAAB",
"o. c #96A8AA",
"O. c #8BADB3",
"+. c #86ABB1",
"@. c #98ADB3",
"#. c #8BB2B5",
"$. c #9BB6BA",
"%. c #9DB9BC",
"&. c #95B4B7",
"*. c #A3A4A3",
"=. c #A4ABAD",
"-. c #ABACAD",
";. c #A8A7A6",
":. c #B5ABA2",
">. c #B9AEA5",
",. c #B2AEAB",
"<. c #B4A9A3",
"1. c #ABB1AE",
"2. c #BBB1A6",
"3. c #B3B1AC",
"4. c #BDB3AA",
"5. c #B7B0A7",
"6. c #A5ADB1",
"7. c #AAAEB2",
"8. c #ACB3B4",
"9. c #ADB4B9",
"0. c #A3BBBD",
"q. c #A8B7B9",
"w. c #B4B5B4",
"e. c #BAB6B3",
"r. c #B6B9B6",
"t. c #BBB9B6",
"y. c #B4B6B9",
"u. c #B4BABB",
"i. c #BCBCBB",
"p. c #B9B6BB",
"a. c #B1AEB3",
"s. c #A19EA3",
"d. c #C1B6AC",
"f. c #C3B8AF",
"g. c #C0B3A7",
"h. c #C5BBB2",
"j. c #C9BEB4",
"k. c #C1BEBB",
"l. c #C5BBB5",
"z. c #BBC1BE",
"x. c #CAC1B6",
"c. c #C3C1BE",
"v. c #CDC3BA",
"b. c #CCC5BC",
"n. c #D1C6BD",
"m. c #D3C9BE",
"M. c #D8CABF",
"N. c #A5BDC1",
"B. c #AABEC2",
"V. c #A2B7C0",
"C. c #B4BDC2",
"Z. c #BCBEC1",
"A. c #99BDC1",
"S. c #C1BEC2",
"D. c #ADC2C4",
"F. c #A6C3C6",
"G. c #B3C2C5",
"H. c #BDC2C4",
"J. c #B5C5C9",
"K. c #BCC5CA",
"L. c #BFC9CE",
"P. c #B6C9CA",
"I. c #BFC8D0",
"U. c #BBC7D0",
"Y. c #BCD2D4",
"T. c #C4C3C4",
"R. c #C9C6C4",
"E. c #CCC9C6",
"W. c #C3C6CB",
"Q. c #C9C6C9",
"!. c #C2C9CE",
"~. c #CCCBCC",
"^. c #C4C9C7",
"/. c #D5CBC2",
"(. c #D9CEC4",
"). c #D1CECC",
"_. c #D5CAC4",
"`. c #CCD1CE",
"'. c #C5D0CE",
"]. c #DBD1C6",
"[. c #D4D1CE",
"{. c #DCD3CB",
"}. c #D4D0C7",
"|. c #C4CAD1",
" X c #CBCDD1",
".X c #D1CED1",
"XX c #CED1D4",
"oX c #CDD1D4",
"OX c #CED4D9",
"+X c #C8D4D5",
"@X c #D0D0D2",
"#X c #D0D1D4",
"$X c #D4D3D3",
"%X c #D9D6D4",
"&X c #DCD9D6",
"*X c #D4D6D9",
"=X c #DAD6D9",
"-X c #D5DADB",
";X c #DCDBDB",
":X c #D4D9D6",
">X c #E1D6CC",
",X c #E3D9CF",
"<X c #E4DBD3",
"1X c #E9DED4",
"2X c #E2DEDC",
"3X c #E4DAD4",
"4X c #DDE1DE",
"5X c #EBE1D6",
"6X c #E4E1DE",
"7X c #EBE3DD",
"8X c #EBE4DB",
"9X c #F1E5DC",
"0X c #F3E9DE",
"qX c #DDDEE1",
"wX c #D7DDE0",
"eX c #C8D6E2",
"rX c #E2DFE1",
"tX c #DDE2E3",
"yX c #DBE5E7",
"uX c #CDE1E0",
"iX c #E5E3E2",
"pX c #EAE6E4",
"aX c #ECE9E6",
"sX c #E5E6E9",
"dX c #EAE7E8",
"fX c #E5E9EB",
"gX c #EDEAE9",
"hX c #E6E9E6",
"jX c #F1E6E1",
"kX c #F2EBE5",
"lX c #F1EDEB",
"zX c #F9EEE6",
"xX c #F4F1EE",
"cX c #FAF2EB",
"vX c #FDF1E8",
"bX c #EDEEF1",
"nX c #F5F2F1",
"mX c #F9F5F2",
"MX c #FAFAF8",
"NX c #EFF0F1",
/* pixels */
"|.|.|.|.|.|.|.I.I.I.|.|.|.|.|.|.|.|.|.I.I.I.|.|.|.|.|.|.I.I.I.I.I.I.I.I.I.I.I.I.I.I.I.I.I.I.I.I.I.I.I.I.I.I.I.I.I.I.I.I.I.I.I.I.I.I.I.I.I.I.I.I.I.I.I.I.I.I.I.I.I.I.I.I.I.I.I.I.I.I.I.I.I.I.I.I.I.I.I.I.I.I.I.I.I.I.I.I.I.I.I.I.I.I.I.I.I.I.I.I.I.I.I.I.I.!.!.!.!.|.!.!.!.!.!.!.|.|.|.|.|.!.!.|.|.|.|.|.|.|.|.|.|.!.!.I.I.I.I.L.L.L.L.L.L.L.L.L.L.L.L.L.L.L.L.L.L.L.L.L.L.L.L.L.L.L.L.L.L.L.L.L.L.L.L.L.L.L.L.L.L.L.L.L.L.L.L.L.L.L.L.L.L.L.L.L.L.L.L.L.L.L.L.L.L.L.L.L.L.L.L.L.L.L.L.L.L.L.L.L.L.L.L.L.L.L.L.L.L.L.L.L.L.L.L.L.L.L.L.L.L.L.L.L.L.L.L.L.L.L.L.L.L.L.L.L.L.L.L.L.L.L.L.L.L.L.L.L.L.L.L.L.L.L.L.L.L.L.L.L.",
"|.|.|.|.|.|.|.|.I.I.I.I.|.|.|.|.|.|.I.I.I.I.|.|.|.|.I.|.I.I.I.I.I.I.I.I.I.I.I.I.I.I.I.I.I.I.I.I.I.I.I.I.I.I.I.I.I.I.I.I.I.I.I.I.I.I.I.I.I.I.I.I.I.I.I.I.I.I.I.I.I.I.I.I.I.I.I.I.I.I.I.I.I.I.I.I.I.I.I.I.I.I.I.I.I.I.I.I.I.I.I.I.I.I.I.I.I.I.I.I.I.I.I.I.I.!.!.!.|.|.!.|.!.!.|.!.|.|.|.|.!.!.!.!.|.|.|.|.!.!.|.|.|.|.!.I.I.I.I.L.L.L.L.L.L.L.L.L.L.L.L.L.L.L.L.L.L.L.L.L.L.L.L.L.L.L.L.L.L.L.L.L.L.L.L.L.L.L.L.L.L.L.L.L.L.L.L.L.L.L.L.L.L.L.L.L.L.L.L.L.L.L.L.L.L.L.L.L.L.L.L.L.L.L.L.L.L.L.L.L.L.L.L.L.L.L.L.L.L.L.L.L.L.L.L.L.L.L.L.L.L.L.L.L.L.L.L.L.L.L.L.L.L.L.L.L.L.L.L.L.L.L.L.L.L.L.L.L.L.L.L.L.L.L.L.L.L.L.L.L.",
"I.I.|.|.|.|.I.I.I.I.I.I.I.I.|.I.|.|.|.I.I.I.I.I.I.I.I.I.I.I.I.I.I.I.I.I.I.I.I.I.I.I.I.I.I.I.I.I.I.I.I.I.I.I.I.I.I.I.I.I.I.I.I.I.I.I.I.I.I.I.I.I.I.I.I.I.I.I.I.I.I.I.I.I.I.I.I.I.I.I.I.I.I.I.I.I.I.I.I.I.I.I.I.I.I.I.I.I.I.I.I.I.I.I.I.I.I.I.I.I.I.I.I.I.I.!.!.!.|.!.!.|.|.|.|.!.|.|.!.!.!.!.!.!.!.!.|.|.!.!.|.|.|.!.!.I.I.I.I.L.L.L.L.L.L.L.L.L.L.L.L.L.L.L.L.L.L.L.L.L.L.L.L.L.L.L.L.L.L.L.L.L.L.L.L.L.L.L.L.L.L.L.L.L.L.L.L.L.L.L.L.L.L.L.L.L.L.L.L.L.L.L.L.L.L.L.L.L.L.L.L.L.L.L.L.L.L.L.L.L.L.L.L.L.L.L.L.L.L.L.L.L.L.L.L.L.L.L.L.L.L.L.L.L.L.L.L.L.L.L.L.L.L.L.L.L.L.L.L.L.L.L.L.L.L.L.L.L.L.L.L.L.L.L.L.L.L.L.L.L.",
"I.I.I.|.|.|.I.I.I.I.I.I.I.I.I.I.|.|.|.I.I.I.I.I.I.I.I.I.I.I.I.I.I.I.I.I.I.I.I.I.I.I.I.I.I.I.I.I.I.I.I.I.I.I.I.I.I.I.I.I.I.I.I.I.I.I.I.I.I.I.I.I.I.I.I.I.I.I.I.I.I.I.I.I.I.I.I.I.I.I.I.I.I.I.I.I.I.I.I.I.I.I.I.I.I.I.I.I.I.I.I.I.I.I.I.I.I.I.I.I.I.I.I.I.I.!.!.!.|.|.|.!.|.|.|.|.|.!.!.!.!.!.!.!.!.!.!.|.!.!.!.!.|.|.!.I.I.I.I.L.L.L.L.L.L.L.L.L.L.L.L.L.L.L.L.L.L.L.L.L.L.L.L.L.L.L.L.L.L.L.L.L.L.L.L.L.L.L.L.L.L.L.L.L.L.L.L.L.L.L.L.L.L.L.L.L.L.L.L.L.L.L.L.L.L.L.L.L.L.L.L.L.L.L.L.L.L.L.L.L.L.L.L.L.L.L.L.L.L.L.L.L.L.L.L.L.L.L.L.L.L.L.L.L.L.L.L.L.L.L.L.L.L.L.L.L.L.L.L.L.L.L.L.L.L.L.L.L.L.L.L.L.L.L.L.L.L.L.L.L.",
"I.I.|.|.|.|.I.I.I.I.I.I.I.I.I.I.I.I.I.I.|.|.I.I.I.I.|.|.I.I.I.I.I.I.I.I.I.I.I.I.I.I.I.I.I.I.I.I.I.I.I.I.I.I.I.I.I.I.I.I.I.I.I.I.I.I.I.I.I.I.I.I.I.I.I.I.I.I.I.I.I.I.I.I.I.I.I.I.I.I.I.I.I.I.I.I.I.I.I.I.I.I.I.I.I.I.I.I.I.I.I.I.I.I.I.I.I.I.I.I.I.I.I.I.|.|.|.!.!.!.!.|.|.|.!.!.!.!.!.!.!.!.!.!.!.!.|.|.|.!.!.!.|.|.|.|.I.I.L.L.L.L.L.L.L.L.L.L.L.L.L.L.L.L.L.L.L.L.L.L.L.L.L.L.L.L.L.L.L.L.L.L.L.L.L.L.L.L.L.L.L.L.L.L.L.L.L.L.L.L.L.L.L.L.L.L.L.L.L.L.L.L.L.L.L.L.L.L.L.L.L.L.L.L.L.L.L.L.L.L.L.L.L.L.L.L.L.L.L.L.L.L.L.L.L.L.L.L.L.L.L.L.L.L.L.L.L.L.L.L.L.L.L.L.L.L.L.L.L.L.L.L.L.L.L.L.L.L.L.L.L.L.L.L.L.L.L.L.L.L.",
"I.I.|.|.|.|.I.I.I.I.I.I.I.I.I.I.I.I.I.I.|.|.I.I.I.I.|.|.I.I.I.I.I.I.I.I.I.I.I.I.I.I.I.I.I.I.I.I.I.I.I.I.I.I.I.I.I.I.I.I.I.I.I.I.I.I.I.I.I.I.I.I.I.I.I.I.I.I.I.I.I.I.I.I.I.I.I.I.I.I.I.I.I.I.I.I.I.I.I.I.I.I.I.I.I.I.I.I.I.I.I.I.I.I.I.I.I.I.I.I.I.I.I.I.|.|.|.|.!.!.!.|.|.|.!.!.!.!.!.!.!.!.!.!.!.!.|.|.!.!.!.!.|.|.|.|.I.L.L.L.L.L.L.L.L.L.L.L.L.L.L.L.L.L.L.L.L.L.L.L.L.L.L.L.L.L.L.L.L.L.L.L.L.L.L.L.L.L.L.L.L.L.L.L.L.L.L.L.L.L.L.L.L.L.L.L.L.L.L.L.L.L.L.L.L.L.L.L.L.L.L.L.L.L.L.L.L.L.L.L.L.L.L.L.L.L.L.L.L.L.L.L.L.L.L.L.L.L.L.L.L.L.L.L.L.L.L.L.L.L.L.L.L.L.L.L.L.L.L.L.L.L.L.L.L.L.L.L.L.L.L.L.L.L.L.L.L.L.L.L.",
"I.I.I.|.|.I.I.I.I.I.|.I.|.|.|.|.I.I.|.|.|.|.I.I.I.|.|.|.I.I.I.I.I.I.I.I.I.I.I.I.I.I.I.I.I.I.I.I.I.I.I.I.I.I.I.I.I.I.I.I.I.I.I.I.I.I.I.I.I.I.I.I.I.I.I.I.I.I.I.I.I.I.I.I.I.I.I.I.I.I.I.I.I.I.I.I.I.I.I.I.I.I.I.I.I.I.I.I.I.I.I.I.I.I.I.I.I.I.I.I.I.I.I.I.|.|.|.|.!.!.!.!.!.!.!.!.!.!.!.!.!.!.!.|.!.!.!.!.!.!.!.!.|.|.|.|.L.L.L.L.L.L.L.L.L.L.L.L.L.L.L.L.L.L.L.L.L.L.L.L.L.L.L.L.L.L.L.L.L.L.L.L.L.L.L.L.L.L.L.L.L.L.L.L.L.L.L.L.L.L.L.L.L.L.L.L.L.L.L.L.L.L.L.L.L.L.L.L.L.L.L.L.L.L.L.L.L.L.L.L.L.L.L.L.L.L.L.L.L.L.L.L.L.L.L.L.L.L.L.L.L.L.L.L.L.L.L.L.L.L.L.L.L.L.L.L.L.L.L.L.L.L.L.L.L.L.L.L.L.L.L.L.L.L.L.L.L.L.L.L.",
"I.I.I.|.I.I.I.I.I.I.|.|.|.|.|.|.I.I.I.|.|.|.I.I.I.|.|.|.I.I.I.I.I.I.I.I.I.I.I.I.I.I.I.I.I.I.I.I.I.I.I.I.I.I.I.I.I.I.I.I.I.I.I.I.I.I.I.I.I.I.I.I.I.I.I.I.I.I.I.I.I.I.I.I.I.I.I.I.I.I.I.I.I.I.I.I.I.I.I.I.I.I.I.I.I.I.I.I.I.I.I.I.I.I.I.I.I.I.I.I.I.I.I.I.|.|.|.|.!.!.!.!.!.!.!.!.!.|.!.!.!.!.!.!.!.!.!.!.!.!.!.!.!.!.|.|.L.L.L.L.L.L.L.L.L.L.L.L.L.L.L.L.L.L.L.L.L.L.L.L.L.L.L.L.L.L.L.L.L.L.L.L.L.L.L.L.L.L.L.L.L.L.L.L.L.L.L.L.L.L.L.L.L.L.L.L.L.L.L.L.L.L.L.L.L.L.L.L.L.L.L.L.L.L.L.L.L.L.L.L.L.L.L.L.L.L.L.L.L.L.L.L.L.L.L.L.L.L.L.L.L.L.L.L.L.L.L.L.L.L.L.L.L.L.L.L.L.L.L.L.L.L.L.L.L.L.L.L.L.L.L.L.L.L.L.L.L.L.L.L.",
"|.I.I.I.|.|.|.|.I.I.I.I.I.I.I.I.I.I.I.|.|.|.I.I.|.|.|.|.I.I.I.I.I.I.I.I.I.I.I.I.I.I.I.I.I.I.I.I.I.I.I.I.I.I.I.I.I.I.I.I.I.I.I.I.I.I.I.I.I.I.I.I.I.I.I.I.I.I.I.I.I.I.I.I.I.I.I.I.I.I.I.I.I.I.I.I.I.I.I.I.I.I.I.I.I.I.I.I.I.I.I.I.I.I.I.I.I.I.I.I.I.I.I.I.I.!.!.!.!.!.!.!.!.!.!.|.!.!.!.!.!.!.!.!.!.!.!.!.!.!.!.!.!.!.!.I.I.L.L.L.L.L.L.L.L.L.L.L.L.L.L.L.L.L.L.L.L.L.L.L.L.L.L.L.L.L.L.L.L.L.L.L.L.L.L.L.L.L.L.L.L.L.L.L.L.L.L.L.L.L.L.L.L.L.L.L.L.L.L.L.L.L.L.L.L.L.L.L.L.L.L.L.L.L.L.L.L.L.L.L.L.L.L.L.L.L.L.L.L.L.L.L.L.L.L.L.L.L.L.L.L.L.L.L.L.L.L.L.L.L.L.L.L.L.L.L.L.L.L.L.L.L.L.L.L.L.L.L.L.L.L.L.L.L.L.L.L.L.L.L.",
"|.I.I.I.I.|.|.|.|.|.I.|.I.I.I.I.I.I.I.|.|.|.I.I.I.|.|.|.I.I.I.I.I.I.I.I.I.I.I.I.I.I.I.I.I.I.I.I.I.I.I.I.I.I.I.I.I.I.I.I.I.I.I.I.I.I.I.I.I.I.I.I.I.I.I.I.I.I.I.I.I.I.I.I.I.I.I.I.I.I.I.I.I.I.I.I.I.I.I.I.I.I.I.I.I.I.I.I.I.I.I.I.I.I.I.I.I.I.I.I.I.I.I.I.I.!.!.!.!.!.!.!.!.!.!.!.!.!.!.!.!.!.!.!.!.!.!.!.!.!.!.!.!.!.!.I.I.L.L.L.L.L.L.L.L.L.L.L.L.L.L.L.L.L.L.L.L.L.L.L.L.L.L.L.L.L.L.L.L.L.L.L.L.L.L.L.L.L.L.L.L.L.L.L.L.L.L.L.L.L.L.L.L.L.L.L.L.L.L.L.L.L.L.L.L.L.L.L.L.L.L.L.L.L.L.L.L.L.L.L.L.L.L.L.L.L.L.L.L.L.L.L.L.L.L.L.L.L.L.L.L.L.L.L.L.L.L.L.L.L.L.L.L.L.L.L.L.L.L.L.L.L.L.L.L.L.L.L.L.L.L.L.L.L.L.L.L.L.L.L.",
"|.|.I.I.I.I.|.|.|.|.|.|.|.|.I.I.I.I.I.I.|.|.|.I.I.I.|.|.I.I.I.I.I.I.I.I.I.I.I.I.I.I.I.I.I.I.I.I.I.I.I.I.I.I.I.I.I.I.I.I.I.I.I.I.I.I.I.I.I.I.I.I.I.I.I.I.I.I.I.I.I.I.I.I.I.I.I.I.I.I.I.I.I.I.I.I.I.I.I.I.I.I.I.I.I.I.I.I.I.I.I.I.I.I.I.I.I.I.I.I.I.I.I.I.I.!.!.!.!.!.!.!.!.!.!.!.!.!.!.!.!.!.|.!.!.|.!.!.!.!.!.!.!.!.!.I.L.L.L.L.L.L.L.L.L.L.L.L.L.L.L.L.L.L.L.L.L.L.L.L.L.L.L.L.L.L.L.L.L.L.L.L.L.L.L.L.L.L.L.L.L.L.L.L.L.L.L.L.L.L.L.L.L.L.L.L.L.L.L.L.L.L.L.L.L.L.L.L.L.L.L.L.L.L.L.L.L.L.L.L.L.L.L.L.L.L.L.L.L.L.L.L.L.L.L.L.L.L.L.L.L.L.L.L.L.L.L.L.L.L.L.L.L.L.L.L.L.L.L.L.L.L.L.L.L.L.L.L.L.L.L.L.L.L.L.L.L.L.L.L.",
"|.|.I.I.I.I.|.|.|.|.|.|.|.|.I.I.I.I.I.I.|.|.I.I.I.I.|.|.I.I.I.I.I.I.I.I.I.I.I.I.I.I.I.I.I.I.I.I.I.I.I.I.I.I.I.I.I.I.I.I.I.I.I.I.I.I.I.I.I.I.I.I.I.I.I.I.I.I.I.I.I.I.I.I.I.I.I.I.I.I.I.I.I.I.I.I.I.I.I.I.I.I.I.I.I.I.I.I.I.I.I.I.I.I.I.I.I.I.I.I.I.I.I.I.I.!.|.|.!.!.!.!.!.!.!.!.!.!.!.!.!.!.!.!.!.|.!.!.!.!.!.!.!.!.!.I.L.L.L.L.L.L.L.L.L.L.L.L.L.L.L.L.L.L.L.L.L.L.L.L.L.L.L.L.L.L.L.L.L.L.L.L.L.L.L.L.L.L.L.L.L.L.L.L.L.L.L.L.L.L.L.L.L.L.L.L.L.L.L.L.L.L.L.L.L.L.L.L.L.L.L.L.L.L.L.L.L.L.L.L.L.L.L.L.L.L.L.L.L.L.L.L.L.L.L.L.L.L.L.L.L.L.L.L.L.L.L.L.L.L.L.L.L.L.L.L.L.L.L.L.L.L.L.L.L.L.L.L.L.L.L.L.L.L.L.L.L.L.L.L.",
"|.|.|.I.I.I.I.I.|.|.|.I.|.|.|.|.|.|.|.I.I.I.I.I.I.I.I.I.I.I.I.I.I.I.I.I.I.I.I.I.I.I.I.I.I.I.I.I.I.I.I.I.I.I.I.I.I.I.I.I.I.I.I.I.I.I.I.I.I.I.I.I.I.I.I.I.I.I.I.I.I.I.I.I.I.I.I.I.I.I.I.I.I.I.I.I.I.I.I.I.I.I.I.I.I.I.I.I.I.I.I.I.I.I.I.I.I.I.I.I.I.I.I.I.I.|.|.|.!.!.!.!.!.!.|.!.|.!.!.!.!.|.!.!.!.!.!.!.!.!.|.!.|.|.|.|.L.L.L.L.L.L.L.L.L.L.L.L.L.L.L.L.L.L.L.L.L.L.L.L.L.L.L.L.L.L.L.L.L.L.L.L.L.L.L.L.L.L.L.L.L.L.L.L.L.L.L.L.L.L.L.L.L.L.L.L.L.L.L.L.L.L.L.L.L.L.L.L.L.L.L.L.L.L.L.L.L.L.L.L.L.L.L.L.L.L.L.L.L.L.L.L.L.L.L.L.L.L.L.L.L.L.L.L.L.L.L.L.L.L.L.L.L.L.L.L.L.L.L.L.L.L.L.L.L.L.L.L.L.L.L.L.L.L.L.L.L.L.L.L.",
"|.|.I.I.I.I.I.I.|.|.|.I.|.|.I.|.|.|.|.|.I.I.I.|.I.I.I.I.I.I.I.I.I.I.I.I.I.I.I.I.I.I.I.I.I.I.I.I.I.I.I.I.I.I.I.I.I.I.I.I.I.I.I.I.I.I.I.I.I.I.I.I.I.I.I.I.I.I.I.I.I.I.I.I.I.I.I.I.I.I.I.I.I.I.I.I.I.I.I.I.I.I.I.I.I.I.I.I.I.I.I.I.I.I.I.I.I.I.I.I.I.I.I.I.I.|.|.|.!.!.!.|.!.!.|.!.!.!.!.!.!.!.!.!.!.!.!.!.!.!.|.!.|.|.|.!.L.L.L.L.L.L.L.L.L.L.L.L.L.L.L.L.L.L.L.L.L.L.L.L.L.L.L.L.L.L.L.L.L.L.L.L.L.L.L.L.L.L.L.L.L.L.L.L.L.L.L.L.L.L.L.L.L.L.L.L.L.L.L.L.L.L.L.L.L.L.L.L.L.L.L.L.L.L.L.L.L.L.L.L.L.L.L.L.L.L.L.L.L.L.L.L.L.L.L.L.L.L.L.L.L.L.L.L.L.L.L.L.L.L.L.L.L.L.L.L.L.L.L.L.L.L.L.L.L.L.L.L.L.L.L.L.L.L.L.L.L.L.L.L.",
"I.I.I.I.I.I.I.I.|.|.I.I.I.I.I.I.|.|.I.I.I.I.|.|.|.|.I.I.I.I.I.I.I.I.I.I.I.I.I.I.I.I.I.I.I.I.I.I.I.I.I.I.I.I.I.I.I.I.I.I.I.I.I.I.I.I.I.I.I.I.I.I.I.I.I.I.I.I.I.I.I.I.I.I.I.I.I.I.I.I.I.I.L.L.L.L.L.L.L.L.L.L.L.L.L.L.L.L.L.L.L.L.L.L.L.L.L.L.L.L.L.L.L.L.L.!.!.!.!.!.!.!.!.!.!.!.!.!.!.!.!.!.!.!.!.!.!.!.!.!.!.!.!.!.!.!.L.L.L.L.L.L.L.L.L.L.L.L.L.L.L.L.L.L.L.L.L.L.L.L.L.L.L.L.L.L.L.L.L.L.L.L.L.L.L.L.L.L.L.L.L.L.L.L.L.L.L.L.L.L.L.L.L.L.L.L.L.L.L.L.L.L.L.L.L.L.L.L.L.L.L.L.L.L.L.L.L.L.L.L.L.L.L.L.L.L.L.L.L.L.L.L.L.L.L.L.L.L.L.L.L.L.L.L.L.L.L.L.L.L.L.L.L.L.L.L.L.L.L.L.L.L.L.L.L.L.L.L.L.L.L.L.L.L.L.L.L.L.L.L.",
"I.I.I.I.I.I.I.|.|.|.I.I.I.I.I.I.|.|.I.I.I.I.|.|.|.|.|.|.I.I.I.I.I.I.I.I.I.I.I.I.I.I.I.I.I.I.I.I.I.I.I.I.I.I.I.I.I.I.I.I.I.I.I.I.I.I.I.I.I.I.I.I.I.I.I.I.I.I.I.I.I.I.I.I.I.I.I.I.I.I.I.I.L.L.L.L.L.L.L.L.L.L.L.L.L.L.L.L.L.L.L.L.L.L.L.L.L.L.L.L.L.L.L.L.L.!.!.!.!.!.!.!.!.!.!.!.!.!.!.!.!.!.!.!.!.!.!.!.!.!.!.!.!.!.!.!.L.L.L.L.L.L.L.L.L.L.L.L.L.L.L.L.L.L.L.L.L.L.L.L.L.L.L.L.L.L.L.L.L.L.L.L.L.L.L.L.L.L.L.L.L.L.L.L.L.L.L.L.L.L.L.L.L.L.L.L.L.L.L.L.L.L.L.L.L.L.L.L.L.L.L.L.L.L.L.L.L.L.L.L.L.L.L.L.L.L.L.L.L.L.L.L.L.L.L.L.L.L.L.L.L.L.L.L.L.L.L.L.L.L.L.L.L.L.L.L.L.L.L.L.L.L.L.L.L.L.L.L.L.L.L.L.L.L.L.L.L.L.L.L.",
"I.I.|.I.I.I.I.I.|.|.|.|.|.|.I.I.I.I.I.I.I.I.I.I.|.|.|.|.I.I.I.I.I.I.I.I.I.I.I.I.I.I.I.I.I.I.I.I.I.I.I.I.I.I.I.I.I.I.I.I.I.I.I.I.I.I.I.I.I.I.I.I.I.I.I.I.I.I.I.I.I.I.I.I.I.I.I.I.I.I.I.I.L.L.L.L.L.L.L.L.L.L.L.L.L.L.L.L.L.L.L.L.L.L.L.L.L.L.L.L.L.L.L.L.!.!.!.!.!.!.!.!.!.!.!.!.!.!.!.!.!.!.!.!.!.!.!.!.!.!.!.!.!.!.!.L.L.L.L.L.L.L.L.L.L.L.L.L.L.L.L.L.L.L.L.L.L.L.L.L.L.L.L.L.L.L.L.L.L.L.L.L.L.L.L.L.L.L.L.L.L.L.L.L.L.L.L.L.L.L.L.L.L.L.L.L.L.L.L.L.L.L.L.L.L.L.L.L.L.L.L.L.L.L.L.L.L.L.L.L.L.L.L.L.L.L.L.L.L.L.L.L.L.L.L.L.L.L.L.L.L.L.L.L.L.L.L.L.L.L.L.L.L.L.L.L.L.L.L.L.L.L.L.L.L.L.L.L.L.L.L.L.L.L.L.L.L.L.L.L.",
"I.I.|.|.I.I.I.I.|.|.|.|.I.|.I.I.|.|.I.|.I.I.I.I.|.I.|.|.I.I.I.I.I.I.I.I.I.I.I.I.I.I.I.I.I.I.I.I.I.I.I.I.I.I.I.I.I.I.I.I.I.I.I.I.I.I.I.I.I.I.I.I.I.I.I.I.I.I.I.I.I.I.I.I.I.I.I.I.I.I.I.I.L.L.L.L.L.L.L.L.L.L.L.L.L.L.L.L.L.L.L.L.L.L.L.L.L.L.L.L.L.L.L.L.!.!.!.!.!.!.!.!.!.!.!.!.!.!.!.!.!.!.!.!.!.!.!.!.!.!.!.!.!.!.!.L.L.L.L.L.L.L.L.L.L.L.L.L.L.L.L.L.L.L.L.L.L.L.L.L.L.L.L.L.L.L.L.L.L.L.L.L.L.L.L.L.L.L.L.L.L.L.L.L.L.L.L.L.L.L.L.L.L.L.L.L.L.L.L.L.L.L.L.L.L.L.L.L.L.L.L.L.L.L.L.L.L.L.L.L.L.L.L.L.L.L.L.L.L.L.L.L.L.L.L.L.L.L.L.L.L.L.L.L.L.L.L.L.L.L.L.L.L.L.L.L.L.L.L.L.L.L.L.L.L.L.L.L.L.L.L.L.L.L.L.L.L.L.L.L.",
"|.|.|.|.|.I.I.I.I.|.I.I.I.I.I.I.|.|.|.|.|.|.I.I.I.I.I.I.I.I.I.I.I.I.I.I.I.I.I.I.I.I.I.I.I.I.I.I.I.I.I.I.I.I.I.I.I.I.I.I.I.I.I.I.I.I.I.I.I.I.I.I.I.I.I.I.I.I.I.I.I.I.I.I.I.I.I.I.I.I.I.I.L.L.L.L.L.L.L.L.L.L.L.L.L.L.L.L.L.L.L.L.L.L.L.L.L.L.L.L.L.L.L.L.!.!.!.!.!.!.!.!.!.!.!.!.!.!.!.!.!.!.!.!.!.!.!.!.!.!.!.!.!.!.!.L.L.L.L.L.L.L.L.L.L.L.L.L.L.L.L.L.L.L.L.L.L.L.L.L.L.L.L.L.L.L.L.L.L.L.L.L.L.L.L.L.L.L.L.L.L.L.L.L.L.L.L.L.L.L.L.L.L.L.L.L.L.L.L.L.L.L.L.L.L.L.L.L.L.L.L.L.L.L.L.L.L.L.L.L.L.L.L.L.L.L.L.L.L.L.L.L.L.L.L.L.L.L.L.L.L.L.L.L.L.L.L.L.L.L.L.L.L.L.L.L.L.L.L.L.L.L.L.L.L.L.L.L.L.L.L.L.L.L.L.L.L.L.L.L.",
"|.|.|.|.|.I.I.I.I.I.I.I.I.I.I.I.|.|.|.|.|.|.I.I.I.I.I.I.I.I.I.I.I.I.I.I.I.I.I.I.I.I.I.I.I.I.I.I.I.I.I.I.I.I.I.I.I.I.I.I.I.I.I.I.I.I.I.I.I.I.I.I.I.I.I.I.I.I.I.I.I.I.I.I.I.I.I.I.I.I.I.I.L.L.L.L.L.L.L.L.L.L.L.L.L.L.L.L.L.L.L.L.L.L.L.L.L.L.L.L.L.L.L.L.!.!.!.!.!.!.!.!.!.!.!.!.!.!.!.!.!.!.!.!.!.!.!.!.!.!.!.!.!.!.!.L.L.L.L.L.L.L.L.L.L.L.L.L.L.L.L.L.L.L.L.L.L.L.L.L.L.L.L.L.L.L.L.L.L.L.L.L.L.L.L.L.L.L.L.L.L.L.L.L.L.L.L.L.L.L.L.L.L.L.L.L.L.L.L.L.L.L.L.L.L.L.L.L.L.L.L.L.L.L.L.L.L.L.L.L.L.L.L.L.L.L.L.L.L.L.L.L.L.L.L.L.L.L.L.L.L.L.L.L.L.L.L.L.L.L.L.L.L.L.L.L.L.L.L.L.L.L.L.L.L.L.L.L.L.L.L.L.L.L.L.L.L.L.L.L.",
"I.I.I.I.|.|.|.|.I.I.I.I.|.|.|.|.I.I.I.I.|.|.|.|.|.I.I.I.I.I.I.I.I.I.I.I.I.I.I.I.I.I.I.I.I.I.I.I.I.I.I.I.I.I.I.I.I.I.I.I.I.I.I.I.I.I.I.I.I.I.I.I.I.I.I.I.I.I.I.I.I.I.I.I.I.I.I.I.I.I.I.I.L.L.L.L.L.L.L.L.L.L.L.L.L.L.L.L.L.L.L.L.L.L.L.L.L.L.L.L.L.L.L.L.L.!.!.!.!.!.!.!.!.!.!.!.!.!.!.!.!.!.!.!.!.!.!.!.!.!.!.!.!.!.!.!.L.L.L.L.L.L.L.L.L.L.L.L.L.L.L.L.L.L.L.L.L.L.L.L.L.L.L.L.L.L.L.L.L.L.L.L.L.L.L.L.L.L.L.L.L.L.L.L.L.L.L.L.L.L.L.L.L.L.L.L.L.L.L.L.L.L.L.L.L.L.L.L.L.L.L.L.L.L.L.L.L.L.L.L.L.L.L.L.L.L.L.L.L.L.L.L.L.L.L.L.L.L.L.L.L.L.L.L.L.L.L.L.L.L.L.L.L.L.L.L.L.L.L.L.L.L.L.L.L.L.L.L.L.L.L.L.L.L.L.L.L.L.L.L.",
"I.I.I.I.|.|.|.|.I.I.I.I.I.|.|.|.I.I.I.I.|.|.I.|.|.|.I.I.I.I.I.I.I.I.I.I.I.I.I.I.I.I.I.I.I.I.I.I.I.I.I.I.I.I.I.I.I.I.I.I.I.I.I.I.I.I.I.I.I.I.I.I.I.I.I.I.I.I.I.I.I.I.I.I.I.I.I.I.I.I.I.I.L.L.L.L.L.L.L.L.L.L.L.L.L.L.L.L.L.L.L.L.L.L.L.L.L.L.L.L.L.L.L.L.L.!.!.!.!.!.!.!.!.!.!.!.!.!.!.!.!.!.!.!.!.!.!.!.!.!.!.!.!.!.!.!.L.L.L.L.L.L.L.L.L.L.L.L.L.L.L.L.L.L.L.L.L.L.L.L.L.L.L.L.L.L.L.L.L.L.L.L.L.L.L.L.L.L.L.L.L.L.L.L.L.L.L.L.L.L.L.L.L.L.L.L.L.L.L.L.L.L.L.L.L.L.L.L.L.L.L.L.L.L.L.L.L.L.L.L.L.L.L.L.L.L.L.L.L.L.L.L.L.L.L.L.L.L.L.L.L.L.L.L.L.L.L.L.L.L.L.L.L.L.L.L.L.L.L.L.L.L.L.L.L.L.L.L.L.L.L.L.L.L.L.L.L.L.L.L.",
"|.|.|.|.|.|.|.|.|.|.|.|.|.|.|.|.|.|.|.|.|.|.|.|.|.|.|.|.I.I.|.|.|.|.|.|.I.I.|.|.|.|.|.|.I.I.|.|.|.|.|.|.I.I.I.|.I.I.|.|.|.|.|.|.|.|.I.I.I.I.I.I.I.I.I.I.I.I.I.I.I.I.I.I.I.I.I.I.I.I.I.I.L.L.L.L.L.L.L.L.L.L.L.L.L.L.L.L.L.L.L.L.L.L.L.L.L.L.L.L.L.L.L.L.L.!.!.!.!.!.!.!.!.!.!.!.!.!.!.!.!.!.!.!.!.!.!.!.!.!.!.!.!.!.!.!.L.L.L.L.L.L.L.L.L.L.L.L.L.L.L.L.L.L.L.L.L.L.L.L.L.L.L.L.L.L.L.L.L.L.L.L.L.L.L.L.L.L.L.L.L.L.L.L.L.L.L.L.L.L.L.L.L.L.L.L.L.L.L.L.L.L.L.L.L.L.L.L.L.L.L.L.L.L.L.L.L.L.L.L.L.L.L.L.L.L.L.L.L.L.L.L.L.L.L.L.L.L.L.L.L.L.L.L.L.L.L.L.L.L.L.L.L.L.L.L.L.L.L.L.L.L.L.L.L.L.L.L.L.L.L.L.L.L.L.L.L.L.L.L.",
"!.!.!.!.!.!.!.!.!.!.!.!.!.!.!.!.!.!.!.!.!.!.!.!.!.!.!.|.!.!.|.|.|.|.|.|.|.|.|.|.|.|.|.|.|.|.|.|.|.|.|.|.!.!.|.|.!.!.|.|.|.|.|.|.|.|.|.I.I.I.I.I.I.I.I.I.I.I.I.I.I.I.I.I.I.I.I.I.I.I.I.L.L.L.L.L.L.L.L.L.L.L.L.L.L.L.L.L.L.L.L.L.L.L.L.L.L.L.L.L.L.L.L.L.L.!.!.!.!.!.!.!.!.!.!.!.!.!.!.!.!.!.!.!.!.!.!.!.!.!.!.!.!.!.!.!.L.L.L.L.L.L.L.L.L.L.L.L.L.L.L.L.L.L.L.L.L.L.L.L.L.L.L.L.L.L.L.L.L.L.L.L.L.L.L.L.L.L.L.L.L.L.L.L.L.L.L.L.L.L.L.L.L.L.L.L.L.L.L.L.L.L.L.L.L.L.L.L.L.L.L.L.L.L.L.L.L.L.L.L.L.L.L.L.L.L.L.L.L.L.L.L.L.L.L.L.L.L.L.L.L.L.L.L.L.L.L.L.L.L.L.L.L.L.L.L.L.L.L.L.L.L.L.L.!.L.L.L.!.!.!.!.!.!.!.!.L.L.L.L.",
"!.!.!.!.!.!.!.!.!.!.!.!.!.!.!.!.!.!.!.!.!.!.!.!.!.!.!.|.!.!.!.!.!.!.!.!.!.!.!.!.!.!.!.!.!.!.!.!.!.!.!.!.!.!.!.!.!.!.!.!.!.!.!.!.!.!.!.!.!.!.L.L.L.L.!.!.L.L.L.L.L.L.L.L.L.L.L.L.L.L.L.L.!.!.L.L.!.!.!.!.L.L.L.L.L.L.L.L.L.L.L.L.!.!.!.!.L.L.L.L.L.L.L.L.!.!.!.!.!.!.!.!.!.!.!.!.!.!.!.!.!.!.!.!.!.!.!.!.!.!.!.!.!.!.!.L.L.L.L.L.L.L.L.L.L.L.L.L.L.L.L.L.L.L.L.L.L.L.L.L.L.L.L.L.L.L.L.L.L.L.L.L.L.L.L.L.L.L.L.L.L.L.L.L.L.L.L.L.L.L.L.L.L.L.L.L.L.L.L.L.L.L.L.L.L.L.L.L.L.L.L.L.L.L.L.L.L.L.L.L.L.L.L.L.L.L.L.L.L.L.L.L.L.L.L.L.L.L.L.L.L.L.L.L.L.L.L.L.L.L.L.L.L.L.L.L.L.L.L.L.L.L.L.L.!.!.L.L.!.!.!.!.L.L.L.L.L.!.!.!.",
"!.!.!.!.!.!.!.!.!.!.!.!.!.!.!.!.!.!.!.!.!.!.!.!.!.!.!.!.!.!.!.!.!.!.!.!.!.!.!.!.!.!.!.!.!.!.!.!.!.!.!.!.!.!.!.!.!.!.!.!.!.!.!.!.!.!.!.!.!.!.!.!.!.!.!.!.!.L.L.L.L.L.L.L.L.L.L.L.L.L.L.L.!.!.!.!.!.!.!.!.!.!.!.!.!.!.!.!.!.!.!.!.!.!.!.!.!.!.!.!.!.!.!.!.!.!.!.!.!.!.!.!.!.!.!.!.!.!.!.!.!.!.!.!.!.!.!.!.!.!.!.!.!.!.!.L.L.L.L.L.L.L.L.L.L.L.L.L.L.L.L.L.L.L.L.L.L.L.L.L.L.L.L.L.L.L.L.L.L.L.L.L.L.L.L.L.L.L.L.L.L.L.L.L.L.L.L.L.L.L.L.L.L.L.L.L.L.L.L.L.L.L.L.L.L.L.L.L.L.L.L.L.L.L.L.L.L.L.L.L.L.L.L.L.L.L.L.L.L.L.L.L.L.L.L.L.L.L.L.L.L.L.L.L.L.L.L.L.L.L.L.L.L.L.L.L.L.L.L.L.L.L.L.L.!.!.L.!.!.!.!.!.L.L.L.L.L.!.!.!.",
"!.!.!.!.!.!.!.!.!.!.!.!.!.!.!.!.!.!.!.!.!.!.!.!.!.!.!.!.!.!.!.!.!.!.!.!.!.!.!.!.!.!.!.!.!.!.!.!.!.!.!.!.!.!.!.!.!.!.!.!.!.!.!.!.!.!.!.!.!.!.!.!.!.!.!.!.!.!.L.L.L.L.L.L.L.L.L.L.L.L.L.L.!.!.!.!.!.!.!.!.!.!.!.!.!.!.!.!.!.!.!.!.!.!.!.!.!.!.!.!.!.!.!.!.!.!.!.!.!.!.!.!.!.!.!.!.!.!.!.!.!.!.!.!.!.!.!.!.!.!.!.!.!.!.!.!.!.!.L.!.!.!.!.!.!.!.!.!.L.L.!.!.!.!.!.!.!.!.!.!.!.!.!.!.!.!.!.!.L.!.!.!.!.!.!.!.L.L.L.L.!.!.!.!.L.L.L.L.!.!.!.!.L.L.L.L.!.!.!.!.L.L.L.L.!.!.!.!.!.!.!.!.L.L.L.L.!.!.!.!.!.!.!.!.L.L.L.L.!.!.!.!.!.!.!.!.L.L.L.L.!.!.!.!.!.!.!.!.L.L.L.L.!.!.!.!.!.!.!.!.L.L.L.L.!.!.!.!.!.!.!.!.!.!.!.!.!.!.!.!.",
"!.!.!.!.!.!.!.!.!.!.!.!.!.!.!.!.!.!.!.!.!.!.!.!.!.!.!.!.!.!.!.!.!.!.!.!.!.!.!.!.!.!.!.!.!.!.!.!.!.!.!.!.!.!.!.!.!.!.!.!.!.!.!.!.!.!.!.!.!.!.!.!.!.!.!.!.!.!.!.L.L.L.L.L.L.L.L.L.L.L.L.L.!.!.!.!.!.!.!.!.!.!.!.!.!.!.!.!.!.!.!.!.!.!.!.!.!.!.!.!.!.!.!.!.!.!.!.!.!.!.!.!.!.!.!.!.!.!.!.!.!.!.!.!.!.!.!.!.!.!.!.!.!.!.!.!.!.!.!.!.!.!.!.!.!.!.!.!.!.!.!.!.!.!.!.!.!.!.!.!.!.!.!.!.!.!.!.!.!.!.!.!.!.!.!.!.!.!.!.!.!.!.!.!.!.!.!.!.!.!.!.!.!.!.!.!.!.!.!.!.!.!.!.!.!.!.!.!.!.!.!.!.!.!.!.!.!.!.!.!.!.!.!.!.!.!.!.!.!.!.!.!.!.!.!.!.!.!.!.!.!.!.!.!.!.!.!.!.!.!.!.!.!.!.!.!.!.!.!.!.!.!.!.!.!.!.!.!.!.!.!.!.!.!.!.!.!.!.!.!.",
"!.!.!.!.!.!.!.!.!.!.!.!.!.!.!.!.!.!.!.!.!.!.!.!.!.!.!.!.!.!.!.!.!.!.!.!.!.!.!.!.!.!.!.!.!.!.!.!.!.!.!.!.!.!.!.!.!.!.!.!.!.!.!.!.!.!.!.!.!.!.!.!.!.!.!.!.!.!.!.!.L.L.L.L.L.L.L.L.L.L.L.L.!.!.!.!.!.!.!.!.!.!.!.!.!.!.!.!.!.!.!.!.!.!.!.!.!.!.!.!.!.!.!.!.!.!.!.!.!.!.!.!.!.!.!.!.!.!.!.!.!.!.!.!.!.!.!.!.!.!.!.!.!.!.!.!.!.!.!.!.!.!.!.!.!.!.!.!.!.!.!.!.!.!.!.!.!.!.!.!.!.!.!.!.!.!.!.!.!.!.!.!.!.!.!.!.!.!.!.!.!.!.!.!.!.!.!.!.!.!.!.!.!.!.!.!.!.!.!.!.!.!.!.!.!.!.!.!.!.!.!.!.!.!.!.!.!.!.!.!.!.!.!.!.!.!.!.!.!.!.!.!.!.!.!.!.!.!.!.!.!.!.!.!.!.!.!.!.!.!.!.!.!.!.!.!.!.!.!.!.!.!.!.!.!.!.!.!.!.!.!.!.!.!.!.!.!.!.!.!.",
"!.!.!.!.!.!.!.!.!.!.!.!.!.!.!.!.!.!.!.!.!.!.!.!.!.!.!.!.!.!.!.!.!.!.!.!.!.!.!.!.!.!.!.!.!.!.!.!.!.!.!.!.!.!.!.!.!.!.!.!.!.!.!.!.!.!.!.!.!.!.!.!.!.!.!.!.!.!.!.!.!.L.L.!.!.!.!.!.L.L.!.!.!.!.!.!.!.!.!.!.!.!.!.!.!.!.!.!.!.!.!.!.!.!.!.!.!.!.!.!.!.!.!.!.L.L.!.!.!.!.!.!.L.L.L.L.!.!.!.!.!.!.!.!.L.L.L.L.!.!.!.!.L.!.!.!.!.!.!.!.!.!.!.!.!.!.!.!.!.!.!.!.!.!.!.!.!.!.!.!.!.!.!.!.!.!.!.!.!.!.!.!.!.!.!.!.!.!.!.!.!.!.!.!.!.!.!.!.!.!.!.!.!.!.!.!.!.!.!.!.!.!.!.!.!.!.!.!.!.!.!.!.!.!.!.!.!.!.!.!.!.!.!.!.!.!.!.!.!.!.!.!.!.!.!.!.!.!.!.!.!.!.!.!.!.!.!.!.!.!.!.!.!.!.!.!.!.!.!.!.!.!.!.!.!.!.!.!.!.!.!.!.!.!.!.!.!.!.!.!.",
"!.!.!.!.!.!.!.!.!.!.!.!.!.!.!.!.!.!.!.!.!.!.!.!.!.!.!.!.!.!.!.!.!.!.!.!.!.!.!.!.!.!.!.!.!.!.!.!.!.!.!.!.!.!.!.!.!.!.!.!.!.!.!.!.!.!.!.!.!.!.!.!.!.!.!.!.!.!.!.!.!.!.!.!.!.!.!.!.L.L.L.!.!.!.!.!.!.!.!.!.!.!.!.!.!.!.!.!.!.!.!.!.!.!.!.!.!.!.!.!.!.!.!.!.L.L.L.L.L.L.!.!.!.L.L.L.!.!.L.L.L.L.!.!.!.L.L.L.!.!.L.L.L.!.!.!.!.!.!.!.!.!.!.!.!.!.!.!.!.!.!.!.!.!.!.!.!.!.!.!.!.!.!.!.!.!.!.!.!.!.!.!.!.!.!.!.!.!.!.!.!.!.!.!.!.!.!.!.!.!.!.!.!.!.!.!.!.!.!.!.!.!.!.!.!.!.!.!.!.!.!.!.!.!.!.!.!.!.!.!.!.!.!.!.!.!.!.!.!.!.!.!.!.!.!.!.!.!.!.!.!.!.!.!.!.!.!.!.!.!.!.!.!.!.!.!.!.!.!.!.!.!.!.!.!.!.!.!.!.!.!.!.!.!.!.!.!.!.!.!.",
"!.!.!.!.!.!.!.!.!.!.!.!.!.!.!.!.!.!.!.!.!.!.!.!.!.!.!.!.|.|.|.|.|.|.|.|.|.|.|.|.|.|.|.|.|.|.|.|.|.|.!.!.!.!.!.!.!.!.!.!.!.!.!.!.!.!.!.!.!.!.!.!.!.!.!.!.!.!.!.!.!.!.!.!.!.!.!.!.!.!.L.!.!.!.!.!.!.!.!.!.!.!.!.!.!.!.!.!.!.!.!.!.!.!.!.!.!.!.!.!.!.!.!.!.L.L.L.L.L.L.!.!.!.L.L.L.L.L.L.L.L.L.!.!.!.L.L.L.L.L.L.L.L.!.!.!.!.!.!.!.!.!.!.!.!.!.!.!.!.!.!.!.!.!.!.!.!.!.!.!.!.!.!.!.!.!.!.!.!.!.!.!.!.!.!.!.!.!.!.!.!.!.!.!.!.!.!.!.!.!.!.!.!.!.!.!.!.!.!.!.!.!.!.!.!.!.!.!.!.!.!.!.!.!.!.!.!.!.!.!.!.!.!.!.!.!.!.!.!.!.!.!.!.!.!.!.!.!.!.!.!.!.!.!.!.!.!.!.!.!.!.!.!.!.!.!.!.!.!.!.!.!.!.!.!.!.!.!.!.!.!.!.!.!.!.!.!.!.!.!.",
"!.!.!.!.!.!.!.!.!.!.!.!.!.!.!.!.!.!.!.!.!.!.!.!.!.!.!.!.!.!.!.!.!.!.!.!.!.!.!.!.!.!.!.!.!.!.!.!.!.!.!.!.!.!.!.!.!.!.!.!.!.!.!.!.!.!.!.!.!.!.!.!.!.!.!.!.!.!.!.!.!.!.!.!.!.!.!.!.!.!.!.!.!.!.!.!.!.!.!.!.!.!.!.!.!.!.!.!.!.!.!.!.!.!.!.!.!.!.!.!.!.!.!.!.!.!.!.!.!.!.!.!.!.!.!.!.!.!.!.!.!.!.!.!.!.!.!.!.!.!.!.!.!.!.!.!.!.!.!.!.!.!.!.!.!.!.!.!.!.!.!.!.!.!.!.!.!.!.!.!.!.!.!.!.!.!.!.!.!.!.!.!.!.!.!.!.!.!.!.!.!.!.!.!.!.!.!.!.!.!.!.!.!.!.!.!.!.!.!.!.!.!.!.!.!.!.!.!.!.!.!.!.!.!.!.!.!.!.!.!.!.!.!.!.!.!.!.!.!.!.!.!.!.!.!.!.!.!.!.!.!.!.!.!.!.!.!.!.!.!.!.!.!.!.!.!.!.!.!.!.!.!.!.!.!.!.!.!.!.!.!.!.!.!.!.!.!.!.!.!.",
"!.!.!.!.!.!.!.!.!.!.!.!.!.!.!.!.!.!.!.!.!.!.!.!.!.!.!.!.!.!.!.!.!.!.!.!.!.!.!.!.!.!.!.!.!.!.!.!.!.!.!.!.!.!.!.!.!.!.!.!.!.!.!.!.!.!.!.!.!.!.!.!.!.!.!.!.!.!.!.!.!.!.!.!.!.!.!.!.!.!.!.!.!.!.!.!.!.!.!.!.!.!.!.!.!.!.!.!.!.!.!.!.!.!.!.!.!.!.!.!.!.!.!.!.!.!.!.!.!.!.!.!.!.!.!.!.!.!.!.!.!.!.!.!.!.!.!.!.!.!.!.!.!.!.!.!.!.!.!.L.L.L.L.L.!.!.!.!.!.!.L.L.!.!.!.!.!.!.!.!.!.!.L.L.!.!.!.!.!.!.!.!.!.!.!.!.!.!.!.!.!.!.!.!.!.!.!.!.!.!.!.!.!.!.!.!.!.!.!.!.!.!.L.L.L.L.!.L.!.!.!.!.!.!.!.!.!.!.L.L.!.!.!.!.L.L.!.!.!.!.L.!.!.!.!.!.!.!.!.!.!.!.!.!.!.!.!.!.!.!.!.!.!.!.!.!.!.!.!.!.!.!.!.!.L.L.!.!.!.L.L.L.!.!.!.!.!.!.L.L.",
"!.!.!.!.!.!.!.!.!.!.!.!.!.!.!.!.!.!.!.!.!.!.!.!.!.!.!.!.!.!.!.!.!.!.!.!.!.!.!.!.!.!.!.!.!.!.!.!.!.!.!.!.!.!.!.!.!.!.!.!.!.!.!.!.!.!.!.!.!.!.!.!.!.!.!.!.!.!.!.!.!.!.!.!.!.!.!.!.!.!.!.!.!.!.!.!.!.!.!.!.!.!.!.!.!.!.!.!.!.!.!.!.!.!.!.!.!.!.!.!.!.!.!.!.!.!.!.!.!.!.!.!.!.!.!.!.!.!.!.!.!.!.!.!.!.!.!.!.!.!.!.!.!.!.!.!.!.!.!.L.L.L.L.L.L.L.L.L.L.L.L.L.L.L.L.L.L.L.L.L.L.L.L.L.L.L.L.L.!.!.L.L.L.L.!.!.L.!.L.L.L.L.!.!.L.!.L.L.L.L.!.!.L.!.L.L.!.!.!.!.L.L.L.L.L.L.L.L.L.L.L.L.L.L.L.L.L.L.L.L.L.L.L.L.L.L.L.L.L.L.L.L.!.!.!.!.L.L.!.!.!.!.L.L.!.L.!.!.!.!.!.!.L.L.L.!.!.!.L.L.L.L.!.!.L.L.L.L.L.L.L.L.L.L.L.L.L.L.L.L.",
"!.!.!.!.!.!.!.!.!.!.!.!.!.!.!.!.!.!.!.!.!.!.!.!.!.!.!.!.!.!.!.!.!.!.!.!.!.!.!.!.!.!.!.!.!.!.!.!.!.!.!.!.!.!.!.!.!.!.!.!.!.!.!.!.!.!.!.!.!.!.!.!.!.!.!.!.!.!.!.!.!.!.!.!.!.!.!.!.!.!.!.!.!.!.!.!.!.!.!.!.!.!.!.!.!.!.!.!.!.!.!.!.!.!.!.!.!.!.!.!.!.!.!.!.!.!.!.!.!.!.!.!.!.!.!.!.!.!.!.!.!.!.!.!.!.!.!.!.!.!.!.!.!.!.!.!.!.!.!.L.L.L.L.L.L.L.L.L.L.L.L.L.L.L.L.L.L.L.L.L.L.L.L.L.L.L.L.L.L.!.L.L.L.L.!.!.!.!.L.L.L.L.!.!.!.!.L.L.L.L.!.!.!.!.L.L.L.L.!.!.L.L.L.L.L.L.L.L.L.L.L.L.L.L.L.L.L.L.L.L.L.L.L.L.L.L.L.L.L.L.L.L.!.!.!.!.!.L.!.!.!.!.L.!.L.L.!.L.!.!.!.L.L.L.!.!.!.!.L.L.!.!.!.!.L.L.L.L.L.L.L.L.L.L.L.L.L.L.L.L.",
"!.!.!.!.!.!.!.!.!.!.!.!.!.!.!.!.!.!.!.!.!.!.!.!.!.!.!.!.!.!.!.!.!.!.!.!.!.!.!.!.!.!.!.!.!.!.!.!.!.!.!.!.!.!.!.!.!.!.!.!.!.!.!.!.!.!.!.!.!.!.!.!.!.!.!.!.!.!.!.!.!.!.!.!.!.!.!.!.!.!.!.!.!.!.!.!.!.!.!.!.!.!.!.!.!.!.!.!.!.!.!.!.!.!.!.!.!.!.!.!.!.!.!.!.!.!.!.!.!.!.!.!.!.!.!.!.!.!.!.!.!.!.!.!.!.!.!.!.!.!.!.!.!.!.!.!.!.!.!.!.!.!.!.!.!.!.!.!.!.!.!.!.!.!.!.!.!.!.!.!.!.!.!.!.!.!.!.!.|.|.|.|.|.|.|.|.|.|.|.|.|.|.|.|.|.|.|.|.|.|.|.|.|.|.|.|.|.|.|.|.!.!.!.!.!.!.!.!.!.!.!.!.!.!.!.!.!.!.!.!.!.!.!.!.!.!.!.!.!.!.!.!.!.!.!.!.!.!.!.!.!.!.!.!.!.!.!.!.!.!.!.!.!.!.!.!.!.!.!.!.!.!.!.!.L.!.!.!.!.!.!.!.L.L.!.!.!.!.!.L.",
"!.!.!.!.!.!.!.!.!.!.!.!.!.!.!.!.!.!.!.!.!.!.!.!.!.!.!.!.!.!.!.!.!.!.!.!.!.!.!.!.!.!.!.!.!.!.!.!.!.!.!.!.!.!.!.!.!.!.!.!.!.!.!.!.!.!.!.!.!.!.!.!.!.!.!.!.!.!.!.!.!.!.!.!.!.!.!.!.!.!.!.!.!.!.!.!.!.!.!.!.!.!.!.!.!.!.!.!.!.!.!.!.!.!.!.!.!.!.!.!.!.!.!.!.!.!.!.!.!.!.!.!.!.!.!.!.!.!.!.!.!.!.!.!.!.!.!.!.!.!.!.!.!.!.!.!.!.!.!.!.!.!.!.!.!.!.!.!.!.!.!.!.!.!.!.!.!.!.!.!.!.!.!.!.!.!.!.!.|.|.|.|.|.|.|.|.|.|.|.|.|.|.|.|.|.|.|.|.|.|.|.|.|.|.|.|.|.|.|.|.!.!.!.!.!.!.!.!.!.!.!.!.!.!.!.!.!.!.!.!.!.!.!.!.!.!.!.!.!.!.!.!.!.!.!.!.!.!.!.!.!.!.!.!.!.!.!.!.!.!.!.!.!.!.!.!.!.!.!.!.!.!.!.!.!.!.!.!.!.!.!.!.!.!.!.!.!.!.!.!.",
"!.!.!.!.!.!.!.!.!.!.!.!.!.!.!.!.!.!.!.!.!.!.!.!.!.!.!.!.!.!.!.!.!.!.!.!.!.!.!.!.!.!.!.!.!.!.!.!.!.!.!.!.!.!.!.!.!.!.!.!.!.!.!.!.!.!.!.!.!.!.!.!.!.!.!.!.!.!.!.!.!.!.!.!.!.!.!.!.!.!.!.!.!.!.!.!.!.!.!.!.!.!.!.!.!.!.!.!.!.!.!.!.!.!.!.!.!.!.!.!.!.!.!.!.!.!.!.!.!.!.!.!.!.!.!.!.!.!.!.!.!.!.!.!.!.!.!.!.!.!.!.!.!.!.!.!.!.!.!.!.!.!.!.!.!.!.!.!.!.!.!.!.!.!.!.!.!.!.!.!.!.!.!.!.!.!.!.!.!.!.!.!.!.!.!.!.!.!.!.!.!.!.!.!.!.!.!.!.!.!.!.!.!.!.!.!.!.!.!.!.!.!.!.!.!.!.!.!.!.!.!.!.!.!.!.!.!.!.!.!.!.!.!.!.!.!.!.!.!.!.!.!.!.!.!.!.!.!.!.!.!.!.!.!.!.!.!.!.!.!.!.!.!.!.!.!.!.!.!.!.!.!.!.!.!.!.!.!.!.!.!.!.!.!.!.!.!.!.!.!.",
"!.!.!.!.!.!.!.!.!.!.!.!.!.!.!.!.!.!.!.!.!.!.!.!.!.!.!.!.!.!.!.!.!.!.!.!.!.!.!.!.!.!.!.!.!.!.!.!.!.!.!.!.!.!.!.!.!.!.!.!.!.!.!.!.!.!.!.!.!.!.!.!.!.!.!.!.!.!.!.!.!.!.!.!.!.!.!.!.!.!.!.!.!.!.!.!.!.!.!.!.!.!.!.!.!.!.!.!.!.!.!.!.!.!.!.!.!.!.!.!.!.!.!.!.!.!.!.!.!.!.!.!.!.!.!.!.!.!.!.!.!.!.!.!.!.!.!.!.!.!.!.!.!.!.!.!.!.!.!.!.!.!.!.!.!.!.!.!.!.!.!.!.!.!.!.!.!.!.!.!.!.!.!.!.!.!.!.!.!.!.!.!.!.!.!.!.!.!.!.!.!.!.!.!.!.!.!.!.!.!.!.!.!.!.!.!.!.!.!.!.!.!.!.!.!.!.!.!.!.!.!.!.!.!.!.!.!.!.!.!.!.!.!.!.!.!.!.!.!.!.!.!.L.L.L.L.L.!.L.L.L.L.!.!.L.L.!.!.!.L.L.L.L.L.!.!.L.L.L.!.L.L.L.L.L.L.!.!.L.!.!.!.!.L.L.L.L.!.!.!.",
"!.!.!.!.!.!.!.!.!.!.!.!.!.!.!.!.!.!.!.!.!.!.!.!.!.!.!.!.!.!.!.!.!.!.!.!.!.!.!.!.!.!.!.!.!.!.!.!.!.!.!.!.!.!.!.!.!.!.!.!.!.!.!.!.!.!.!.!.!.!.!.!.!.!.!.!.!.!.!.!.!.!.!.!.!.!.!.!.!.!.!.!.!.!.!.!.!.!.!.!.!.!.!.!.!.!.!.!.!.!.!.!.!.!.!.!.!.!.!.!.!.!.!.!.!.!.!.!.!.!.!.!.!.!.!.!.!.!.!.!.!.!.!.!.!.!.!.!.!.!.!.!.!.!.!.!.!.!.!.!.!.!.!.!.!.!.!.!.!.!.!.!.!.!.!.!.!.!.!.!.!.!.!.!.!.!.!.!.!.!.!.!.!.!.!.!.!.!.!.!.|.!.!.!.!.!.!.!.!.!.!.!.!.!.!.!.!.!.!.!.!.!.!.!.!.!.!.!.!.!.!.!.!.!.!.!.!.!.!.!.!.!.!.!.!.!.!.!.!.!.!.!.!.!.!.!.!.!.!.!.!.!.!.!.!.!.!.!.!.!.!.!.!.!.!.!.!.!.!.!.!.!.!.!.!.!.!.!.!.!.!.!.!.!.!.!.!.!.!.!.",
"!.!.!.!.!.!.!.!.!.!.!.!.!.!.!.!.!.!.!.!.!.!.!.!.!.!.!.!.!.!.!.!.!.!.!.!.!.!.!.!.!.!.!.!.!.!.!.!.!.!.!.!.!.!.!.!.!.!.!.!.!.!.!.!.!.!.!.!.!.!.!.!.!.!.!.!.!.!.!.!.!.!.!.!.!.!.!.!.!.!.!.!.!.!.!.!.!.!.!.!.!.!.!.!.!.!.!.!.!.!.!.!.!.!.!.!.!.!.!.!.!.!.!.!.!.!.!.!.!.!.!.!.!.!.!.!.!.!.!.!.!.!.!.!.!.!.!.!.!.!.!.!.!.!.!.!.!.!.!.!.!.!.!.!.!.!.!.!.!.!.!.!.!.!.!.!.!.!.!.!.!.!.!.!.!.|.|.|.|.|.|.|.|.|.|.|.|.|.|.|.|.|.|.|.|.|.|.|.|.|.|.|.|.|.|.|.|.|.|.|.|.|.|.|.|.|.|.|.|.|.|.|.|.|.|.|.|.|.|.|.|.|.|.|.|.|.|.|.|.|.|.|.|.|.|.!.!.!.!.!.!.!.!.!.!.!.!.!.!.!.!.!.!.!.!.!.!.!.!.!.!.!.!.!.!.!.!.!.!.!.!.!.!.!.!.!.!.!.!.!.",
"!.!.!.!.!.!.!.!.!.!.!.!.!.!.!.!.!.!.!.!.!.!.!.!.!.!.!.!.!.!.!.!.!.!.!.!.!.!.!.!.!.!.!.!.!.!.!.!.!.!.!.!.!.!.!.!.!.!.!.!.!.!.!.!.!.!.!.!.!.!.!.!.!.!.!.!.W.!.!.!.!.!.!.!.!.!.!.!.!.!.!.!.!.!.!.!.!.!.!.!.!.!.!.!.!.!.!.!.!.!.!.!.!.!.!.!.!.!.!.!.!.!.!.!.|.|.|.|.|.|.|.|.|.|.|.|.|.|.|.|.|.|.|.|.|.|.|.|.|.|.|.|.|.|.|.|.|.|.|.|.|.|.|.|.|.|.|.|.|.|.|.|.|.|.|.|.|.|.|.|.|.|.|.|.|. X X X X X X X X X X X X X X X X X X X X X X X X X X X X X X X X X X X X X X X X X X X X X X X X X X X X X X X X X X X X X X X X X X X X X X|.|.|.|.|.|.|.|.|.|.|.|.|.|.|.|.|.|.|.|.|.|.|.|.|.|.|.|.|.|.|.|.|. X X|.|. X X X X X X|.|.",
"!.!.!.!.!.!.!.!.!.!.!.!.!.!.!.!.!.!.!.!.!.!.!.!.!.!.!.!.!.!.!.!.!.!.!.!.!.!.!.!.!.!.!.!.!.!.!.!.!.!.!.!.!.!.!.!.!.!.!.!.!.!.|.|.|.|.|.|.|.|.|.|.|.|.|.|.|.|.|.|.|.|.|.|.|.|.|.|.|.|.|.|.!.!.!.!.!.!.!.!.!.!.!.!.!.!.!.!.!.!.!.!.!.!.!.!.!.!.!.!.!.!.!.!. X X X X X X X X X X X X X X X X X X X X X X X X X X X X X X X X X X X X X X X X X X X X X X X X X X X X X X X X X X X X X X X X X X X X X X X X X X X X X X X X X X X X X X X X X X X X X X X X X X X X X X X X X X X X X X X X X X X X X X X X X X X X X X X X X X X X X X X X X X X X X X X X X X X X X X X X X X X X X X X X X X X X X X X X X X X X X X X X",
"!.!.!.!.!.!.!.!.!.!.!.!.!.!.!.!.!.!.!.!.!.!.!.!.!.!.!.!.!.!.!.!.!.!.!.!.!.!.!.!.!.!.!.!.!.!.!.!.!.!.!.!.!.!.!.!.!.!.!.!.!.!.|.|.|.|.|.|.|.|.|.|.|.|.|.|. X X X X|.|. X X X|.|.|. X X X X X!. X X~.~. X X X X X X~.~.~.~. X X X X~.~. X X X X X X X X X~. X X X X X X X X X X X X X X X X X X X X X X X X X X X X X X X X X X X X X X X X X X X X X X X X X X X X X X X X X X X X X X X X X XoX X X XoXoXoXoXoXoX X X X XoXoXoXoX X XoXoXoXoXoXoXoXoX X XoXoXoXoXoXoXoXoXoXoXoXoXoXoXoXoXoXoXoXoXoXoXoXoXoXoXoXoXoXoXoXoX X X X X X X X X X X X X X X X X X X X X X X X X X X X X X X X XoXoXoXoX X XoXoXoXoXoXoXoXoXoXoX",
"!.!.!.!.!.!.!.!.!.!.!.!.!.!.!.!.!.!.!.!.!.!.!.!.!.|.|.|.|.|.|.|.|.|.|.|.|.|.|.|.|.|.|.|.|.|.|.|.|.|.|.!.!.!.!.!. X X X X X X X X X X X X X X X X X X X X X X X X X X X X X X X X X X X X X X X X X X X X X X X X X X X X X X X X X X X X X X X X X X X X X X X X X X X X X X X X X X X X X X X X X X X X X X X X X X X XoXoXoX XoXoXoXoXoXoXoXoX X X XoXoXoXoXoXoXoXoXoX X X XoXoXoXoXoX#X#X#X#XoXoXoX#XoXoXoXoX#X#XoXoX#X#X#X#XoXoXoX#XoXoXoXoX#X#X#X#X#X#X#X#XoXoX#X#X#X#X#X#XoX#X#X#X#X#X#X#XoXoX#X#X#X#X#X#X#X#X#X#XoXoXoXoXoXoXoX$XoXoXoXoXoXoXoXoXoXoXoXoXoXoXoXoXoXoX$X$XoXoXoXoX#X#X#X#X#X#X#X#XoXoXoXoXoX#XoXoX",
"|.|.|.|.|.|.|.|.|.|.|.|.|.|.|.|.|.|.|.|.|.|.|.|. X X X X X X X X X X X X X X X X X X X X X X X X X X X X X X X X X X X X X XoXoXoXoXoXoX X X X X X X X X X X X X X X X X X X X X X X X XoXoXoXoXoXoXoXoXoXoXoXoXoXoXoXoXoXoXoXoXoXoXoXoXoXoXoXoXoXoXoXoX$X$XoXoXoXoXoXoXoXoXoXoX$X$XoXoXoXoXoXoXoXoXoXoX$X$XoXoXoXoXoXoX$X$X$X$X$X$X$X$X$X$X$X$X$X$X$X$X$X$X$X$X$X$X$X$X$X$X$X$X$X$X$X$X$X$X$X$X$X$X$X$X$X$X$X$X$X$X$X$X$X$X$X$X$X$X$X$X$X$X$X$X$X$X$X$X$X$X$X$XoXoXoX$X$X$X$X$XoXoXoX$X$X$X$X$X$X$X$X$X$X$X$X$X$X$X$X$X$X$XoXoX$X$X$X$X$X$X$X$X$X$X$X$X$X$X$X$X$X$X$X$X$X$X$X$X$X$X$X$X$X$X$X$X$X$X$X$X$X$X$X$X$X$X$X$X",
" X X X X X X X X X X X X X X X X X X X X X X X X X X X X X X X XoXoXoXoXoXoXoXoXoXoXoXoXoXoXoXoXoX XoXoXoXoXoXoXoXoXoXoXoXoXoXoXoXoXoXoXoXoXoXoXoXoXoXoXoXoXoXoXoX#X#X#XoXoXoXoX#X#X#XoXoXoXoXoXoXoXoXoXoXoXoXoXoXoXoXoXoXoXoXoXoXoXoXoXoXoXoXoXoXoXoXoX$X$XoXoXoXoXoXoXoXoXoXoXoX$XoXoXoXoXoXoXoXoXoXoXoX$XoXoXoXoXoX$XoX$X$X$X$X$X$X$X$X$X$X$X X X$X$X$X$X$X$X$X$X$X$X X X$X$X$X$X$XoX$X$X$X$X X X$X$X$X$X$X$X$X$X$X$X$X$X$X.X X X$X$X$X$X$X$X$X$X$X$X X X.X.X X X X X.X.X X X X X X X.X.X X X X X X X X X X X X X.X.X X X X X.X.X X X X X.X.X X X X X.X.X.X.X X X X X X X.X.X X X X X$X$X$X$X X X$X$X$XoXoXoX$X$X$X$X",
" X X X X X X X X X X X X X X X X X X X X X X X X X X X XoXoXoXoXoXoXoXoXoXoXoXoXoXoXoXoXoXoXoXoXoXoXoXoXoXoXoXoXoXoXoXoXoXoXoXoXoXoXoXoXoXoXoXoXoXoXoXoXoXoXoXoXoX#XoX#X#X#X.X.X#X#X#X$XoXoXoXoXoXoXoXoXoXoXoXoXoXoXoXoXoXoXoXoXoXoXoXoXoXoXoXoXoXoXoXoXoXoXoXoXoXoX$X$X$XoXoXoXoXoXoXoXoXoX$X$X$XoXoXoXoXoXoXoXoXoXoXoXoXoX$X X X X X X X X X X X X X X X X X X X X X X X X X X X X X X X X XoX X X X X X X X X X X X X X X X XoX X X X X X X X X X X X X X X X X X X X X X X X X X X X X X X X X X X X X X X X X X X X X X X X X X X X X X X X X X X X X X X X X X X X X X X X X X X X X X X X X X X X X X X X X X X X",
"oXoXoXoXoXoXoXoXoXoXoXoXoXoXoXoXoXoXoXoXoXoXoXoXoXoXoXoXoXoXoXoXoXoXoXoXoXoXoXoXoXoXoXoXoXoXoXoXoXoXoXoXoXoXoXoXoXoXoXoXoXoXoXoXoXoXoXoXoXoXoXoXoXoXoXoXoXoXoXoX#XoX#X#X#X#X.XoX#X#X#X$X X X X X X X X X X X X X X X X X X X X X X X X X X X X X X X X XoXoXoXoXoXoXoXoXoXoXoXoXoXoXoXoXoXoXoXoXoXoXoXoXoXoXoXoXoXoX X X X X X X X X X X X X X X X X X X X X X X X X X X X X X X X X X X X X X X X X X X X X X X X XoXoX X X X XoXoX X X X XoXoX X X X X X X X X X X X X X X X X X X X X X X X X X X X X X X X X X X X X X X X X X X X X X X X X X X X X X X X X X X X X X X X X X X X X X X X X X X X X X X X X X X X X",
"oXoXoXoXoXoXoXoXoXoXoXoXoXoXoXoXoXoXoXoXoXoXoXoXoXoXoXoXoXoXoXoXoXoXoXoXoXoXoXoXoXoXoXoXoXoXoXoXoXoXoXoXoXoXoXoXoXoXoXoXoXoXoXoXoX X X X X X X X X X X X X X X X.X.X.X X X X X X X X X X X X X X X X X X X X X X X X X X X X X X X X X X X X X X X X X X X X X X X X X X X X X X X X X X X X X X X X X X X X X X X X X X X X X X X X X X X X X X X X X X X X X X X X X X X X X X X X X X XoXoXoXoXoXoXoXoXoXoXoXoXoXoXoXoXoXoXoXoXoXoXoXoXoXoXoXoXoXoXoX X X X XoXoX X X X X X XoXoX X X X X X X X X X X X X X X X X X X X XoX X X XoX X X X X X X X X X X X X X X X X X X XoXoX X X X X X X X X X X X X X X X X X X X X",
"oXoXoXoXoXoXoXoXoXoXoXoXoXoXoXoXoXoXoXoXoXoXoXoXoXoXoXoXoXoXoXoXoXoXoXoXoXoXoXoXoXoXoXoXoXoXoXoXoXoXoXoXoXoXoXoXoXoXoXoX X X X X X X X X X X X X X X X X X X X X X X X X X X X X X X X X X X X X X X X X X X X X X X X X X X X X X X X X X X X X X X X X X X X X X X X X X X X X X X X X X X X X X X X X X X X X X X X X X X X X X X X X X X X X X X X X X X X X X X X X X X X X X X X X X X XoX X X X X X X X X X XoXoXoX X X X X X X X X X X XoX X X X X X X X X X X X X X X XoXoX X X X X X X X X X X X X X X X X X X X X X X X X X X X X X X X X X X X X X X X X X X X X X X X X X X X X X X X X X X X X X X X X X X",
"oXoXoXoXoXoXoXoXoXoXoXoXoXoXoXoXoXoXoXoXoXoXoXoXoXoXoXoX X X X X X X X X X X X X X X X XoXoXoX X X X X X X X X X X X X X X X X X X X X X X X X X X X X X X X~.~. X X X X X X~. X X X X X X X X X X X X X X X X X X X X X X X X X X X X X X X X X X X X X X X X X X X X X X X X X X X X X X X X X X X X X X X X X X X X X X X X X X X X X X X X X X X X X X X X X X X X X X X X X X X X X X X X X X X XoXoX X X X X X X XoX X X X X X X X X X X XoX X X XoXoXoXoXoXoXoXoXoXoXoXoXoXoXoXoX X XoXoXoXoXoXoXoXoXoXoXoXoXoXoX X X X X X X X X X X X X X X X X X XoXoX X X X X X X XoX X X X X X X X X X X X X X X X X X X X X",
" X X X X X X X X X X X X X X X X X X X X X X X X X X X X X X X X X X X X X X X X X X X X X X X X X X X X X X X X X X X X X X X X X X X X X X X X X X X X X X~.~. X X X X X X X X X X X X X X X X X X X X X X X X X X X X X X X X X X X X X X X X X X X X X X X X X X X X X X X X X X X X X X X X X X X X X X X X X X X X X X X X X X X X X X X X X X X X X X X X X X X X X X X X X X X X X X X X X X X X X X X X X X X X X X X X X X X X X X X X X X X XoXoXoXoXoXoXoXoXoXoXoXoXoXoXoXoX X XoXoXoXoXoXoXoXoXoXoXoXoX X X X X X X X X X X X X X X X X X X X X X X X X X X X X X X X X X X X X X X X X X X X X X X X X X X",
"~.~.~.~. X X X X X X X X~.~.~.~. X X X X X X X X~.~.~.~. X X X X X X X X X X X X X X X X X X X X X X X X X X X X X X X X X X X X X X X X X X X X X X X X X X X X X X X X X X X X X X X X X X X X X X X X X X X X X X X X X X X X X X X X X X X X X X X X X X X X X X X X X X X X X X X X X X X X X X X X X X X X X X X X X X X X X X X X X X X X X X X X X X X X X X X X X X X X X X X X X X X X X X X X X X X X X X X X X X X X X X X X X X X X X X X X X XoXoXoXoXoXoXoXoXoXoXoXoXoXoX X X X XoXoXoXoXoXoXoXoXoXoXoX XoXoX X X X X X X X X X X X X X X X X X X X X X X X X X X X X X X X X X X X X X X X X X X X X X X",
"!.!.!.!.!. X X X!.!. X X!.!.!.!.!.!.!.!.!.!.!.!.!.!.!.!. X X X X X X X X X X X X X X X X X X X X X X X X X X X X X X X X X X X X X X X X X X X X X X X X X X X X X X X X X~. X X X X X X X X X X X X X X X X X X X X X X X X X X X X X X X X X X X X X X X X X X X X X X X X X X X X X X X X X X X X X X X X X X X X X X X X X X X X X X X X X X X X X X X X X X X X X X X X X X X X X X X~.~.~.~.~.~. X X~.~.~.~.~. X~.~.~.~.~.~.~.~.~.!. X~.~.~. X X X X X X X X X X X X X X X X X X X X X X X X X X X X X X X X X X X~. X~.~.!.!.!.!.~.~.!.!.~.~.~.~.!.!.!.!.!.~.~.~.!.!.!.!.!.~.~.~.!.!.!.!.~.~.~.!.!.!.!.!.!.!.~.~.",
" X X X X X X X X!.!. X X X X X X!.!.!.!.!.!.!.!.!.!.!.!. X X X X X X X X X X X X X X X X X X X X X X X X X X X X X X!.!. X X X~.~.~.~.~.~.~.~.~.~.~.~.~. X X X X X X X X X X X X X X X X X X X X X X X X X X X X X X X X X X X X X X X X X X X X X X X X~.~.~.~.!.~.~.~.~.~.~. X X X X X~.~.~.~.|. X X X X X X X X|.|.|. X X X|.|. X X X X X X|.|.|.|.|. X X X X|. X X X X X X|.|.!.!.!.!.!.~.~.!.!.!.!.~.~.~.!.!.!.!.~.~.~.~.~.!.!.!.!.!.!.~.~.!.!.!.!.~.~.~.~.!.!.~.~.~.~.~.~.!.!.!.!.!.!.~.~.!.!.!.!.~.~.~.~.!.!.~.~.~.~.~.~.!.!.!.!.!.~.!.!.~.~.!.!.!.~.~.~.!.!.~.~.~.~.~.~.!.!.!.~.!.!.!.!.!.!.!.!.!.!.!.!.!.!.!.!.",
"oX X X X X X X X!.!.!.!.!.!.!.!.!.!.!.!.!.!.!.!.!.!.!.!.!.!.!. X!.!.!.!.!.!.!.!.!.!.!.!.!.!.!.!.!.!.!.!.!.!.!.!.!.!.!.!.!.~.~. X X X X X X X X X X X X X X X X X X X X X X X X X X X X X X X X X X X X X X X X X X X X X X X X X X X X X X X X X X X X X~.~.~.~.!.~.~.~.~.~.~. X X X X X~.~.~. X|. X X X X X X X|.|.|.|. X X X X|. X X X X X X X|.|.|.|. X|. X X|. X X X X X X X|.|.|.|.|.|. X X|.|.|.|. X X X|.|.|.|.|. X X X X|.|.!.|.|.|. X X X|.|.|. X X X X|.|. X|. X X|.|.|.|.|.|.|.|. X X|.|.|.|. X X X|.|.|.|.|. X X|. X!.!.|.|. X X|.|. X|.|.|.|. X X X|.|. X|. X X|.|.|.|.|.|. X X|.|. X X X X|.|.|.|.|.|. X X",
"!.!.!.!.!.!.!.!.!.W.W.W.W.W.!.!.!.!.!.!.!.!.!.!.!.!. X X!.!.!.!.!.!.!.!.!.!.!.!.!.!.!.!.!.!.!.!.!.!.!.!.!.!.!.!.!.!.!.!.!.~.~.~.~.~.!.~.!.!.!.!.~.~.!.!.!.!.!.!.!.!.!.!.!.!.!.!.!.!. X X X X|.|.|.|. X|. X X|.|. X|.|.|.|.|. X X|.|. X X X X|.|. X X|.|.!.!.~.~.!.!.!.!.~.~.~.~.!.!.!.!.~.~.~.!.!.|.|.|. X X X X|.|.|.|. X|. X X|.|.|.|. X X X X X|.|.|.!.!.|.|.|.|.|.|. X X X X X|.|.|.!.|.|.|.|.|.|.|. X X|.|.|.|.|.|.|.|. X|.|.|. X X|. X X X X X|.|.|.|.|. X|.|.|.|.|.|.|.|. X|. X X|. X X X|. X|.|. X X|.|.|.|.|.|.|.|.|.|.|.!.|. X X X X X X X|.|.|.|.|.|.|.|.|.|.|.|.|.|.|.|.|.|. X X X X X X|. X|.|. X X|.|.|.|.",
"!.!.!.!.!.!.!.!.!.!.!.!.!.!.!.!.W.W.W.W.W.W.!.!.!. X X X!.!.!.!.!.!.!.!.!.!.!.!.!.!.!.!.!.!.!.!.!.!.!.!.!.!.!.!.!.!.!.!.!.!.!.~.~.!.!.!.!.!.!.!.~.!.!.!.!.~.!. X!.!.!.!.!.!.!.!.!.~. X X X X|.|.|.|. X X X X|.|. X X|.|.|.|. X X|.|. X X X X|.|. X X|.|.!.!.~.~.!.!.!.!.~.~.~.~.!.!.!.!.~.~.~.|.|.|.|.|. X X|.|.|.|.|.|. X X X X|.|.|.|. X X X X X|.|.|.!.|.|.|.|.|.|.|. X X X X X|.|.|.!.!.|.|. X|.|.|. X X|.|.|.|.|.|.|.|.|.|. X X X X X X X X X X|.|.|.|.|.|.|.|.|.|.|.|.|.|. X X X X|. X X X X X|.|.|.|.|.|.|.|.|.|.|.|.|.|.|.|.|. X X X X X X X|.|.|.|.|.|.|.|.|.|.|.|.|.|.|.|.|.|. X X X X|. X|.|.|.|. X X|.|.|.|.",
" X X X X X X X XoXoXoXoXoX X!.!.W.W.W.K.K.W.W.W.!.!.!.!.!.!.!.!.!.!.!.!.!.!.!.!.!.!.!.!.!.!.!.!.!.!.!.!.!.!.!.!.!.!.!.!.!.!. X X X X X X X X X X X X X X~.!.!.!.!.!.!. X!.!.!.~.!.!. X X X X X X X X X X X X X X X X X X|. X X X X X X X|.|. X X X X|.|.!.~.!.~.!.!.~.~.~.~.!.!.!.!.~.~.~.~.!.|.|.|. X X X|.|.|.|.|.|. X X|.|.|.|.|. X X X|.|.|. X X!.|.|.|. X|.|.|. X X X|.|.|. X X|.|.|.|.|.|. X X X X|.|.|.!.|.|.|.|.|.|.|.|.|. X X X X X X X X X X X!.!.!.|.|.|.|.|.|.|.|. X|.|.|. X X X X|. X X X X|.|.!.|.|.|.|.|.|.|.|.|. X X X X|.|. X X X|.|.|.!.!.|. X X X!.|.|. X X X X X X X|.|. X X|.|.|.|. X X X X|.|. X X",
"OXOXOXOXOX*X*X-X-X-XwX-X-X*X*XOXoXoXoXoXoXoXoXoXOXOXOXOX*X*X-X-X-XwXwXwXwX-X*X*XoX X X!.!.!.!.!.!.!.!.!.!.!.!.!.!.!.!.!.!.!.!.!.!.!.!.!.!.~.~.!.!.~.!.!.~.~.~.!.!.!.!.!.~.~.~.~.~.~. X X X X X X X X X X X X X X X X X X|.|. X X X X X X|. X X X X X|.|.!.!.!.!.!.!.~.~.!.!.!.!.!.!.~.~.!.~.!.|.|.|. X X|.|.|.|.|.|.|. X|.|. X|.|.|. X X|.|.|.|. X X|.|.|.|. X X|.|. X X|.|.|.|. X X|.|.|.|.|. X X X X X|.|.!.!.|.|.|.|.|.|.|.|.|.|. X X X X X|. X X|.|.|.|.|.|. X|.|.|.|.|. X X|.|. X X X X X|. X X|. X|.|.!.!.|.|.|.|.|.|. X X X X X X|. X X X X X|.|.!.!. X X X X|.|. X X X X X X X X|.~.~.~.!.!.!.!.~.~.~.~.!.~.~.~.",
"-X-X*X*X-X-XwXtXtXyXsXsXtXtXtXwXwXwX-X-XwXwXwXtXtXtXtXtXfXfXsXtXwXwXwXtXtXtXtXtXwX-X*XOXOXOXOXOXOXOXOXOXOXOXOXOXoXoXoXoXoX X X X!.!.!.!.~.~.~.~.~.~.!.!.~.~.~.~.!.!.~.~.~.~.~.~.!.!.!.!.~. X X X X X X X X X X X X X X X X X X X X X X|.|.|. X X X X|.|.!.!.!.!.!.~.~.~.!.!.!.!.!.~.~.~.!.!.|.|.|.|. X X|.|.|.|.|. X X X|.|.|.|.|.|. X X|.!.!.|. X|.|.|.|. X X X|.|. X X|.!.!.|. X|.|.|.|. X X X|.|. X X X|. X X|.|.|.|. X X X X!.|.|.|.|.|.|.|.|.|.|.|.|.|. X X X X|.|.|.|. X X!.!.|.|. X X|.|.|.|.|.|.|.|. X X|. X|.|.|. X X X|.|.!.|.|.|. X X|.|.|.|.|.!. X X X X|.|. X X X X X X|.|.|.|.~.~.~.~.!.!.!.!.!.!.!.!.~.~.",
"-X-X-X-XwXwXtXtXyXfXfXfX-X-X-X-X-X-X-X-X-XwXwXwXtXtXtXsXfXfXfXtXtXwXtXtXtXsXsXtXtX-X-X-X-XwXtXtXtXtXtXtXtXtXwXwXwXwX-X-X-X*X*X*X*X*X*X*X*X*X#X#X#X#XoXoXoXoX~.~.oX~.~.~.~.~.~.~.!.!.!.~.~.~. X X X X X X X X X X X X X X X X X X X|.|.|.|.|. X X X X X X!.!.!.~.!.~.~.~.!.!.!.!.!.!.~.~.!.!.|.|.|.|. X X|.|.|.|. X X X X|.|.|.|.|.|. X X|.|.!.|. X X|.|.|. X X X|.|. X X|.|.!.|. X|.|.|. X X X X|.|.|.|. X X X X X X|.|.|. X X X!.|.|.|.|.|.|.|.|.|.|.|.|.|. X X X X|.|.|.|. X X!.|.|.|.|.|.|.|.|.|.|.|. X X X X X X|.|.|. X X!.|.|.|.|.|.|.|.|.|.|.|.|.|. X X X X X|.|. X X X X X~.!.!.!.|.~.~.~.!.!.!.!.!.!.!.!.!.~.!.",
"fXfXtXwXwXtXtXtXtXtXtXtXOXOXOXOXOXOXOXOXOXOXOXOXOX*X*X*X*X*X-X-X-X-X-XwXwXwXwXtXtXtXtXtXtXtXtXwX-X-XwXwXtXtXyXsXsXsXsXsXsXsXsXsXsXsXsXfXfXiXfXfXsXsXfXiX*X*X*X*X#X#X#X#X#XoXoXoXoXoX XoXoXoXoX X X X X X X X X X X X X X~.|.|.|.|.|.|.|.|.|.|. X|.|.|.!.!.!.~.~.!.~.~.~.|.!.!.!.!.!.!.!.|.|.!.|.|.|. X X|.|.|.|.|.|. X X|.|.|.|.|.|.|. X|.|.|.|.|.|. X X|.|.|.|.|.|.|. X|.|.|.|.|.|.|. X|.|.|.|.|.|.|.|.|.|.|.|.|.|. X|.|.|.|.|.|.|.|.|. X X|.|.|.|.|.|.|.|.|.|.|.|. X|.|.|.|.|.|.|.|.|.|.|. X|.|.|.|.|.|.|.|.|.|.|. X|.|.|.|.!.!. X!.!.!. X X X|.|. X XOX*XOX X X X X|.W.!.!.!.W.W.W. XoX*X=X*X*X*XoX X~.!.!.^.!.!.!.!.",
"yXtX-X-X-X-X-X-X-X-X-X-X*XOXOXOXOXOXOXOXOXOXOXOXOXOXOXOX*X*X*X*X*X*X*X*X*X*X*X-X*X*X*X*XOXOXOXoXoXoXoXoXoXOX*X-XwXtXtXtXyXtXtXwXwXqXiXsXfXwXwXsXsXtXiXtXqXtXtXqX*X*X&X;XqX;X;X;X;X;X;X;X*X*X#X#X#X#X X~.~.~. X X~.~.~.!.W.!.!.!.|.|.|.|.|.|. X X|.|.|.|.|.|.|.|.|.|.|.|.|.|.|.|.|.|.|. X|.|.|.|.|.|.|.|.|.|.|.|.|.|.|. X|.|.|.|.|.|.|. X|.|.|.|.|.|.|. X|.|.|.|.|.|.|. X|.|.|.|.|.|.|. X|.|.|.|.|.|.|.|.|.|.|.|.|.|. X X|.|.|.|.|.|.|.|. X X|.|.|.|.|.|.|.|.|.|.|.|. X X|.|.|.|.|.|.|.|.|.|. X X|.|.|.|.|.|.|.|.|.|. X X X X|.|.!.!.W.W.!. X X X!.W.W.W.W.W.~. X X X X X X X XoX*X=X-X;XqXsXsXfXsXiXwX*XoX~.!.Q.Q.!.!.~.",
"-X*XOXoXoXoXoXoXoXoXoXoXoXOXOXOXOXOXOXOXOXOXOXOXOXOXOXOXOXOX*X*X*X*X*X*X*X*X*X*XOXOXOXOXOXOXOXOXoXoXoXoXoXoXOX-XwXtXfXfXtXwX*XoX#X*X;XwXqXoX#XqXtX;X-XwXqXtXqX&X*X%X;XiXiXiXiXiXiXiXiXsXiXiXqX;XqXqX;X*X*X=X;X;X;X*X%X*X#X X X X X|.!.!.W.W.W.W.!.!.!.!.|.|.|.|. X|.|.|. X X X X X X X X X X X X X X X X X X X X X|.|.|.|.|.|.|.|.|. X X|.|.|.|.|.|. X X|.|.|.|.|.|. X X|.|.|.|.|.|. X X|.|.|.|. X X|. X|.|.|.|.|. X X X|.|.|.|.|.|.|.|. X X|.|. X X|.|.|.|.|.|.|. X X X|.|.|.|.|.|.|.|.|. X X X|.|.|.|.|.|.|.|.|. X X X X X X X X|.!.!.!. X X|. X!.!. X XW. X X*X=X=X=X=X-XwXqXsXfXbXbXfXfXfXfXfXiXqX-X*X#XoXoXoX#X#X#X",
"oXoX X X X X X X X X XoXoXoXoXoXoXoXoXoXoXoXoXoXOXOXOXOXOXOXOXOX*X*X*X*XOXOX*X*XOXOXOXOXOXOXOXOXOXoXoXoXoXOX*X-X-XwXtXtXOXoX X X X*X-X-X*X X*XwX;X*X*X;X;X&X*X~.~.$X;XfX;XtXtXtXiXiXiXiXsXsXiXiXiXiXiXqXqXiXiXsXiXiXqXqXqX;X;X;X*X*X*X*X*X#XoX X X X X|. X X X X X|.|.|.|.|.|.|.|. X X X X X X X|.|.|.|.|.|.|.|.|.|.|.|. X X X X|.|. X X X X X X|.|. X X X X X X|.|. X X X X X X|.|. X X X X X X X X X X X X X|. X X X X X X X X|.|.|. X X X X X X X X X X X X X X X X X X X X X X X X X X X X X X X X X X X X X X X X X X X X X X|.!.!. X X X#X#X#X*X=X;XwXwXqXqXsXsXsXsXsXfXfXbXbXbXbXfXsXiXiXtXtXqXqXqXqX;XqXqXqXqX;X",
" X XoXoXoX X X X X XoXoXoXoXoXoXoXoXoXoXoXoXoXoXOXOXoXoXOXOXOXOXOXOXOXOXOXOX*X*XOXOX*XOXOXoXoXoXoXoXoXoXOX*X*XOX*XOXoXoXoX X X X#X*X*X;X X;XqXwX*X*X*X*X%X$X~.^.Q.$X;XgX%X*X&X&X;X;X;XiXiXqX&X=X;XrXrXrXqXrXiXiXiXqXqXqXqXqXqXqXqXqXqXqXqXqX;X;X;X;X*X*X*X#X#X#X X X X X~.~.~.~.~.~.~.~.~.~.~.~.~.~.~.~.~.~.~.~.~.~.~. X~. X X X X X X X X X X X X X X X X|.|. X X X X X X X X X X X X X X X X X X X|.|. X X X X|.|.|.|. X X X X X X X X X X X X X X|. X X X X X X X X X X X X X X X X X X X X X X X X X X X X X X X X X X X|.!.!.|.|. XoX*X*XqXrXiXiXsXfXfXfXfXsXsXsXfXfXfXsXfXfXsXiXiXtX;X;X*X;X;X;XqXtXiXiXiXtXqXqX;X",
" X XoXOXOXoXoXoXoXoXoXoXoXoXoXoXoXoXoXoXoXoXOXOXOXOXOXOXOXOXOXOXOXOXOXOXOXOXOXOXOXOXOXOXoXoXoXoXoXoXoXoXOX*X*XOXoXoX X!.!.!.!. X X XoX#X XiXsXqX;X;X;X&X*X$XQ.Q.~.%X;XtX&X*X&X&X;X;XiXiXiX;X$X$X=X;XrXrXrXiXiXrX;X;X;X;XqXqXrXiXtXtXiXiXiXiXiXiXiXiXiXiX;X;X;X&X&X*X%X%X#X$XoX X~.~.~.~.~.~.~.~.~.~.~.~.~.~.~.~.~.~.~.~.~. X X X X X X X X X X X X X X X X X X X X X X X X X X X X X X X X X X X X X X X X X X X X X X X X X X X X X X X X X X X X X X X X X X X X X X X X X X X X X X X X X X X X X X X X X X X X X X X X!.!.!.!. XoX*X;XtXsXgXfXgXfXfXfXsXsXrXqXwXqXqXqXrXrXqXqX;X*X=X*X*X#X#X*X*X*X*X;X;X;X*X%X#XoXoX",
"oX XoXoXoXoXoXoXoXoXoXoXoXoXoXoXoXoXoXoXoXoXoXoXOXoXoXoXOXoXoXoXOXOXOXOXOXOXOXOXOXOXOXOXoXoXoXoXOXOXoXoXOXOXOXOXOXOXoXoXoX X X X X XoX#X&XsXsXiXsXsX&X*X;X%X$X$X%X&X;X;X&X&X;X;XiXiXsXsXiX;X$X.X*XrXiXiXiXiXiXrX;X=X=X;X;XiXiXiXiXiXiXiXiXiXiXiXiXiXiXiXiXiXiXiXiXiX;X;X;X;X&X=X%X%X$X$X$X$X).).~.~.~.~.~.~.~.~.~.~.~.~.~.~. X X X X X X X X X X X X X X X X X X X X X X X X X X X X X X X X X X X X X X X X X X X X X X X X X X X X X X X X X X X X X X X X X X X X X X X X X X X X X X X X X X X X X X X X X X X X X X~.~.~. X%X;XiXsXfXgXbXgXfXgXsXiXqX;X=X=X*X*X*X=X=X=X*X=X#X X X X XoX$XoX#X#XoX#XoXoX X X~.~.~.~.",
"oX X X X XoXoXoXoXoXoXoXoXoXoXoXoXoXoXoXoXoXoXoXOXoXoXoXOXoXoXoXOXOXOXOXOXOXOXOXOXOXOXOXoXoXoXoXOXOXoXoXoXoXoXOXOX*X*X-X*XoXoX~.~. X#X%XiXiXrXqXgXiX$XQ.qX;X%X*X;XtX;X&X&X&X;X;XiXiXsXsXiX=X.X~.$XrXiXiXiXrXrX;X%X$X$X&X;X;X;X;XiXiXiXiXiXiXiXiXiXsXiXiXiXiXsXsXiXsXiXsXiXiXiXiXrX;X;X;X;X&X%X%X%X%X$X$X$X$X$X.X.X~.~.~.~.~. X X X X X X X X X X X X X X X X X X X X X X~.~. X X X X X X X X X X X X X X X X X X X X X X X X~.~.~. X X X X X X X X X X X X X X X X X X X X X X X X X X X X X X X X X X X X X X X X X X X X$X%X;XsXgXnXMXMXnXbXgXsXiXiXqX=X*X*X*X*X*X*X*X.X.X X X X~.~.~.~.oX#X#X#X#XoXoX X~.~.~.~.~. X~.",
"oX X X X X X X XoXoXoXoXoXoXoXoXoXoXoXoXoXoXoXoXoXoXoXoXOXoXoXoXOXOXOXOXOXOXOXOXOXOXOXOXoXoXoXoXOXoXoXoXoXoXoXoXOXOXOXoXOXOXoXoXoX*X%X*XsXsXiXiXiXrXiXiXsX2X;X;XiXiX;X&X%X&X;X;X;XiXsXgXiX;X%X2XpXsXiXiX2X;X$XQ.R.~.$X%X&X&X;X;X6X6XiXiXiX6X6X6X6X6XiXiX2X;X;X2X6XiXiXiXiXiXiXiXiXiXiXiXiXpXpXsXiX2X;X&X%X%X&X&X%X%X%X$X#X#X*X*X*X*X*X*X*X-X-X;X;X;X-X*X#X#X#X$X X X X X X X X X$X$X#X#XoXoXoXoX X X X X X X X X X X X X X X X~. X XoXoXoX X X XoX*X*X*X*X*X*X*X#X#X#XoXoXoXoX X X X X X XoXoXoXoXoXoXoX X X X~. X X X$X$X;XiXgXxXlXlXgXgXgXsXiXiXqX;X;X=X*X*X#XoX#X#X X X XoX X X X#X*X*XoX$X#XoX XoX X~.~.~.~.~. XoX X",
" X X X X X X X X X X X XoXoXoXoXoXoXoXoX X X XoXoXoXoXoXOXOXOXOXOXoX+XoXOXOX-XOXOXOXOXoXOXOXoXOXoXoXoXoXoXoXoXoXoXoXoXoXoX*X*X*X*X;X;XiXsXsXiXiXrX2X2X2X;X2X2X2X;X&X$X.X$X&X&X&X&X2XsXgXpXiXiXsXgXgXsX2X&X%X).~.Q.~.$X$X$X$X$X&X&X;X;X;X;X;X&X&X&X&X;X;X%X$X%X%X&X;X;X;X2X2X2X6X2X2X2X2X2X2X2X;X&X%X$X[.[.[.[.$X$X$X%X$X$X#X*X*X;X;X;X;X;XwXwXqXqXqX;X;X&X*X%X%X$X$X$X$X$X$X$X$X#X%X%X*X*X*X*X*X#X#X X X#X#X#X#X#X#X#XoXoXoXoX XoXoX*X*X*X*X*X;X;XqX;XqXwXwX-X*X*X*X*X*X*X*X#X#X#XoXoXoXoXoX X X X X X X X X X X#X*X;X;X6XaXgXxXlXgXpXiX2X2XrXrXrXqX;X*X#X#XoXoX X X X X XoXoX X~.~. X#X#X#X$XoX X X X~.~.~.~.~.~.~.oX X",
" X X X X X X X X X X X X XoXoXoXoXoXoXoX X XoXoXoXoXoXoXoXoXOXOXOX X X XOXOX-XOXOXOXoXoXOXOXoXoXoXoXoXoXoXoXOXOXOXoXoXoXoX*X*X*X*X;XiXiXiX;X;X;X;X2X2X2X2XiXgXgXiX2X;X;X2X;X;X;X;XiXdXgXgXiXiXsXsXiX;X%X$X).).~.~.).$X$X$X$X$X&X&X&X&X&X&X&X&X&X&X&X&X&X%X%X%X%X&X;X;X;X;X;X;X;X;X;X;X;X&X%X$X[.).~.~.E.R.R.R.R.E.~.~.~.&X;XiXiXiXsXiXiXqXqXqXqX;X;X&X;X;X;X;X&X%X%X%X%X%X%X%X%X%X%X%X%X*X*X&X&X*X*X%X*X&X;X&X&X*X%X#X#X%X*X*X*X*X*X*X&X;XiXiXsXiXiXqXqXiXtXqX;X;X*X;X;X;X;X;X*X*X-X;X*X*X#X#X#X#X#X#X#XoX*X*X;XqXiXgXgXaXgXgXgXgXpXiX6X;X;X;X;X;X;X=X*X*X#XoX X X X X XoXoXoX X~.~. X XoXoXoXoX X~.~.~.~.~.~.~.~.~.~.~.",
" X XoXoXoXoXoX X X X X X XoXoXoXoXoXoXoX X XoX+XoXoXoXoXoXOXOXOXoX X|.|.+XOXOXOXOXOXoXoXoXOXoXoXOXoXoXoXOXOXOXOXoXoXoXoXoXOXOX*X*X&X6XiXiXiXiXiXiXpXgXgXgXgXgXgXpXsXgXgXpXiX2XiXsXpXgXgXpXiX2X;X;X&X$X.X~.$X$X%X%X%X%X;X;X2X6X6X6X6X6X6X6X6X2X2X6X6X6X6X6X6X6X6X6XiXiX6X6X6X2X2X;X;X;X;X&X%X$X$X%X%X&X&X&X&X&X&X;X2XiXsXsXgXfXfXfXgXsXiX;X;X;X*X*X*X#X$XsXiXiX;X;X&X&X%X&X&X%X%X%X%X$X$X#X*X;X;X;X;X;X;XiXiXiXqX;X;X&X*X&X;X;X;X;X;X&X;XiXsXfXfXfXiXiXiXiXiXqX;X;X;X;XqXtXtXqXqXqXtXiXqX;X*X*X*X*X*X*X*X&X;XtXiXsXfXgXgXiX6XpXpXgXgXpXsXiXrXrXrXrXqXqXqX;X*X#XoX X X X X X X X X~.~. X XoXoXoX X X~.~.~.~.!.~.~.~.~.~. X",
"OXOXOXOXOXOXoX XoXoXoXoXoXoXoXoXoXoXoXoXoX+X+X+X X XoXoXoXOXOXOXOX XI.I.|.+XOXOXOXOXoXoXoXOXoXoXOXOXoXoXoXoXOXOXoXoXoXoXoXoXoXoX#X*X;XsXkXkXgXaXgXgXlXlXlXpXiXiXiXiX2X;X;X;X;XiXpXgXgXgXsXiX2X2X;X;X;X&X&X;X2XiXsXiXiXiXaXgXgXgXgXaXaXpXpXpXiXiXpXpXpXpXpXpXsXsXpXpXpXpXpXiXiXiX6X6X6X2X2X2X6XiXpXgXgXlXlXlXgXlXxXnXnXnXgXgXgXfXgXsXqX;X*X%X#X#X$X X~.~.sXsXiX;X;X&X&X&X&X&X&X&X%X$X$X$X$X=X;X;XqXqXiXiXsXsXfXsXsXiXiXiXqX;X;X;X;X;X;XiXsXfXbXgXgXsXsXsXiXiX;X&X&X;X;XqXiXiXiXiXiXsXsXsXiXqXqXqXqXqXqXqXiXsXgXfXfXgXgXpX6X6X6XgXlXlXlXgXgXsXiXrXrXrXiXrX;X*X#XoX X X X X X X X X X XoXoXoXoX X X~.~.~.~.!.!.!.!.~.~.~.~.",
"OXOXOXOXOXOXoXoXoXoXoXoXoXoXoXoXoXoXoXoXOXOX+X+X X XoXoXoXOXOXOXOX|.I.U.K.|. XOXOXOXoXoXoXOXoXoXOXOXoXoXoXoXOXOXoXoXoXoXoXoXoXoXoX%X;XpXlXlXgXpXiXiXpXpXiX2X2XsXgXgX2X;X;X;XrXsXgXgXgXgXgXpXgXgXgXgXgXgXgXgXgXlXlXlXgXgXgXgXgXgXgXgXaXaXpXpXiXiXpXpXpXiXiX6X6XiXiXiXpXpXaXaXaXaXpXpXpXpXpXpXaXaXgXgXxXxXxXlXgXgXgXgXgXgXgXgXgXsXiX;X&X*X#X#X#X#X#X$X$X$X2X2X;X;X&X=X%X=X&X;X;X&X&X%X$X$X#X%X=X&X;X;XiXiXiXsXfXgXsXsXsXsXiX;X&X;X;XiXiXsXfXbXbXgXfXfXfXgXgXsXqX;X;X;XqXiXsXsXsXsXsXsXgXfXfXgXfXgXgXgXgXgXgXgXgXgXgXsXiXiXiXpXlXxXxXxXlXgXiX2X;X;XqXqXqX=X*X#X X X X X X XoXoX X XoX#X*XoXoX X X~.~.~.~.Q.Q.Q.Q.Q.~.~.~.~.",
"OXOXOXOXOXOXoXoXoXoXoXoXoXoXoX X X XoX XoXoXoXoX XoX X XOXOXOXOX+X|.U.J.J.I.|.OXOXOXoXoXoXOXOXOXOXOXOXoXoXoXoXOXOXoXoXoXoXoXoXoXoX*XiXpXgXpXiX6X2XiXiXiXiXiXaXlXnXnXgXgXgXgXgXgXgXgXgXgXlXnXnXnXnXnXnXnXnXnXnXnXnXnXlXlXgXgXgXgXaXaXpXiX6X6X6X6X6XiXiXiXiX6X6XiXiXpXpXaXgXgXgXgXgXgXgXgXgXgXgXgXgXgXgXgXgXgXgXgXpXsXiXiXiXiXiX;X&X%X#X$X$X$X#X#X%X%X*X%X%X%X%X%X%X$X%X%X=X&X;X;X;X&X%X%X#X#X#X%X*X;X;XqXiXiXsXsXgXgXfXfXsXqX;X;XiXiXsXsXgXfXgXsXgXfXnXnXgXsXiXqX;XqXiXsXgXfXfXfXgXgXbXnXbXbXbXgXgXgXgXgXfXgXsXiXiXiXiXiXgXlXxXxXxXlXpXiX;X&X*X*X*X*X#X X X X X X X X X X;X*X#XoX#X#X#XoX X X X~.~.!.Q.Q.Q.Q.Q.Q.Q.Q.!.!.",
"OXOXOXOXOX X X X X X XoXoX X X X X X X X X X X X X X X X+XOXOXOX+X|.U.J.J.K.|.+XOXOXOXOXoXoXOXOXoXOXOXOXoXoXOXOXOXoXoXoXoXoXoXoX$X&XiXgXgXiXiXiXiXpXgXlXnXnXmXxXlXlXlXnXmXmXnXlXgXgXgXxXnXMXMXMXnXnXNXlXlXnXnXnXnXlXlXgXgXgXgXgXgXaXaXpXiXpXpXpXpXpXpXaXaXaXpXaXgXgXgXgXgXlXlXgXgXgXgXgXgXgXaXaXaXaXpXaXgXgXgXaXpXiXrX;X;X;X&X#X$X X~.~. X X$X$X$X#X#X#X$X$X$X$X$X$X$X$X%X%X&X&X&X%X%X$X$X$X$X$X#X*X*X;X;X;XqXiXiXsXgXfXsXiXqXiXiXsXsXsXiXiXqXqXiXsXfXbXfXsXiXiXqXqXqXsXgXgXfXgXbXbXnXnXnXnXnXnXnXnXnXnXfXiX;X;X;XiXiXaXpXgXlXlXgXpXiX;X&X&X%X#XoX X X~.~.~.~.~.~. X X XtXwX*X#X#X#XoX X~.~.~.~.~.~.Q.Q.Q.Q.Q.Q.Q.Q.!.!.",
"OXOXOXOX X X X X X X X X X X X X X X X X X X X X X X X X X XOXOX+X|.I.K.J.K.I. XOXoXOXoX X X XoXoXoXOXoXoXoXOXoXoXoXoXoX*X*X*X-X;XiXgXlXxXmXmXmXmXnXxXnXxXxXxXnXxXlXnXxXxXxXxXxXxXlXxXxXxXxXxXxXxXnXnXnXnXnXnXnXnXgXgXgXgXlXgXgXgXgXgXaXgXgXgXgXgXgXgXgXgXgXgXlXxXxXxXxXnXnXxXlXlXlXgXgXgXaXpXpXiXiXiXpXaXgXgXaXpXiX;X;X&X&X%X$X X~.~. X$X$X$X X X X X X$X$X%X%X%X$X$X$X$X$X$X$X$X$X).~. X X X~. X#X%X*X;X;X;XqXqXtXiXiXiXsXsXsXsXsXsXiX;X&X*X&X;XqXiXsXfXsXiXiXqXqX;X*X&XiXfXgXbXbXbXnXnXnXnXNXgXgXgXgXsX;X;X;XiXsXgXgXaXpXiX6XiXiXiX6X;X:X#X X X~.~.~.~.~.!.^.W. XoX*XiXqX*X*X#X#X X X~.~.Q.T.H.H.T.T.T.Q.~. X X X~.~.",
"OXOXOXoX X X X X X X X X XoX X X X X X X X X X X+XOXOX+X|. XOXOXOX X|.I.K.K.I. XoXOX+XoX X|. X X+XOXOXOX+X X XoXoXoXoX*X*X-XqXiXgXgXnXmXmXmXmXnXnXnXnXnXxXxXxXxXxXxXnXxXxXxXxXxXxXxXxXxXxXxXxXxXxXxXxXnXmXmXmXnXnXgXaXaXaXgXgXaXpXpXpXaXaXgXgXgXgXlXlXlXxXxXxXxXnXnXnXnXxXxXxXlXgXgXgXgXgXaXaXpXpXpXpXaXgXgXgXaXpXiXiX2X;X;X&X%X#X%X*X&X&X&X*X%X#X#X$X$X$X$X%X%X%X$X$X).).).$X$X).).~.~. XoX X~.~. X%X&XqXqXqXqXqXqXqXtXiXfXgXfXsXiXqX;X%X#X#X*X;X;X;XqXqXqX;X;X;X;X&X*X*XqXsXsXsXgXfXnXnXnXnXbXgXgXsXsXiX6X;XiXsXaXgXaXiX6X6X6X6X6X6X;X:XoX~.!.Q.!.!.!.!.~.^.H.H. X-XsXqX;X*X#X#X#XoXoXoXoX X~.~. XoX#X#X#X*X*X;X*X*X*X",
" XoXOXOXoX X X X X X X X XoX X X X X X X X X X XOXOXOXOXK.|.oXOXoX X|.L.L.L.I.|.|.L.|.|.|.|.+X+X+X+X+X+X|.|.|. X+XOXOX*XwXiXfXbXnXmXnXnXmXnXnXnXnXnXnXnXxXxXxXxXxXxXxXxXxXxXxXxXxXxXxXxXxXxXxXxXxXxXxXnXmXmXmXnXlXgXsXiXiXiXiXiX6X6XiXpXpXaXgXgXgXgXlXlXxXxXxXnXnXnXnXxXxXxXlXgXgXaXaXaXgXgXgXgXgXgXgXgXgXgXgXaXaXpXsXsXiXtX;X;X;X;XqXiXiXiXiXqX;X;X*X%X$X$X%X%X%X%X$X$X$X$X$X%X%X%X$X$X*X#X#X#X%X&X;XiXsXsXsXiXiXiXiXiXiXfXgXsXqX;X*X#X#X#X%X&XqXqX;X&X*X%X#X#X*X*X&X*X;X;XqXqXiXiXsXgXMXnXnXgXsXiX;X;X;X;X;X4XiXiXiXiX6X6X4X;X;X&X%X$X~.Q.T.T.W.W.W.W.W.H.H.T.!.oX;XqX;X*XoXoXoX#X#X#X*X*X*X*X-XwXtXiXiXqXtXqX;X*X*X*X",
" XoXOXOXOXOXoX X X X X X X X X X|.|.|. XoXoXoX X X|.|.|. XOX;XqXwX-X-X-XOXOX+X X|.L.K.K.I.|. X+X+X+X+X|.|.+X+XOXwXwXtXsXfXNXNXnXnXnXmXmXnXnXnXnXnXnXnXnXxXxXxXxXxXxXxXxXxXxXxXxXxXxXxXxXxXxXxXxXxXxXxXnXmXnXnXxXgXsXiX2X6XiX6X6X6X6X6XiXpXaXgXgXgXgXlXlXlXxXxXxXxXxXxXxXxXxXlXgXgXgXaXaXgXgXgXgXgXgXgXgXgXgXgXgXgXgXgXsXsXiXqX;XqXiXiXsXfXgXsXiXiXqX;X&X%X%X&X;X;X;X=X%X%X&X;X2X2X2X;X;X&X*X*X;XiXiXiXiXiXiXiXiXiXiXiXiXiXiXiX;X*X#X#X$XoX#X*X;X;X;X&X%X#X$X X X$X%X%X*X*X*X*X&X;XiXsXgXfXgXsX6X&X:X$X$X$X$X$X%X&X;X6X6X4X;X:X:X[.~.~.^.T.T.K.H.K.T.T.T.H.Z.H.!.oX*X*X*X*X#XoX X XoX#X*X*X*X*X;XqXiXfXfXfXsXqX;X*X*X*X*X",
" X X XoXoXoXoXoXoX X X X X X X|.|.!.!.!. X X X X X X X X;XiXgXgXgXsXiXiXtXwX-X*XOXoX X|.L.L.L.!.L.|.|.|. XOX-XwXyXfXbXNXnXnXnXnXnXmXnXmXnXnXnXnXnXnXnXnXxXxXxXxXxXxXxXxXxXxXxXxXxXxXxXxXxXxXxXxXxXxXxXnXxXlXgXaXiX2X;X;X2X6X6X6X6X6X6XpXaXgXgXgXlXlXgXgXgXgXgXgXgXlXxXxXxXxXgXgXgXgXgXgXgXgXgXgXgXgXgXgXgXgXgXgXgXgXpXsXsXiXiXiXiXsXsXgXgXgXfXsXiXiXqX;X;X;XiXiXiX2X;X;X;XiXiXpXgXpXsXiXqX;X;XiXsXsXiX;X*X*X*X*X*X*X&X&X&X&X*X%X$X X X X$X#X%X*X*X*X#X#X%X%X#X#X#X#X%X*X*X%X%X*X;XiXfXgXsXiX;X&X%X$X~.~.Q.Q.~.$X%X;X4X4X:X&X[.`.~.^.^.^.^.^.K.K.H.H.H.W.W.T.W. X#X*X#XoXoXoXoX X X X#X*X*X*X*X*X;XiXfXfXsXqX*X#XoX#X*X*X",
" X X X X X X X X X X X X X!.!. XoXoX X!.!.!. XoX*X;XtXiXiXpXgXaXiX2X;XiXiXtXtXtXtXwXwX-X-X*XOXOXoXOXOX*X-XtXyXfXbXNXMXMXMXMXnXnXnXmXmXmXnXnXnXnXnXnXnXnXxXxXxXxXxXxXxXxXxXxXxXxXxXxXxXxXxXxXxXxXxXxXxXxXxXgXiX6X;X&X&X;X;X;X;X;X2X6X6XiXaXgXgXgXgXgXgXgXgXgXgXgXgXgXlXlXxXxXgXgXgXgXgXgXgXgXgXgXpXpXsXsXsXpXpXpXpXpXsXsXsXsXsXsXsXsXsXsXsXsXsXsXiXiXqX;XiXiXiXsXiXiX2X2XrXiXdXgXgXgXgXsXiX;X;XiXiXiX;X%X X X X X X$X$X#X$X$X X X X X$X$X#X#X#X$X$X#X#X%X*X&X;X&X*X%X*X;X;X*X&X;XiXsXgXgX&X&X&X:X%X$XoX~.~.~.~.$X:X;X4XiX:X[.`.~.~.~.~.~.Q.^.K.H.H.H.H.W.!. X X X X X X X XoXoX X XoX*X*X*X*X#X*X*X;XqXtX;X*XoX X X#X*X*X",
" X|.|.|.|.|.|.|. X X|. X!.~.oX-XtXtXwX*XoX*X*X;XiXaXgXgXaXpXpXiX;X%X&X;XiXiXiXsXfXfXfXfXfXfXfXiXiXiXiXfXfXfXNXnXMXMXMXMXMXnXnXmXmXmXmXmXnXnXnXnXnXnXnXnXxXxXxXxXxXxXxXxXxXxXxXxXxXxXxXxXxXxXxXxXxXxXxXxXlXaX6X&X$X$X%X&X&X&X&X&X&X;X6X6XiXaXgXgXgXaXaXaXgXgXgXgXgXlXlXlXlXgXgXgXgXaXaXaXgXgXpXsXiXiX2X2XiXiXsXsXsXiXiXiXsXgXgXgXgXsXiXiXtXiXiXtXqXqX;X;X2XiXiXiXiX2X;X;X2XiXgXlXlXgXgXdXsXiXiXiXiXqX&X%X%X%X*X*X#X#X#X#X#X X~. X X$X X$X$X X X~.~. XoX*X;XqXiXqX;X&X;X;XqX;XqXiXiXsXiX;X&X&X&X%X$X$XoX~.`.~.oX$X*X*X;X;X$X`.`.`.`.oX`.~.Q.K.H.u.Z.K.W.!. X XoX X X X X X~. X XoX#X*X;XqX;X*X*X#XoX#X*X*X#XoXoXoXoXoXoXoX",
" X!.L.L.L.L.I.|.|.|.!.!.~.oX*XiXbXNXfXsXsXsXsXsXiXiXiXiXpXaXaXiX;X&X;XiXgXgXgXgXgXgXgXgXgXgXgXsXsXsXsXgXgXNXnXnXnXnXnXnXmXmXmXnXnXmXnXmXnXnXnXnXnXnXnXxXxXxXxXxXxXxXxXxXxXxXxXxXxXxXxXxXxXxXxXxXxXxXxXxXxXaX6X%X[.[.%X&X%X%X%X&X&X;X2X6X6XiXpXaXaXaXaXaXgXlXlXxXlXgXgXgXgXgXgXaXaXpXiXpXgXgXpXiXiX2X;X2XiXiXsXsXiXiX2X;XsXsXsXsXsXiXqX;X&X&X;X;X;X;X=X;X;X2X2X2X2X;X;X;X2XpXgXkXlXlXgXgXgXpXsXiXiXtX;X;X;XiXqX;X;X;X;X&X*X~.~. X X X~.~.~.~.~.Q.~.~.$X%X;XqXiXqX;X&X;XqX;XqXqXiXiXiX&X%X%X%X%XoX~.~.~.~.~.`.oXOXOX*X*X*XoX`.`.`.`.`.~.^.T.H.u.H.H.W.!. X X X X X X X X X~. X XoX#X*XwXsXiX;X*X#X X XoXoX#X#X#X#X*XoXoX~.",
"|.L.L.K.K.K.!.|.!.!.~.oXiXsXfXfXgXfXsXgXgXgXaXiXiXiXpXpXpXaXpXiXiXsXgXgXgXlXgXgXgXaXgXgXgXgXaXaXaXgXlXnXmXmXmXmXmXxXxXxXnXnXnXnXnXnXnXnXnXnXnXnXnXnXxXxXxXxXxXxXxXxXxXxXxXxXxXxXxXxXxXxXxXxXxXxXxXxXxXxXlXaX6X&X%X$X$X$X&X&X&X&X&X&X%X%X;X2XiXiXsXaXgXaXgXlXlXgXgXaXpXpXaXaXaXpXpXiXiXpXgXgXgXpXsXiXgXsXsXiXsXiXiXrXrX;X=X*X*X*X*X=X=X*X;XQ.~.;XqXrXsX;X;X2X2X2X3X2X3X2XlXgXgXkXlXlXgXgXgXgXgXaXsXsXsXsXpXgXgXgXgXsXiX;X;X;X&X%X%X$X$X).~.~.~.~.~.).$X$XqXiXfXnXbXfXiX;X*X$X X X$X*X$X%X%X%X$X~.~.Q.^.Q.!.!.!.oXoXOXOXoXoX~.`.`.~.~.~.!.W.H.H.K.W.!.!.!. X X X X X X X X X XoX*X*X*X-X*XoX XoXoX X XoX#X#XoX#X*X*X*X*XoX",
"L.K.G.G.!.oX-XtXwX;X;XiXgXgXbXnXnXgXgXgXiXiXpXpXaXaXaXpXpXpXpXiXpXaXgXlXlXxXlXlXgXgXgXgXlXlXlXlXlXxXxXmXmXmXnXxXxXlXlXlXxXnXnXnXnXnXnXnXnXnXnXnXnXnXnXxXxXxXxXxXxXxXxXlXgXlXlXxXxXxXxXxXxXxXxXxXxXxXxXgXgXpX6X6X2X2X2X6X6X6X2X2X2X2X2X6X6XiXiXiXiXsXsXiXiXiXiXiXiXiX6X6XiXiXiXiXiXiXsXpXpXgXgXpXpXpXpXpXsXiXiXiXiX2X;X;X.X.X.X.X#X.X.X.X$X.X;XdXiXiXpXiXrX2X2X2X2X6XiXpXaXgXgXkXkXgXgXgXgXgXgXgXgXgXpXpXgXgXlXlXgXgXiXiXiX2X2X;X;X&X&X%X$X$X$X$X$X$X$X%X;XiXgXnXbXsX;X*X X X~.~.oX$X$X$X$X$XoX~.~.~.^.^.W.H.K.!.OX*XOXoX!.!.~.!.!. XoX X!.W.K.K.!.!.!.!.!. X X X X X X X XoX*X*X-X*X*XoX X X X X~.~. XoXoXoX#X*X*X;X;X*X",
"K.K.K.W.-XtXfXgXgXsXsXgXgXgXgXgXgXsXsXpXiXiXpXaXaXiXiX6X2X6XiXpXgXlXlXxXxXxXxXlXlXlXlXlXlXlXxXnXmXmXmXmXmXnXxXxXxXxXlXxXxXxXnXnXnXnXnXnXnXnXnXnXnXnXnXxXmXmXxXxXxXxXlXgXgXgXlXxXxXxXxXxXxXxXlXlXgXaXpXpX6X6X6XpXpXgXgXgXaXpXiXiXpXaXgXgXgXpXiX2X;X;X;X;X;X;X;X6XiXiX2X;X2XiXiXiXiXiXiXsXsXsXiXiXiXiXiXiX2X2X;X;X;X;X&X=X=X%X$X$X$X$X$X.X$XqXgXbXsXdXgXdXpXiXiXiXiXiXiXpXpXaXaXgXgXgXgXgXgXgXaXaXgXaXpXpXaXgXlXlXgXdXsXiX2X2X2X2X;X;X;X;X&X&X%X%X&X&X&X&XsXfXgXfXsXqX*X#X X~.~.~.~.$X$X$X$X$X$XoXoX`.`.`.^.H.H.W.oXoXoX X!.W.!.!.!. XoXoX X!.!.!.!.!.!.!. X X X X X X~. XoXoXoXoXoX X~.Q.~.~.~.~.~.~.~.~.~. XoX*X;XqXqX;X",
"L.!.oX*XiXfXgXgXlXgXgXgXgXaXhXaXsXiXiXaXaXaXpXiX6X;X%X$X6XiXpXgXlXlXxXxXxXxXxXxXxXxXlXlXlXxXxXnXmXmXmXmXnXxXxXxXxXxXxXxXnXnXnXnXnXnXnXnXnXnXnXnXnXnXnXxXmXmXxXxXxXxXlXgXgXgXxXxXxXxXxXxXxXxXlXlXaXpX7X6X6X6XpXgXlXxXlXgXgXaXgXgXlXxXxXlXgXsX2X;X&X=X=X&X&X$X&X2XpXpXiX6X6XiXiXiXiXiXiXiXiXiXrX2X;X;X;X;X&X=X=X=X=X=X=X=X=X=X=X$X$X.X.X.XrXgXnXgXiXgXnXlXgXaXaXaXaXaXaXaXaXaXaXaXaXpXpXpXpXpXaXaXpXpXpXpXaXgXlXlXgXpXiX;X;X;X;X;X;X;X;X&X%X%X%X&X&X;X;X;XNXbXsXtX;X*X%X%X#X X~.~.~.oX~.$X~.~.oXoX$X$X*XOXoXW.K.K.L.!.L.K.L.!.!. X X XoXoXoX X!.!.!.!.!. X XoXoX X X X XoX#X#XoX X!.!.!.Q.~.~. X X~.Q.Q.Q.!.~.oX*XqXtXtXtX",
"'.*XtXgXaXpXsXgXgXgXsXiX;X;XiXgXgXsXiXsXiX6X2X;X;X;X;X;XgXgXlXlXxXxXxXxXlXxXxXxXxXxXxXlXlXlXxXxXmXnXnXxXxXxXxXxXnXnXnXnXnXnXnXnXxXxXnXnXnXnXnXnXnXnXxXxXxXxXxXxXxXxXxXxXxXxXxXxXlXlXxXxXxXxXxXlXaXpXpX7XpXaXlXxXxXlXgXgXaXgXgXxXnXnXlXgXiX;X&X%X%X%X%X&X&X%X;XiXgXgXgXpXiXiXiXiXiXiXiXiXiXiX;X;X&X%X%X$X$X$X$X$X%X*X*X=X;X;X=X=X$X$X.X.XdXnXMXfXgXnXnXlXgXgXgXgXgXaXaXaXaXpXpXiXpXpXpXpXpXpXpXpXpXpXpXpXpXgXlXgXpXiX2X%X$X$X$X$X$X%X%X$X$X$X$X%X%X&X;X;XgXgXiX;X%X#X#X#X#X$X X~.~.~.~.~.~.~.~.oX$X*X:X*XoX X!.K.G.G.G.K.K.!.!.oXoXoXoXoXoXoX X!.!.!.!. X X X XoX*X*X-X;X-X*XoX X X X XoX*X*X*X*X#XoX X X X X*X;XiXsXsXtX",
"OX*XiXgXsXiX6XiXiX4X*X$X$X$X;XgXxXpX6X2X$X$X$X&X2XpXlXnXmXxXxXxXxXxXxXlXlXlXxXxXxXxXxXxXxXxXxXxXxXxXxXxXxXxXxXxXxXxXxXxXnXnXnXnXnXnXnXnXnXnXnXnXnXnXxXxXxXxXxXxXxXxXxXxXxXxXxXxXlXlXlXgXlXlXlXgXgXaXgXgXgXxXxXxXxXgXgXaXgXgXxXnXnXgXpX6X&X$X$X%X%X%X&X&X;X;X6XpXlXxXgXaXpXpXiXiXiXiXiXiXiXiX2X;X=X$X$X.X.X.X.X$X$X$X$X$XrXrXrXqX;X;X;X;XdXmXnXbXnXMXlXiXgXgXgXkXkXgXkXaXaXaXaXpXpXpXpXpXpXpXpXpXpXpXpXpXpXgXgXpX6X2X%X$X).~.~.~.~.Q.Q.Q.Q.Q.~.~.$X$X*X&X;X;XqX;X;X*X#X#X$X$X X~.~.~.~.~.~.~.~.oXoXXX*XOXoX'.!.K.C.C.C.G.K.L.!.oXoXoXoXoXoXoXoX X!.!. XoX X XoX*X-XwXtXqX;X*X*X#XoX*X*X-X;X;XqXqX;X&X*X*X*X*X&XqXsXsXsXiX",
"*X*X;X;X;X;X:X*X$X*X*X%X%X&XiXxXxXiX;X&X$X%X;X6XaXxXmXMXmXmXxXnXxXxXlXlXlXlXlXxXxXxXxXxXmXnXmXmXmXxXxXxXlXxXxXxXxXxXxXxXnXnXnXnXnXnXnXnXnXnXxXnXxXxXxXxXxXxXxXxXxXxXxXlXlXlXlXlXlXlXlXgXgXgXgXgXlXlXxXxXxXxXxXxXlXgXgXgXlXxXxXxXgXiX;X%X$X$X$X%X&X&X;X;X;X6XiXaXgXgXgXaXpXiXiXiXiXiXiXsXsXiXrX;X=X$X.X~.~.~..X.X.X$X$X$X;XrXrXrXiXiXiXiXdXnXnXgXnXnXdXrXgXgXgXgXgXkXaXaXaXaXaXaXaXaXaXaXaXpXpXpXpXpXpXpXpXpXpX6X2X%X[.).).~.~.R.R.^.^.^.^.T.^.Q.Q.~. X X X$X%X;X;X&X*X%X#X#X X~.~.~.~.~.~.~.~.~.`.`.oXoXoX X!.K.G.G.G.G.G.G.K.!.oXoXoXoXoXoXoX X!. XoXOX*X*X*X;X;XqXtXqX;X*X*X*X*X*X*X*X*X&X;X;X;X&X&X&X&X*X&X;XiXiX;X;X",
"*X:X*X*XXXoXoX~.~.$X6XgXgXaXgXmXnXpX;X;XiXpXgXlXxXxXlXlXlXlXlXxXxXxXlXlXlXlXxXxXxXxXnXnXmXmXmXnXmXxXxXxXlXlXxXxXxXnXmXmXnXnXnXnXnXnXnXnXnXnXnXnXxXxXxXxXxXxXxXxXlXlXgXgXgXgXgXgXlXlXlXlXgXgXgXlXlXxXxXxXxXxXlXgXgXaXgXgXlXlXgXaX6X;X$X$X$X$X&X;X2X2X2X2X6XiXpXaXaXaXpXiXiXiXiXiXiXiXsXsXpXiX2X=X$X.X.X~.~.~.~..X.X.X.X$X$X=X=X=X;XrXiXiXgXMXNXdXgXgXpXpXgXgXgXgXkXkXaXaXaXaXaXaXaXaXaXaXaXaXaXpX7XpX7X7X7X7X7X2X&X{.)._.).).~.E.R.T.T.T.^.T.^.Q.Q.~.~.~.Q.~.$X%X%X&X;X;X;X&X%X$X~.~.~.~.~.~.~.~.`.~.`.oX X!.L.K.K.K.K.G.C.u.G.K.!. X X!.!.oXoXoXoXoXOX*XwXqXqX;X;X;X;X*X*X*X*X*X#X X~.Q.Q.~.$X%X%X%X&X&X&X%X%X%X&X&X%X%X",
"oXoXoXoX~.~.$X&X6XaXlXxXnXnXxXxXlXgXgXgXgXgXgXgXkXlXlXlXlXlXlXlXxXxXxXxXxXxXxXxXmXmXmXnXxXxXxXxXxXxXxXxXxXxXxXxXxXmXmXmXmXnXnXnXnXnXnXnXnXnXnXnXnXnXxXxXxXlXlXlXgXgXgXgXgXgXgXgXlXlXxXxXlXlXxXxXxXxXxXcXxXxXgXpX6X6XpXaXaXpXiX2X&X$X$X$X%X;X2XiXiXpXpXpXiXiXpXaXaXaXpXiX2X2X6XiXpXaXgXgXpXiX;X%X$X$X#X.X.X.X#X#X$X$X$X$X*X=X=X$X=XqXrX;XrXiXdXfXsXiXiXpXgXgXgXgXkXkXkXaXpXaXkXkXgXiX7X7XaXaXaX7X1X2X2X<X{.c.R.{.<XaXkX3X%X{.).c.i.i.c.T.^.^.Q.Q.~.~.~.~.~. X X#X*X;XqXiXqX;X;X*X#X~.~.~.~.~.~.`.`.~.~.oX X!.K.K.L.L.K.G.C.u.u.G.K.W.L.K.K.!. XoXoXOX*X*X;X;X;X;X;X*X*X#X#X$X#X$X X~.^.T.Q.~.~.$X#X*X%X&X&X%X%X$X%X%X%X%X",
"*X*X&X&X%X&X2XiXgXlXlXlXkXgXgXgXgXgXgXlXlXlXlXlXlXlXlXlXlXlXlXxXxXmXmXmXmXxXnXnXnXmXmXmXxXxXlXlXlXlXxXxXxXxXlXlXlXxXmXmXnXxXxXxXxXxXxXxXxXxXnXnXxXxXlXlXgXgXgXgXgXgXgXgXgXgXgXgXgXgXlXlXxXxXxXxXxXxXcXxXxXlXpX6X6X6X6X6X6X6X;X&X&X%X&X;X;X6XiXpXaXgXlXlXaXiXiXpXaXaXpXiX$X&X6XaXlXnXnXnXsXrX;X=X=X=X=X=X*X=X=X=X&X;X;X;X;X;X;X$X*X;XrX;X=XqXiXiXrX;X2XiXgXgXpXgXkXlXkXaXaXlXlXlXgX2X2X7X7X5X7X<X{.1X%X/.h.Q V V Z e.>X3X>X{.(.R.T.T.^.^.Q.Q.Q.~.~. X$X$X$XoX X~.~. X#X*X&X&X;X*X*X%X*X$X$X$X$XoXoX`.`.oX XL.G.G.K.K.K.K.K.G.G.G.H.K.G.u.u.K.!. XoXoXOX*X*X*X*X%X*X#XoXoXoXoXoX~.~.Q.^.^.Q.~.$X$X$X#X*X&X&X%X$X$X%X&X;X;X",
"iXaXgXgXlXlXlXlXlXkXkXgXpXpXpXgXgXlXlXxXnXnXnXnXnXlXlXlXnXnXxXxXxXnXmXmXmXxXxXxXxXxXxXxXxXxXlXlXlXlXxXxXxXxXlXlXlXlXlXxXxXxXxXxXxXxXxXxXxXxXxXxXxXxXxXlXaXpXpXpXaXgXgXgXlXlXgXgXgXgXgXgXxXxXxXxXxXxXxXxXlXgXiX6X;X&X&X&X&X&X;X;X;X;X6X6XiXiXiXpXgXgXlXlXgXiXiXpXaXaXpXiX2X6XaXlXxXnXlXgX;X&X&X;X;X;X;X;X=X;X;X;XrXrXrXrXrXrXqX=X=X;X;X;X=X=X=X=X=X;XiXpXpXiX6XiXkXlXlXkXkXlXkXkXkXaXiXaX7X1X3X{.{.1X/.^ 7 1 $ 1 4 Q R.{.<.E Z N N A w.$XQ.Q.Q.~.~. X X X X~.~.~.~.~.$X#X*X*X%X%X%X%X%X%X$X$X$XoX`.`.~.~.!.K.C.u.u.C.G.K.K.K.K.G.G.C.u.q.q.G.L.!.oXoXoXoXoXoX$X$X$XoX~.~.~.oXoX`.~.Q.^.^.Q.~.~.~.~.$X%X&X&X%X$X$X%X;X;X;X",
"lXlXlXlXlXlXkXkXgXgXgXkXkXlXlXlXlXxXnXnXnXnXnXnXnXlXlXxXnXmXxXxXxXxXxXxXxXxXxXlXlXlXlXlXxXlXlXlXlXlXlXxXxXxXxXxXxXxXxXxXxXxXlXlXlXlXlXlXlXlXlXxXlXlXgXgXpXiX6X6XpXpXaXgXgXgXgXgXaXgXgXgXxXxXxXxXxXxXlXgXpX6X6X2X;X&X&X;X2X6X6XiXiXpXpXpXpXpXpXaXaXgXgXgXgXiXpXaXgXgXgXaXgXgXxXnXnXgXdXiX&X=X;X;X;X;X;X;X=X;X;X;X;XrXrX;X;X;X;X=X$X%X&X=X$X$X$X=X;XrXiXiX2X3X2X2XaXlXlXkX2X&X[.&XpXpX2X2X<X<X{.v.m./.^ 1     @ 1 0 ^ f.d.<.V 4 # o   6 5 Q.Q.~.~.~.~.~.~.^.Q. X#X&X;X;X;X*X%X#X$X$X$X$X$X$X$X$XoX`.~.~.~.!.K.u.q.6.q.9.u.L.K.K.G.G.C.u.u.C.K.!. XoXoX~.~.~. XoX$X$X$XoXoX$X$X$X$XoX~.Q.^.^.^.Q.Q.Q.~.$X%X%X$X$X$X#X%X&X&X",
"kXkXkXkXkXkXkXkXkXlXlXlXxXnXnXxXnXxXxXlXlXxXxXnXnXnXnXmXmXmXxXlXlXlXlXlXlXlXlXgXgXgXgXgXlXlXlXlXlXlXlXlXxXxXnXmXnXxXxXxXlXlXgXgXgXgXgXgXgXgXgXgXgXgXgXaXpXiX6X6X6X6X7XpXpXpXaXgXaXgXgXgXlXxXxXxXlXgXpX6X6X2X&X;X;X2X6X6XiXpXaXgXgXgXgXaXaXaXpXaXaXaXgXgXaXpXaXgXxXxXxXxXxXnXnXnXlXgXiX2X;X&X;X;X;X&X=X*X=X=X=X=X=X=X=X=X=X=X%X$X.X.X$X&X=X$X$X=X;X;X=X$X%X&X&X3XpXkXkXgXR.3.Q ;.c.).E._.{.>X/.d.4.2.0 o .   # N Q 2.l.2.4.Z 1 @   . . . 4 ~.$X~.~. X X X#X*X;XiXiXiX;X%XoX X X X X~.Q.~.$X%X$XoXoX`.~.~.oX!.H.9.6.6.6.9.K.K.K.K.K.K.K.K.K.!. XoXoXoX~.Q.~. X$X$X$X$X$X%X%X%X%X%X$X).~.^.T.T.T.^.Q.~.$X%X%X$X~.~.oX$X#X%X",
"gXaXgXgXkXkXlXlXlXxXxXxXcXxXxXlXlXgXgXgXgXgXlXlXnXnXmXmXmXmXxXlXlXlXgXgXgXgXgXgXpXpXgXgXkXlXlXlXlXlXlXlXlXxXxXxXlXlXkXgXpXiXiXiXiXiXiXiXiXiXiXiXiXiX6X6X6X6X6X6X6X6X6X6XpXpXpXaXaXgXgXgXgXgXgXgXaXpX6X6X&X&X&X;X6X6XpXgXgXgXgXgXgXgXaXaXpXpXpXaXaXgXgXlXgXgXgXlXnXmXmXxXgXgXgXgXaXpXiX2X;X;X&X=X=X=X*X*X*X*X$X$X#X#X.X.X.X.X$X$X.X~.$XrXgXdXrXrXrX;X;X%X%X%X%X<X7XaXaXaXj.Z 1 1 Z ,.f.j.R._.j.:.^ ~ 0 # $ $ 7 Y ~ 4.j.d.N 7 #   . . . . @ T.%X~. X$X#X#XgXgXfXsXrX*X X^.^.^.~. XoXoX~.$X%X&X*X%X*X*X*XoX*XoX!.C.9.q.9.u.K.L.!.!.!.!.!.!. XoXoXoXoXoX~.Q.~. X$X$X%X%X%X%X%X&X&X%X$X).~.^.k.i.T.^.Q.~.$X%X%X$X~.~.$X$X$X$X",
"gXkXlXlXlXlXxXxXcXxXxXxXxXxXlXlXgXpXpXiXiXpXpXpXgXgXlXlXxXxXxXlXlXgXgXgXgXgXgXgXgXgXgXgXgXlXlXlXlXlXlXlXlXlXgXgXpXiX6X2X;X&X&X&X&X&X&X&X&X&X&X&X&X&X&X&X&X&X2X6X6X6X6X7XpXpXaXaXaXgXgXgXgXgXgXaXaXpX6X6X6X2X6X6XiXaXgXlXlXgXgXgXaXaXpXpXpXpXpXaXgXgXxXxXlXgXgXlXnXmXnXxXiXiX6X6X6X2X;X;X%X$X$X$X$X*X=X;X&X*X%X#X#X$X.X.X~.~.$X*X#X.X=XdXMXnXgXiXrX2X2X2X&X%X{.%X2X7X7X1Xl.V # # 0 ^ 4.x.j.h.4.:.Q Y B N q 7 q Y T ^ ( Y 1 4 $   . . . . $ ~.%X~. X*X;X;XnXnXfXqX%X~.Q.T.T.^.^.~. X$X%X*X;XiX;X;X;X-X*X*X*X*X*X XK.H.K.W.!.oX*X*X*XoXoXoXoXoXoXoXoXoX~.~.~.`.$X$X$X%X%X%X%X%X%X$X[.~.R.T.k.T.^.E.Q.~.[.$X$X).~.~.$X$X$X$X",
"lXlXlXlXlXxXxXxXcXcXxXxXlXlXlXgXgXpXiXiX2X2X2X2X2XiXiXiXpXgXgXgXgXgXpXpXpXpXgXgXlXlXlXgXgXgXlXlXlXlXlXlXgXgXpXiX6X2X;X&X%X%X%X%X%X%X%X%X%X%X%X%X%X%X%X%X%X&X&X6X6X6XpXpXpXgXgXgXgXaXpXpXpXpXaXgXgXgXaXpXiX6XpXpXgXgXgXgXgXgXaXaXpXiXiXpXpXaXgXgXgXlXxXxXgXgXaXgXlXlXlXgX;X;X;X&X&X&X%X%X$X).~. X.X$X;X=X&X*X$X#X$X$X$X.X~.~.$X;X=X#X;XbXrXiXiXrX;X$X$X%X%X%X{.%X<X1X1X1Xj.Z # # N :.4.j.d.:.2.>.Q B B E q 7 B ^ ^ ^ Z 4 1 $ @ X   . .   ;.sX$X~.$X;XiXsXgXsX;X%X X~.~.~.Q.^.^.^.Q.~.$X;XiXiXiXiXtXtX4X;X;X;X;X*XoXoXoXOXoX*X;XtX*X*XoXoX~.`.~.~.`.oXoX~.~.~.~.$X$X$X$X$X$X$X$X[.~.E.T.c.k.c.R.R.E.~.~.[.).~.~.~.[.$X$X$X",
"lXlXlXlXlXlXxXcXmXxXxXlXlXlXgXgXpXpXpXiX6X2X;X&X%X;X;X2X6X6X6XpXpXpXpXpXpXgXgXlXlXlXlXgXgXgXgXgXgXgXgXpXpX6X6X6X6X2X2X2X;X%X%X$X[.$X%X&X;X%X$X).).$X;X6XxXxXgXpXpXpXpXaXgXgXgXgXgXgXgXaXaXaXgXxXxXxXlXgXgXgXgXgXgXgXgXgXaXpXpXpXpXpXaXgXgXlXlXlXlXgXaXpXpXpXpXpXpXpX6X;X%X%X%X%X%X$X$X).).~.~.~. X$X#X*X*X*X#X#X%X*X*X;XtXiXiXqX;XrX;XrXrXqX;X;X%X%X$X[.%X%X%X>X>X<X1X5X(.^ 8 8 E d.h.h.4.:.:.:.^ E T E Z N Z Q :.^ 0 1 # @           @ i.&X$X X%X;XiXsX%X$X~.Q.^.^.^.^.^.^.^.^.^.Q.~.~.;X6XiXsXiXtX4X;X;X4X;X*XoX~.~.~.~.~.~.~.$XoXoX`.`.~.~.oXoX*X%X%X~.Q.~.$X%X$X).$X%X%X%X$X[.~.~.~.[.$X$X$X$X$X$X$X[.~.~.~.[.$X%X;X",
"xXlXlXgXlXxXxXxXxXxXlXlXlXlXgXgXgXgXgXpXiX6X2X;X2X2X6XiX6XiXpXpXgXgXgXgXpXpXgXgXgXgXgXgXpXpXpXpXpXpX6X6X2X2X2X6X6XiXpXpXiXiX6X2X2X2XiXpXpXpX2X;X;X6XpXgXgXgXgXaXpXpXpXpXgXgXlXxXlXlXlXlXlXlXxXxXxXxXxXlXgXgXlXlXlXgXgXaXpXaXgXgXgXgXlXxXxXxXxXlXgXpX6X6X2X2X;X&X;X&X%X$X[.).[.$X$X$X[.[.).).).$X*X&X;X;X;X-X*X*X;XqXiXsXiXiXrXrX;X;X;X;X;X;X;X=X=X%X%X%X%X%X<X<X<X1X5X9X>X>.w q ^ d.h.4.4.:.:.:.( Q E E T Y E Q ^ Y 7 1 @ o       .     t.%X~.oX%X&X;XtX&X%X$X~.Q.^.^.^.T.T.T.T.^.Q.~..X%X&X;XiX4X4X;X;X;X;X*X*XoX~.~.~.~.~.~.$X$X*X$X$XoXoX$X*X*X;XiXiX$X[.$X&X&X%X&X6XiX6X;X;X;X&X&X&XpXiXiX6X2X2X2X;X&X$X~.~.$X&X2XiX",
"xXlXlXlXlXxXxXmXxXxXlXgXlXlXgXgXgXgXgXgXgXpXiXiXiXiXpXgXgXgXgXlXlXlXgXgXgXpXpXpXpXpXpXpXpXpXpXpX6X6X2X2X2X2X2X6X6XpXpXgXpXpXpXpXpXgXgXlXlXlXgXpXpXaXlXlXgXaXpXpXpXiXpXpXaXgXgXxXxXxXxXxXxXxXlXlXgXgXgXgXgXgXgXgXgXgXgXgXgXgXlXxXxXxXxXxXxXxXlXgXpX6X2X;X2X&X%X%X%X%X%X$X$X$X%X%X%X%X%X$X%X%X&X;XiXiXsXsXiXqX;X;XqXiXsXsXiXiXqX;X=X=X%X%X*X=X=X=X%X%X%X%X%X{.>X1X1X5X9XzX1Xj.W Y :.h.d.4.4.:.:.:.) ~ Q E E E ~ ^ ^ Z 4 1 @ X     . . .   t.~.~.$X%X&X&X;X;X;X%X$X~.Q.^.^.T.T.T.T.^.Q.~.~.$X&X;X4X4X4X;X;X;X;X;X:X*XoX`.$X*X:X&X&X&X&X&X%X%X%X$X:X&X;XiX6X;X&X&X&X2X2XiXaXpX&X$X$X%X&X;X;X;X2X;X%X%X&X;X2X;X&X$X$X%X;XiXpX",
"xXlXgXgXlXxXxXxXxXlXlXgXgXgXgXgXgXgXlXgXgXgXpXpXpXpXgXgXlXlXlXgXgXgXgXgXpXpXpXpXpXpXpXpXpXpXpXpX6X6X2X2X2X2X2X6XiXpXgXgXpXpXgXgXgXgXgXlXlXlXgXgXpXgXgXlXgXaXaXpXpXpXpXpXpXgXgXgXlXlXlXlXlXgXgXaXpXpXaXaXgXgXaXaXgXgXgXxXxXxXxXxXxXxXxXxXgXgXpX6X6X6X2X2X6X2X2X2X2X6X2X2X2X2X2X2X2X2X;X&X3XiXpXgXgXgXgXgXsXiXqXqXiXsXgXsXiXqX;X=X%X$X$X$X$X$X$X$X.X).).).{.{.>X1X5X9X0XkX5X(.>._ 2.d.d.4.2.:.:.:.) ^ ~ Q T Z E Q Z 8 @ @ X           @ 1 ^.:X%X&X;X&X;XiXiXiX;X&X$X$X~.Q.^.^.^.^.^.^.Q.~.$X%X&X;X;X;X;X4X6X6X;X;X&X%X%X:X&X;X&X&X&X%X$X$X$X$X$X$X$X$X$X&X&X;X&X2X6XiXaXgX&X[.R.T.~.$X$X[.[.).).~.).$X;X6XiX6X;X;X;X2XiXpX",
"gXgXgXgXgXxXxXxXlXgXgXgXgXgXgXgXgXgXgXgXgXgXgXpXpXgXgXgXgXpXpXpXpXpXpXpXpXpXpXpXpXgXgXgXgXgXpXpXpXpXpXpXpXpXpXpXpXgXgXgXpXgXgXlXlXlXlXlXlXlXlXgXgXgXgXgXgXgXgXaXaXpXaXpXpXpXpXaXgXgXgXgXgXaXpXpXiXpXaXaXaXaXaXaXgXgXxXxXxXxXxXlXgXgXgXgXpX6X6X6X6X6X6XpXpXpXpXpXpXpXpXpXiXiXiX7XiX6X2X2X6XgXlXlXlXgXsXiXqX;X;X;XqXiXiXiX;X;X=X=X%X%X%X%X%X$X$X.X).).E.E.(.{.>X1X9X9X9X9X5X>Xj.2.g.d.g.4.2.:.:.:.) ^ ~ Q Y B Z Z N 1 @ X # @ @ @ # 4 I t.&XiX6XiXiX;X;XiXiXiX;X;X&X%X%X$XoX~.Q.Q.Q.Q.Q.Q.~.`.$X$X&X&X;X6XiXsXiXiX6X6X2X6X6X4X;X&X:X%X%X%X:X&X&X&X:X%X$X$X$X&X2X6X6XpXiX6X&X}.R.R.).[.$X[.).).[.[.%X;XiXaXgXgXpX6X6X6XiX6X",
"gXgXgXgXgXgXlXgXgXgXpXpXgXgXgXgXgXgXgXlXgXgXgXgXgXgXgXgXpX6X6X6X6X6X6X6X6X6XpXpXgXgXlXlXgXgXgXgXgXgXgXlXlXlXgXgXgXgXlXgXgXlXlXnXnXxXlXlXgXlXlXlXlXgXgXgXgXgXgXgXgXaXaXpXpXiXiXpXpXaXgXgXgXaXaXgXgXgXgXgXgXgXgXgXgXxXxXxXxXxXgXgXaXpXpX7X6X6X6X6X6XpXgXgXgXpXpXpXpXiX6X6X2X2X2X7X7X7X7X6XiXaXgXgXsX6X;X%X%X%X%X%X&X&X&X;X;X;X;X;X;X;X;X;X&X%X%X%X$X).)._.{.>X1X9X9X5X1X1X1X>Xv.d.g.g.4.4.4.>.:.:.) ^ ~ ~ Y N q q V q 8 7 N 7 4 4 M / R.6X;XiXiXiX6X;X;X6XiXtX;X;X&X&X*X%X*X$X$X~.~.~.~.Q.Q.Q.~.).[.$X&X;XaXaXaXpXiXiXiXsXsXsXiX4X;X;X;X4XiXiXiXiX6X;X&X%X%X&X2X2X2X6X2X&X%X).R.R.E.).).).).[.$X&X2XiXgXlXlXgXaXpXiX6X6X2X",
"gXgXgXgXgXgXgXgXgXaXaXaXgXlXlXlXlXlXlXlXkXgXgXgXgXgXpXpXpXpXiX6X6X6X6X6X6XpXpXpXgXgXlXlXlXlXgXgXlXlXlXlXlXlXgXgXgXgXgXgXgXlXlXnXnXlXgXgXpXpXgXgXgXgXgXpXpXpXpXpXaXaXpXpXiX6XpXpXpXgXgXgXgXgXlXlXxXxXxXxXxXxXxXxXxXxXxXlXlXgXgXgXpXpXpXpX7X6X7XpXpXaXgXgXgXpXpX7X7X6X2X2X2X2X2X2X7X7X7XpXpXpXpXpXiX2X;X&X=X=X&X;X;X;X;X2XrXrX2X2X;X;X2X2X2X2X2X2X2X3X<X3X1X5X9X0X9X1X,X,X,X>Xn.f.2.2.2.d.4.:.:.:.) ^ ~ Q Z q 7 0 Z E Z Q Q A A A I w.~.;X$X;X2X6X;X$X$X;X;X;X;X&X&X%X%X%X*X$X$X$X$X$X$X$X$X$X$X$X$X&X6XiXaXaXaXpXaXpXpXaXgXgXaXsXsXiXsXhXgXgXgXgXhXiX6X;X&X2X2X&X&X;X&X%X[.).~.E.E.E.R.R.R.E.).%X;X6XpXgXgXgXgXpXpX6X2X2X",
"aXaXgXgXgXgXgXgXgXgXgXgXlXlXlXlXlXlXlXlXlXlXgXgXgXgXgXgXgXgXgXpXpXpXpXpXpXpXpXgXgXgXlXlXlXlXlXlXlXlXlXlXgXgXgXgXgXgXgXgXgXgXgXlXlXgXpXiXiXiXiXpXpXpXpXiX6XiXpXpXpXpXpXaXpXpXpXpXaXgXgXlXxXxXxXxXxXxXxXnXnXmXmXmXxXxXlXgXgXgXgXgXgXgXaXpXpXpXpXpXpXpXpX7XpX7X7X7X7X7X7X7X7X7X7X7X7X7X7X7X7X7X7X7X6X6X6X6XiXiXiXpXpXpXpXpXiXiX2X3X&X&X3X2X7X7XiXpXaXaXaX7X9XkXkX9X5X1X>X>X>X].v.d.>.>.>.4.2.:.) ) ) ^ ~ ~ T C N C Q Q V N Z I Q *.-.i.~.$X).%X;X2X;X$X$X%X;X;X&X&X%X$X%X%X*X*X%X%X%X&X&X&X;X;X;X;X2XiXpXgXgXaXpXiXiXiXiXiXgXgXgXgXgXaXaXgXgXgXgXaXaXiX6X2X2X6X2X%X%X&X&X%X[.[.[.).).E.R.R.c.c.R.~.).%X&X2X6XpXpXpXpX6X2X2X",
"gXaXgXgXgXgXgXgXgXgXlXlXlXxXlXlXlXlXlXlXlXlXgXgXgXgXgXgXgXgXgXgXgXgXgXgXlXlXlXlXlXlXlXlXlXxXxXxXlXlXgXgXgXgXgXgXgXgXgXgXgXgXgXgXgXgXpXiXiXiXiXpXpXpXpXpXiXpXaXgXaXaXpXaXgXgXgXgXgXgXgXgXgXlXgXgXgXlXlXxXnXnXnXxXlXlXgXgXlXlXlXlXgXgXpXpXpXpXpXpX7X6X6X1X2X6X5X1X7X7X7X7X5X1X1X1X3X3X<X<X<X<X3X<X<X<X<X<X2X2X2X7X7X7X7XpX7X6X2X&X%X&X<X6XpXpXpX7X7X7X7X8X8X9X9X1X,X>X>X>X].M.j.2.:.) ) >.>.:.:.) ) ^ ~ ~ E Z C C T E V N Z Q Q ;.e.T.~.).).$X&X;X&X$X$X%X%X*X%X%X%X%X%X%X%X%X%X%X%X$X$X$X2X6XiXpXpXgXgXgXaXpXiXiX6X6X6X6XgXgXgXgXgXgXaXaXsXiXpXgXaXsXiX2X;X2X;X%X&X&X&X%X[.[.[.[.).~.E.E.R.R.E.E.E.).).[.%X&X2X6X6X6X6X2X",
"gXgXgXgXgXgXgXgXgXlXlXlXlXlXlXlXlXlXgXgXgXgXgXgXgXgXgXgXlXlXlXlXgXgXgXlXlXlXlXlXlXlXlXlXlXxXxXlXlXgXgXpXgXgXlXlXlXlXgXgXgXgXgXlXlXlXgXgXgXpXpXgXgXgXgXgXpXpXpXpXaXaXaXgXgXlXgXgXgXgXgXgXgXgXgXgXgXgXgXgXgXgXgXaXaXaXaXgXlXlXlXgXgXpX6X6X7XpXpX7X6X6X<X3X3X3X3X>X>X>X>X>X>X>X{.{.].].(.(.(.(.(.(.(.(.(.(.).{.{.3X1X1X5X7X7X5X2X<X<X<X2X7X7X7X7X6X5X7X5X8X5X5X1X>X>X>X>X>X/.x.d.:.) ) ) ) :.:.:.:.:.^ ~ ~ Q T Z Z E Q Z A ~ ;.I *.i.[.[.[.[.$X&X;X;X&X;X;X;X;X;X;X;X&X&X*X%X%X*X*X%X%X%X%XpXaXaXgXgXgXgXaXpXiXiXiXiXiXiXiXpXaXaXaXpXiXiXiXiX2X2XiXiXiX2X;X;X&X&X&X%X%X%X$X[.[.).).).).).).[.$X[.[.).).~.~.).[.%X&X2X6XpXpX",
"gXgXgXgXgXgXgXgXgXgXgXgXlXlXlXgXgXgXgXpXgXgXgXgXgXgXgXgXlXxXxXlXlXgXgXgXlXlXlXxXlXlXlXlXlXlXlXlXlXgXgXgXgXlXlXxXlXlXgXgXgXgXgXgXlXlXlXlXgXgXgXgXgXlXgXgXaXpXpXaXaXgXgXlXxXlXxXlXlXlXgXgXgXgXgXgXgXgXgXaXpXiXiXiXiXiXpXpXgXgXaXpX6X6X6X6X6X6X6X6X6X<X&X&X&X{.{.{.(.(.(.(._._./.n.v.v.v.b.b.v.v.x.j.j.j.j.x.v.R._.].{.>X3X1X5X6X2X6X5X5X5X5X5X5X6X5X5X5X5X5X,X>X].(.>X>X].n.f.>._ _ ( ( ( :.>.>.:.:.) ^ ~ Q E T T Q Q E Q ;.-./ ,.).6X2X;X&X;X;X2X2X2X2XiXsXsXsXsXsXsXiXtX;X;X&X;X;X;XiXsXgXgXgXlXlXgXgXgXaXpXiXiXpXaXaXaXpXiXiXiXiX6X6X6X6X;X;X;X;X;X;X;X;X;X;X;X&X&X%X%X[.[.[.[.[.[.[.%X2X6X2X;X%X[.).~.E.E.).%X2XpXlXxX",
"gXgXgXgXgXgXgXgXgXgXgXgXgXgXgXgXgXpXpXpXpXgXgXlXlXlXlXlXlXxXxXlXlXlXlXgXgXlXlXlXlXlXlXgXgXgXlXlXlXlXlXlXlXlXlXlXgXgXpXpXpXpXpXpXgXgXlXgXgXgXgXgXgXgXgXpXpXaXgXgXgXgXgXgXgXgXgXaXaXaXgXgXlXxXxXlXgXgXpXiX6X6X6X6XiXiXiX6XiXiX6X6X6X6X6X6X6X6X6X6X<X<X&X&X{.{.{.{.(.(./././.n.b.x.j.j.x.v.v.v.x.j.j.j.j.j.v.n.m.(.{.>X>X3X1X1X1X5X1X5X1X1X5X5X5X5X5X5X5X5X1X>X(.(.(.].>X(.x.d.) ( ( ( ( ( :.>.:.>.:.) ^ ~ ~ Q E E ~ ^ ~ ~ ;.,.;.i.;XpX6X6X;X2X2XiXiXiXiXsXsXgXgXgXgXgXfXsXiXiXiXiXiXsXpXgXgXaXgXgXgXgXgXgXaXaXaXaXgXgXgXgXpXiXiXiXiX6X6X6X6X6X2X2X2X2X2X;X2X2X2X2X2X2X2X&X%X%X%X&X&X<X2X2XiXiX6X6X2X&X%X%X$X%X%X2XiXgXxXmX",
"gXgXgXxXlXlXlXgXgXgXgXgXgXgXgXgXaXpXiXiXpXaXgXlXlXlXlXlXgXgXlXlXlXlXlXlXlXlXlXlXlXlXlXlXgXgXgXgXlXlXlXlXgXgXgXgXpXpXpXpXpXpXpXpXgXgXlXgXaXpXpXpXgXaXpXiXiXaXgXlXgXaXpXpXpXpXpX6X6XiXaXgXxXnXNXgXgXsXiX2X2X2XiXiXiXiX6X6X2X2X6X6X6X6X6X6X<X&X&X%X%X{.{.{.{.{.>X{.(.(.(././.m.b.v.v.v.v.n.n.n.m.M./././.(.(.].>X,X1X1X5X5X1X1X1X<X<X,X<X1X1X5X5X8X5X5X1X1X,X].(.(.(.(.(.n.j.2.) ( ( _ ( ( ) :.:.:.:.( ^ ^ ~ Q E Q ^ ^ ^ ^ ;.;.,.E.6X6X;X;X;X2X2X6X6X6XiXiXiXiXiXsXsXsXsXiXiXtX;X;X;X;X;X;X6X6XiXpXpXpXgXgXgXpXgXgXgXgXlXgXgXaXpXpXiXiXiXiXpXpXpXpXiXiX6X2X2X6X6XiX6X6X6X6X2X2X2X6X6XiXpXpXpXpX6X6X6X2X2X2X2X6XiXpXgXlXxXxX",
"aXaXaXgXxXxXxXgXgXgXgXgXgXgXaXaXsXiX6XiXiXpXgXlXlXlXlXgXpXpXaXgXgXlXlXlXlXlXlXlXlXlXlXgXgXgXgXgXgXgXgXgXpXpXpXpXpXpXgXgXgXgXgXgXgXlXgXgXpXpXpXpXpXpXpXiX6X6XaXaXaXiXiXiX6X6X6X6X6XpXgXgXlXgXgXgXsXiX;X;X;X2XiXiXiXiX6X2X2X2X6X6X6X6X6X<X&X{.}.}.}.}.}.{.{.{.{.].(./././././.m.n.n.n./././.(.(.(.{.{.>X,X,X1X1X1X1X5X5X5X1X<X,X>X{.{.>X<X1X5X5X5X5X1X1X1X>X(.(.(.(.M.n.x.f.2.:._ _ ( _ ( :.:.:.:.) ^ ~ ~ ~ ~ ~ ~ ^ :.:.<.;.,.l.%X6X2X;X;X;X;X;X2X;X;X2X2XiXiXiXiXiXiXiXiXiXiX;X;X;X&X&X&X;X2X2XiXiXpXpXpXpXpXpXaXgXgXgXgXgXgXgXaXaXpXpXiXpXgXaXiX6X2X2X2X2X6XpXpXpXpXpXiX6XpXpXpXpXpXpXaXpXpX6X6X6X6X6X6XpXpXgXgXlXlXlXlX",
"6XiXaXgXgXgXgXgXgXaXgXgXaXpXsXiXiX;X;X;X;XiXsXgXgXgXgXgXgXpXgXgXgXlXlXlXlXgXgXgXgXgXgXgXpXpXpXiXiXiX6X6X6X6X6X6XpXpXgXgXgXgXgXgXgXgXpXiX6X2X2XiXiXiX6X2X;X&X;X;X6XiXiX6X6X;X2XiXgXlXlXgXgXsXsXiXiX;X;X;X;X;X;X;X;X2X2X2X2X2X2X2X2X<X<X&X{.}./.E.E./.(.(.(.(.(./.M.m.M././././.M.m.M././.(.(.].].>X>X<X1X1X1X1X1X1X1X<X<X<X3X>X{.{.{.<X1X1X1X1X<X<X1X1X1X,X(.(.(.(.n.j.j.f.d.>.) ( ( ( ( ( ( ( ( ^ ^ ~ ~ ~ ~ ~ ~ ^ :.<.:.<.3.c.[.&X$X[.$X$X$X%X%X%X%X%X&X;X;X&X&X&X&X;X;XiXiXsXsXsXiXiXiXiXiXpXpXpXpXpXiXiXiXiXpXpXgXgXgXgXgXgXgXpXpXpXpXpXiX2X;X%X$X%X%X3XiXpXpXpXpXiXiXpXpXpXpXiXiX6XiXpXpXiX6X2X<X&X&X&X2X6XpXpXpXgXgX",
";X6XiXiXaXaXaXaXaXaXaXaXsXiXiX4X;X:X%X:X;X6XiXsXiXpXpXpXgXgXgXgXgXlXlXlXgXgXgXpXpXpXpXpXpXpXiXiX6X6X6X6X6X6X6XiXpXpXgXgXpXpXpXpXpXpX6X;X%X%X%X&X&X&X:X%X%X*X`.[.&XiXiX6X&X$X%X6XaXlXgXgXiXiXqXqX;X;X;X;X;X;X%X%X%X%X2X2X6X6X2X<X<X&X{.{.}.(./.E.E././././.m.m.n.n.n.n.m.M.M.M.M.M.M.M.M./.(.].].{.>X<X1X1X1X1X,X,X,X>X,X,X,X>X{.>X,X1X1X1X1X,X>X>X3X<X1X>X(././.(.x.f.f.d.d.2.:.) ( ( ( <.( ^ ^ ^ ~ ~ ~ ~ ~ ~ ^ ;.:.:.:.:.e.c.E.E.T.T.^.Q.~.).).).).$X$X$X$X~.~.Q.~.$X%X;XiXsXgXgXgXgXgXgXgXgXgXgXpXpXiXiX2XiXiXpXaXgXgXgXgXaXpXpXpXiXiXiX2X%X).~.E.).).2XiXiXpXpXiX6X6XpXpX6X6X6X2X2XpXiXiX6X6X2X&X[.).).[.&X2X6X6XiX6X",
"&X;X6XsXhXsXiXiXiXsXsXsXiXiX4X;X:X$X$X%X;XiXhXiX6X2XiXaXgXgXgXgXgXgXgXgXgXaXsXiXiXiXiXpXpXiXiXiXiXiXiXiXiXiXiXiXiXpXaXpXiXiXiXpXpXpX6X&X$XoXoXXX$X$X`.`.oXoXoX$X:X;X6X;X;X6XpXpXiX&X%X$X X~.~.#X*X X~.~.~.R.c.T.).&X6XgX6X6X1X3X&X{.{.{.(./.E.b.b.n.n.b.b.v.v.v.n.n.n.n.v.n.m./././././.(.{.{.{.{.>X1X5X5X1X,X,X,X>X>X>X{.{.{.{.>X<X<X1X1X<X>X>X>X>X>X>X{./.m.n.j.j.f.4.4.4.2.:.) ( ( ) :.^ ^ ^ ^ ~ ~ ~ ^ ^ ^ ;.:.:.:.,.3.t.T.T.i.e.t.c.z.c.k.k.k.S.T.T.T.^.T.^.^.^.^.Q.~.$X%X*X&X&X=X=X=X=X=X=X=X;XrXiXpXgXlXlXlXlXlXlXgXdXrXrX2X;X;X=X%X.X).Q.Q.R.R.R.E.)..X&XiXgXlXlXgXgXkXlXlXlXlXgXpXpXpXpX6X2X6X6X6X6X6X2X2X2X3X2X",
"$X%X4XaXaX6X;X;X6XiXiX6X4X4X;X:X*X$X*X:X4XhXgXhXiXiXpXgXlXgXgXgXgXgXgXgXaXiX;X;X;X2XiXiXsXsXsXsXiXiX6X;X;X;XiXiXiXiX6X4X;X;X6XaXaXiX;X*XoX`.`.+XXXXX`.'.'.!.'.`.$X:X;X;XiXpXaXpX6X%X X~.Q.~. X~.Q.~.~.^.T.c.T.).&X6X7X6X2X<X3X{.{.].(./.b.b.x.j.j.j.j.x.x.v.v.v.n.n.n.v.v.v.m./.(.(./.(.{.>X>X>X>X,X1X5X1X<X>X>X>X>X>X{.(.(.(.{.>X>X<X<X1X<X,X>X>X{.{.{.(.n.v.v.j.h.d.4.4.>.>.:.) ( ) :.:.^ ~ ~ ~ ~ ~ ~ ^ ^ ;.:.:.:.,.5.e.t.c.i.r.w.w.r.r.r.t.t.t.i.i.t.i.i.i.Z.H.H.T.^.^.Q.~.~.~.Q.Q.Q.Q.Q.Q.~.~. X.X=X=X2XrXiXiXpXpXpXrX2X=X$X.X.X).~.Q.S.S.p.p.p.p.p.i.k.R.Q.).&X3X2X6XaXkXlXlXgXgXpXpXpXpXpXiXiXpXaXkXlXlXkXaXpXaX7X",
"`.$X4XhXhX4X:X:X;XiX6X;X;X:X$XXX$X-X-X4X4XiXhXhXiXiXiXsXsXiXiXiXiXiXiXiX;X;X*X*X*X;X;XiXiXtXiXiX;X;X&X&X*X*X;X;X;X;X;X*X:X:X;XiXiX4X*XoXoX!.^.^.^.!.^.^.^.!.'.oX:X;X4XiXiXpXpXiX&X X^.W.H.^.!.T.H.T.T.i.t.T.[.2XiX7X2X&X{.{.{.(./.m.v.x.x.h.f.f.f.f.f.h.j.x.v.v.v.b.v.v.v.b./.(.].(./.(.{.>X,X,X>X,X1X5X1X<X>X{.{.>X{.]./././.].{.>X<X<X1X<X<X>X{.].(./.n.v.x.j.f.f.4.4.2.>.:.:.) ( ) :.<.^ Q Q ~ ~ ~ ^ ^ ;.:.<.:.:.:.3.e.t.r.8.-.=.=.=.=.-.-.-.7.7.w.w.w.w.y.y.u.i.i.i.Z.i.i.u.y.w.w.w.w.y.y.u.i.i.Z.T.^.~. X.X$X$X=X=X$X~.Q.T.S.k.i.p.p.a.a.-.;.;.;.;.,.p.e.e.i.k.R.).$X;XiXpXpXiX6X2X2X2X6XiXiXiXiXaXkXlXkXaXiXiXiX6X",
"`.:XtXfXhX:X`.$X;XiX4X;X:X$X`.^.`.:X-X-X-X4XhXfXhXiXiXsXiXiX;X;X;X;X;X&X*X*XOXoX*X*X&X;X;X*X*X*X*X*X*X*X*X*X*X*X*X*X*X*X:X$X;XiX6X:X`.^.W.L.G.z.G.G.G.G.K.L.!.oX-X4XiXiX4X;X;X&XoX^.H.Z.Z.Z.Z.H.T.Z.y.w.c.$XpXgXpX<X%X{.{.(./.n.v.x.j.h.f.f.4.4.4.4.d.f.h.x.x.v.v.v.v.v.v.m./.].{.].(.].{.,X3X,X,X3X1X1X1X,X{.{.{.{.{.(././.(.{.>X>X<X,X<X,X>X{.(./.n.v.v.j.h.h.f.4.4.2.>.:.:.:.) ( ) :.<.^ Q Q ~ ~ ^ ^ ;.:.<.:.:.:.5.5.t.w.;. .[ [ P P P [  . . . .*.*.=.-.8.w.w.y.y.y.y.8.7.=.=.=. .*.=.=.=.7.7.7.7.w.y.p.i.Z.Z.T.T.T.S.p.y.a.a.a.-.-.;.;.*.s.s.s.s.s.;.-.-.-.-.a.e.i.T.Q.).$X$X$X%X;X2X2XiXiXiXiXiXpXpXpX2X&X&X&X;X3X",
"$X:XiXhXiX:X`.$X;XiX4X;X-X$X`.^.'.+XOX:X:X:X4XhXiX6X4XiXiXtX;X;X*X*XOXoXoX'.oXoXoXOXOXOXOXoXoX X X X'.oXoXOXOXOX*X*X*X:X*X:X;X4X;X$X'.^.K.K.z.q.q.D.G.G.G.K.L.!.OX-X4XiX$X*X%X$X~.W.H.Z.Z.u.u.Z.Z.y.w.T.%XaXlXgX2X{.{.{.(./.b.v.x.j.h.f.4.4.2.2.2.4.4.f.h.j.x.v.v.x.x.v.b./.(.{.{.].].{.{.,X3X3X<X<X1X1X<X>X{.{.{.].(././.(.(.>X>X,X,X>X>X{.].(./.n.x.j.j.h.h.f.4.4.2.>.:.:.:.:.) ^ ( :.;.^ Q Q ~ ^ ^ :.:.:.:.:.:.5.5.5.,.*.I F D D D D D F F H H H H P [  .*.=.=.=.-.-.=.=...[ P P P P [  . .*.=.=.=.=.=.=.=.=.-.7.7.7.7.*.*.[ [ I P I I I I I F F I I I P P I I *.-.,.w.w.t.i.k.^.).%XiXsXgXpXiX;X;X;X&X$X).E.R.E.~.~.",
"*X:X4XiX4X:X`.$X;X4X4X-X:X:X:X`.`.+X+X+X`.:X-X;X&X%X%X;X4XtX;X*XOXoX!.!.L.L.!.'.'.'.'.'.'. X!.L.K.L.L.|. XoXoXoXoXoXOXOX*X-X;X;X:X:XXX!.L.G.G.z.D.D.J.G.G.G.K.L.'.OX-X;X`.XX*X*X X^.W.H.H.Z.Z.i.w.w.^.&XgXlXpX2X<X%X{.(./.m.v.x.x.h.h.f.4.4.2.2.2.2.4.4.f.h.x.x.x.x.x.v.m./.].{.{.{.].{.{.,X1X1X1X1X<X<X,X{.{.].].(./.n.n./.(.{.>X>X>X>X(.(.(./.n.v.j.h.h.f.f.4.4.2.2.>.:.:.:.:.( ^ ^ :.;.^ Q Q ^ ;.:.:.:.:.:.2.5.2.5.3.I U d f f f f f f d d d d d M M F H H P P P [ [ P P P H F D F F H P P P P P P P P P P P P P P P P F S S S M M M M M M d f f M M S S S M F I I *.;.-.-.-.w.i.~.%XsXsXsXiX&X$X~.^.T.i.w.,.,.3.w.w.",
"$X*X;X4X-X*XXX:X;X4X*XXX$X:X:XXX`.`.`.`.`.XX$X$X`.$X&X4XiXiX;X*XoXL.K.K.K.P.L.!.|.!.L.L.!.L.L.K.J.J.K.P.L.!.|. X X!.'.'.*XtX4X:XXX:X:X'.P.G.D.D.D.D.J.G.G.J.G.P.!.+X:XOX+XOX*X*X~.W.H.H.H.H.Z.y.w.^.;XgXlXpX2X3X<X<X{.(.m.b.v.x.x.h.h.f.4.2.2.2.2.2.4.4.d.h.j.x.x.x.x.v./.(.].{.{.{.{.{.,X3X1X1X1X1X3X,X{.{.].(././.n.v.x.v./.(.>X>X>X>X(././.m.n.j.h.d.d.d.d.4.2.2.2.:.:.:.:.) ( ^ ^ :.;.^ Q ^ ^ <.:.2.>.2.2.2.2.5.5.3.0 9 3 3 3 3 r u r f r f f f f f f f f f d d d d d d d f f f f d d S S S S S S S M M M S S S S S d f f f f r 3 3 3 r r 3 3 3 3 r f M S S S S F F I I  .*.1.i.^.*XhXiX4X*X~.H.t.w.-.*.I I I I I I ",
"oXOX:X-X-XOXOX*X-X-XOX'.!.!.'.^.K.H.H.^.'.'.^.^.~.*X4XgXhXtX-X+X!.K.J.J.J.P.P.L.L.L.P.P.P.P.K.J.J.G.J.J.J.P.L.!.|.!.!.!.*XtX4XXX'.OXOX'.G.0.D.D.B.B.D.J.J.D.J.P.L.+XOXOX+XXXOXoXW.H.u.i.Z.i.i.i.~.iXlXlXpX2X<X<X3X{.(./.b.v.x.x.j.h.h.f.4.4.2.2.2.2.4.4.4.f.j.x.x.x.x.n./.(.].].].{.{.{.,X1X1X1X1X1X,X{.{.(.(././.m.v.j.h.j.m.(.>X,X>X{.(./.m.n.j.h.d.4.4.4.4.4.2.>.:.:.:.) ) ) ^ ^ ^ <.^ ^ ~ ~ ^ <.>.4.4.2.:.:.2.5.3.3.4 3 3 3 3 3 3 e e 3 3 3 3 3 3 3 3 3 3 3 3 3 3 3 3 r r r 3 3 3 r r f f f f f f f f f f f f f f f f f f f f f r r r f f f r r f f S K ] K F S M M S H  .=.9.H.^.OXtXtX*X~.T.u.8.=.[ I U U U F F F ",
"P.L.'.+X+XOX4XuX-XOX'.L.K.G.z.0.q.q.z.G.P.P.G.z.^.XXiXfXtX-XOX'.P.G.G.G.J.J.J.J.P.P.P.J.J.J.J.J.J.G.D.D.G.G.K.L.!.|.!.!.oX*XOX!.L.P.P.G.D.q.q.B.0.0.q.D.D.D.D.J.J.P.L.L.!.oXOX!.K.C.u.u.y.w.i.$XgXnXgXpX2X<X1X1X{._.n.n.v.x.x.j.h.h.f.d.4.2.2.2.2.4.4.4.4.f.h.x.x.x.v.m./.(.(.(.].{.{.,X,X1X1X5X1X3X{.].(./././.m.b.v.h.h.j.m.].,X,X>X(./.n.v.j.f.g.>.>.2.4.4.2.>.:.:.:.) ) ) ) ^ ^ ^ ^ ( ^ ^ ^ <.:.>.4.4.2.:.:.:.l.-.3 : : : 2 2 2 e e e e e e e e 3 3 3 3 3 3 3 3 3 3 3 3 3 3 3 3 3 3 3 3 3 3 3 3 3 r f f f f f f f f f f d j D j d d j D D D j j D D K o.X.o.P L D D F P ..6.q.u.K.^.4XOX+XL.G.u.8.=.[ F U U F A I F ",
"J.J.J.P.Y.+XyXyXOXY.J.q.q.0.$.$.$.0.0.D.J.D.q.0.K.'.-XtXOXOX'.!.P.J.G.G.G.J.J.J.G.J.J.D.B.B.D.D.D.D.B.B.B.D.J.J.P.L.L.L.!.!.!.G.G.D.D.q.0.0.0.0.0.0.0.0.B.q.B.D.D.J.J.P.K.!.+XK.C.C.u.u.y.i.[.gXmXxXpX2X1X1X3X>X(./.n.n.v.j.h.h.f.d.4.4.2.2.:.>.2.4.4.4.4.d.h.j.x.x.b./././././.].{.,X,X<X1X1X1X1X,X{.(././.m.m.n.v.j.h.h.j.m.(.>X>X{./.n.j.h.f.d.g.2.>.2.4.2.2.:.:.:.:.) ) ) ) ^ ^ ^ ( ( ( <.<.:.:.>.>.>.2.:.:.f.t.K - - ; : : > > e e e e e e e e 3 3 3 3 3 2 2 2 3 2 3 3 3 3 3 3 3 3 3 3 3 3 3 3 3 3 r r f f f f f f f f d D G G D D G K K K G G G K ` | | K K K P P !  .X.=.6.6.q.q.'.L.P.G.u.9.8.*.P U M M F F F F ",
"F.0.0.0.D.P.Y.Y.P.D.0.0.%.$.&.&.&.$.z.F.D.F.D.D.L.+X+X+X'.'.'.'.L.P.J.J.G.D.D.J.G.D.D.B.0.N.N.N.N.N.N.N.N.N.N.D.D.J.P.J.G.G.D.B.0.0.0.0.0.0.0.0.%.0.0.0.0.0.0.D.D.D.J.G.G.G.P.u.G.K.G.i.^.%XgXxXlXaX7X2X1X3X{./.m.m.n.n.v.j.h.f.f.4.4.2.>.:.:.:.2.4.4.4.4.d.h.j.x.v.m./.(./.m./.(.{.,X3X<X1X1X1X1X,X{./.m.n.n.b.v.x.j.h.h.j.n./.(.(./.m.j.h.f.d.d.d.g.4.4.4.4.2.:.:.>.:.) ) ) ) ( ^ ( <.:.( :.:.:.:.>.:.:.2.:.2.x.-.9 & % % ; ; , , , > > > > > > 2 2 2 2 2 2 2 2 2 2 2 3 3 3 3 3 2 2 2 2 2 2 2 2 2 2 3 3 e e r e e r r u f d D G G D D G K K K G G G K K G G L L ` | | | | | | | | o.X.0.q.q.q.1.1.=.| L d f d S L F L ",
"N.%.$.&.&.$.%.%.$.&.&.&.&.&.#.#.#.$.%.F.F.F.F.P.Y.Y.Y.P.P.L.'.+X'.|.P.J.D.D.D.D.D.D.B.N.0.0.V.V.0.0.0.0.%.$.$.%.0.N.D.D.0.0.0.%.$.$.$.%.0.0.0.0.0.%.0.0.0.0.0.N.D.D.D.D.D.G.G.G.K.L.G.T.iXgXnXlXpXpX7X2X>X{.(.M.n.n.n.v.j.h.h.f.d.4.4.2.2.:.:.:.2.2.2.4.4.f.h.h.x.v./.(././.b.m.(.{.3X1X1X1X1X1X3X{.(.m.b.v.v.v.v.x.j.h.d.h.j.n././.m.n.j.f.d.g.g.g.g.4.4.4.4.2.:.:.:.:.) ) ) :.( ^ ( ( :.:.:.:.:.:.>.>.>.:.:.h.e.U * & % % < < < ; ; ; , , , , , > , , > > 2 2 2 2 2 2 2 2 2 2 3 : : : : 2 2 : : : : 2 2 3 3 3 3 2 e e r f s j x x x x D J J G G G G J G G D D J K { K L L J L L L K ! X.X.X.X...X.| ! D d f d D L L L ",
"F.A.$.&.O.O.#.O.+.+.O.#.#.#.#.O.+.#.&.&.&.$.F.F.P.P.F.F.B.J.L.'.+X'.P.J.B.B.B.D.D.B.N.0.0.V.0.$.$.$.$.$.&.&.&.&.&.$.%.$.$.$.$.$.&.&.$.%.0.0.0.0.0.0.0.0.0.0.0.N.N.D.D.D.D.G.J.P.P.C.H.*XMXmXlXgXaXaX7X1X>X].(./.m.v.j.j.h.h.f.d.4.4.4.2.2.:.:.:.:.2.2.4.4.d.h.h.x.v./.(./.m.v.n./.{.1X1X1X3X1X1X,X{./.b.v.v.v.x.x.j.j.h.d.f.j.v.n.m.n.x.h.f.g.4.2.>.>.>.>.>.2.:.:.:.:.:.:.) ) ) ( ^ ( :.:.:.:.:.:.:.>.:.2.^ >.x. .3 & & = = % = = = = = < ; ; ; ; ; ; ; , , > > > > > > 2 > > : : : : : : : : : : : : > 2 2 3 3 2 e e e u f s j j j j j l x z z x x x z G G x x D D D D z z z z g g D L | | | | ! ! ! K D d d g D L L D ",
"A.A.&.&.#.O.O.} } } } } O.#.+.} m +.+.+.} +.#.$.%.%.%.0.D.J.L.+XOXoX|.J.D.N.N.N.N.V.0.0.V.0.$.$.&.&.#.O.#.O.O.O.O.O.O.O.O.&.&.&.&.&.&.$.%.N.0.0.%.%.%.%.%.%.%.F.N.D.D.D.D.B.G.J.C.u.oXnXMXxXgXlXkX7X2X<X>X(././.m.j.f.d.d.d.4.4.4.4.2.2.:.:.:.:.:.2.2.2.4.d.h.h.x.v./././.b.v.n.(.,X1X1X1X3X1X3X>X].m.v.x.x.x.x.j.j.j.h.f.f.h.j.x.v.x.j.h.d.4.>.>.:.:.:.:.:.:.:.) :.:.:.) ) ) ) ( ^ ( ) :.:.:.:.:.:.:.:.:.~ f.k.M & + O = = = = = = = = = = = = = = < < ; ; ; : : : : : : : : ; - - - - ; ; ; ; ; ; : : > 2 2 3 e u u u u f s s s s s s s s h j j j j j j l l d d d d s s d g d d d d d J J J L L L L D g s s g z D g g ",
"A.&.&.#.#.#.} } } } +.} +.#.+.m m } +.m m m } } O.#.%.F.P.L.+X-X-X*X+XL.J.B.0.0.%.%.%.%.$.%.$.&.O.+.+.+.+.O.O.O.O.+.} } } O.#.#.#.&.&.&.$.%.%.$.$.&.$.$.&.$.%.0.N.F.D.D.D.q.q.B.q.K.iXMXxXlXjXjXaX5X1X>X{.(.M.n.v.j.f.d.d.d.4.4.2.2.2.>.:.:.:.:.:.2.4.4.4.d.h.h.x.v.m./.m.v.v.m.].,X1X1X1X<X3X,X{.(.b.x.x.j.j.j.h.h.h.h.f.f.h.h.h.h.h.f.d.4.2.>.>.>.>.:.:.>.:.:.:.:.:.:.) ) :.) ( ( ( ( <.<.:.:.:.:.:.,.<.:.h.;.: + & + = = = = = = = = = = = = = = < < < - - - ; ; ; - ; ; - - - - - - ; ; ; ; ; : : > 2 2 e e u u u f f s s s s f f f f s s s d d d s h l l d d d d d g l z z g d d d g g g g g g g g g s s g g g s f ",
"&.&.#.#.#.O.m m m +.#.+.#.#.+.m m m +.m m m m m } #.D.Y.+XOX4XtXiXtX-X+XP.D.N.%.$.%.%.$.$.$.&.O.+.} m m } +.O.O.+.+.} m m +.+.O.#.#.#.&.$.$.$.$.&.#.&.&.&.$.%.%.N.F.F.D.D.D.B.B.0.oXbXgX7XjXkX0X5X5X1X{.(./.n.v.h.h.h.h.f.d.4.4.2.2.>.:.:.:.:.:.>.2.4.4.d.f.h.h.j.v.b.n.b.v.v./.{.3X1X1X1X<X3X,X{./.v.x.j.j.h.h.h.h.h.h.h.h.d.d.d.d.d.d.g.2.>.>.>.>.>.>.:.>.2.:.:.:.:.:.:.) ) ) ) ( ( ( <.( <.:.:.:.,.,.3.t.t.U 5 O & O = = = = = = = = = = = = = = = = % % % % % % % % - - - - % % - ; ; : , > > > > 2 e u u u i s s s s s s s f i u i i s s d d h h h j z l l z z l l l l z z l g z z f s s d g z z z z g g g g g s f ",
"+.+.} } } +.m b +.&.A.&.&.#.+.m m m +.+.m k m +.&.F.+XyXtXtXtXtXtX-XOX+XL.D.D.V.%.$.$.&.&.&.O.+.} m m b b m m b b b b n n n b m m +.+.#.#.#.#.#.#.#.O.O.O.#.&.&.$.%.%.0.D.B.q.q.H.hXnXpXlXkXjX7X5X1X3X{././.n.j.h.h.h.h.d.4.2.2.2.>.:.:.:.:.:.:.:.2.4.4.4.f.h.h.j.x.v.v.v.v.m.(.>X1X1X1X1X1X3X,X].m.x.j.h.h.h.f.f.f.f.h.h.f.d.4.>.>.4.4.2.>.:.:.>.>.>.:.:.>.2.>.:.:.:.2.:.) ) ) ) ) ^ ^ ( ( <.:.:.:.,.3.3.t.3.3 5 & & & & & & & & & O O O O & & & & & & & % % % % % % % % % % % % % % - ; : > > > > 2 2 e u u u u i i s s s i u u u u u i s s s d d j l l l l l l l l l l l d d g g g g g l z z z z z g d s s s s s s s ",
"O.#.+.+.} b m +.#.#.#.#.+.m m m m m m m m m #.F.P.Y.uXfXtXtXtXtXtX-XOX'.P.D.N.%.$.&.&.&.O.+.+.} m b b n n n n n k k v v k k k k k k n b m m m m m b b b m } } } } O.O.o.0.X.o.X.XXnXxX8XlXzX0X8X1X,X{.(./.m.n.x.h.h.h.f.4.2.2.>.>.:.:.:.:.:.:.:.:.2.2.4.4.d.h.h.h.j.j.x.x.v.m.].,X1X1X1X1X1X<X{.(.b.j.h.h.h.f.f.d.d.d.4.4.4.d.d.4.>.:.:.:.:.:.) ) :.:.:.:.>.2.:.:.:.:.2.:.( ^ ) ) ) ^ ~ ^ ( ^ ;.;.:.,.3.t.c.3.: + & & & & O O O O O O O O O O O O O & & & & & & & & & & & % % % % % % % - ; : : : : > > 2 2 2 e e u u u u u u u u u u i s s s s d d j l l l l l l d d d d d d d d z z D D D D D D D z g d s f f f f s s ",
"} } b b b b n b b k k n n n n n k t k k k n +.F.P.P.Y.uX+X+X+X+XoX'.P.D.N.%.$.&.O.+.+.} } m m b b b n n k k t t t t t t t t t t t t t t t t v v v v v v v l l c c c c J o.` ] q.gXmXlXaXaXkX7X5X1X>X]././.m.n.j.h.f.f.d.4.2.2.>.>.:.:.:.:.:.:.:.:.2.2.4.4.d.f.h.h.h.h.j.x.v./.{.3X1X5X1X1X1X3X{./.v.h.h.h.f.f.4.4.4.4.4.>.>.4.d.d.4.:.( ^ ( ( ( ^ ( ( :.:.:.:.:.:.:.2.>.:.( ^ ( ) ( ^ ~ ~ ^ ^ ;.,.-.,.3.3.c.*.* + & & & & O & O & & & & & & & & & & & & % < < - - - - - - ; - - - % - - ; : : : : > > 2 2 2 e e e u u u u i f f i f s s d d d d d d j j j j j j j j d d d z z D L G L K o.o.o.| | K L L D S d d d d g g ",
"@.@.O.+.O.+.k t v t t t k k k k t t t t t k m &.%.0.G.L.P.L.L.L.P.J.D.N.%.&.#.O.+.} } } } } } } m m b n n k k v v v v v t t t t v k k k k k k k k k k k c c c b } } } { { K X.oXMXxXaXkXaXaX8X5X1X>X]./.m.n.v.j.h.d.d.d.4.2.2.>.>.:.:.:.:.:.:.:.:.2.2.4.4.d.f.h.h.h.h.h.x.v./.{.1X5X5X1X1X1X3X{./.x.h.f.f.f.4.4.4.4.4.4.2.>.:.>.4.4.>.( Q Q ~ ^ ^ ^ ^ ( :.:.:.) :.:.2.:.) ^ ^ ( ) ^ ~ ~ ~ ^ ^ ;.;.-.-.3.w.r.F * 5 * % & & & & & & = = = = = = = = = % % - ; ; ; : : : : : : : : - - - : : : > : : : > 2 2 3 e e e u u f f s s s s s j j j j j j j d j j z x D D D L L L H L H K [  ...X.u.u.q.9.q.6.=. .! P H H H H H P ",
"eXeXeXY.Y.F.O.b b m b m m m m m m n n m n k m #.$.D.L.OXOXOX+X+XoX|.P.J.D.0.$.$.&.&.&.#.+.+.+.+.+.} b b b b n n n n b b b b b b m m m m +.+.+.+.+.} +.} } +.O.O.#.&.&.&.$.q.'.MXMXlXaXjXkX0X5X1X1X>X(./.n.v.v.h.d.4.4.4.4.2.2.2.>.:.:.:.:.:.:.:.:.2.2.4.4.4.f.h.h.h.h.h.j.v./.{.1X5X5X1X1X1X,X].n.j.h.f.d.4.4.4.4.4.4.4.4.>.:.:.2.4.>.( ~ Q Q Q Q Q ^ ( :.) ( ( :.:.:.:.( ( ( ( ^ ^ ~ ~ ~ ^ ^ ;.,.-.-.1.T.1.9 5 * * % % % < < < ; ; , > > > > > > > > > > > 2 3 3 3 e e r u r e 3 3 3 e r u u u r r u u f f f d d j j S D G D G D D G G G G D D D D D D G H K ` ] ] [  . . ...=.7.8.u.u. X~.!.W.K.H.u.w.8.-.=.=.=.=.=.=.",
"wXwXeX+X+XI.J.V.@.O.O.O.#.#.+.+.m m +.+.m m } &.z.J.+XuX4X-X-X-XOX+X'.P.J.D.B.N.V.V.%.%.$.&.&.&.#.O.+.} } } } } } } +.+.+.+.+.O.O.#.&.&.&.&.&.&.&.&.&.&.&.&.&.$.%.%.%.0.$.G.tXMXxXaXlXlXjX7X5X5X1X>X(.n.v.j.h.f.4.4.4.4.4.2.2.2.:.:.:.:.:.:.:.:.:.2.4.4.4.4.f.f.f.h.h.h.j.v./.{.1X5X5X5X1X1X{.(.v.h.f.d.4.4.4.4.4.4.2.2.2.2.>.>.>.:.:.( ( ^ Q E T E ^ ( ) ( ( ( ) :.) ( ( ( ( ^ ~ Q Q ^ ^ ^ ^ ;.,.-.3.3.H.I : * - - > e 2 > > > e e e i i i i i i i s s j j j j S S D D G G H H G G H H H H K H H H H K ` ] ] [ | ................ .........[ [ ] ] ] ] [ ......=.=.=.-.8.8.w.y.t.Z.T.~.oX$XoX X~.Q.^.T.i.t.y.y.w.r.t.t.",
"7.7.-.=.=.9.L.K.q.@.@.&.&.O.O.+.+.} O.#.O.O.&.%.D.J.L.OXOXOXOX+XoX XL.P.J.D.B.N.N.V.V.N.N.N.N.V.0.$.$.$.$.$.$.$.$.$.$.$.$.$.%.%.$.%.$.$.$.$.$.$.$.$.$.$.$.%.%.%.0.N.N.N.6.^.NXmXxXgXlXlXjX7X8X5X1X>X/.v.j.h.d.4.4.4.d.d.4.2.2.2.:.:.:.:.:.) :.:.:.2.4.4.4.4.f.f.f.h.h.h.x.v./.{.1X5X5X5X1X3X{./.x.h.d.4.4.4.4.4.4.4.2.>.>.4.4.4.>.:.( ( ( ^ ~ E E Q Q ~ ~ ^ ^ ( ( ^ ^ ~ ^ ( ( ^ E E Q ^ ^ ^ ^ ;.-.3.3.3.w.M 4 r f u x J i i i i i i i h j j j x G G G H ] [ [ [ [ [  . ...............=.=.=.6.=.=.=.=.6.7.7.8.9.9.y.y.y.y.p.p.p.u.y.y.y.y.y.7.7.7.7.6.7.7.7.7.w.w.y.y.y.t.i.i.i.T.^.Q.~..X).).).).~.~.Q.^.^.T.T.T.T.T.^.",
"I I A U M F y.W.K.C.C.q.$.$.&.&.&.&.&.$.%.%.F.D.P.P.L.+XOXOXOX+XoX XL.P.J.G.D.B.B.B.B.B.G.G.D.B.B.B.N.N.N.B.B.B.D.D.B.D.J.P.P.J.J.D.B.q.0.0.0.0.0.0.0.0.N.F.D.D.D.D.D.J.G.tXMXxXgXlXlXjXjX7X8X5X1X{./.x.h.d.4.4.4.4.4.4.4.2.>.>.:.:.:.:.:.) :.:.:.2.4.4.d.f.f.f.h.h.h.j.x.b./.{.1X5X5X1X1X,X].m.j.f.4.4.4.4.4.4.4.2.2.2.2.4.4.2.>.) ) ( ^ ~ ~ ^ ^ ^ Q E E Q ^ ^ ^ ~ E E ^ ( ( Q T Y Q ^ ^ ^ ^ ;.:.3.3.w.-.F M [ K j ` ` G G G G H H H ` ` ` ] | ....X.6.6.6.7.7.7.7.7.q.8.9.y.y.y.y.y.u.p.u.u.u.u.u.Z.Z.Z.Z.T.T.T.T.T.T.T.T.T.T.T.T.S.S.S.Z.Z.Z.p.p.p.p.p.p.p.p.p.p.i.i.i.i.i.S.T.T.Q.~.~.~.).).).).).~.~.Q.Q.E.E.~.~.~.",
";.;.;.;.,.w.S.Q.^.Z.9.6.q.0.%.$.$.&.$.%.0.0.D.D.P.P.'.+X*X*XOXOX+X+X|.L.P.J.G.J.D.D.D.G.J.P.J.J.D.D.D.D.J.J.P.P.P.P.P.P.P.P.P.L.P.P.J.G.G.G.G.G.G.G.G.D.D.B.D.J.P.P.L.!.*XgXMXxXgXkXaXjX7X5X5X1X<X{.m.x.h.d.4.4.4.4.4.4.4.2.>.>.:.:.:.:.:.:.:.:.:.2.4.4.d.f.f.f.h.h.j.x.x.b./.{.3X5X5X1X<X{.(.v.h.d.4.4.4.4.4.4.4.2.2.:.>.2.2.>.:.:.( ^ ^ ^ ^ ^ ^ ~ E E E Q Q Q E E T E ~ ^ ~ E Y E Q ^ ^ ^ ^ ;.:.3.w.w.w.I F  . .` ` K K K ` ` ] ] ] | ....................=.=.=.=.=.=.7.7.7.7.7.7.7.7.y.y.y.y.y.y.p.p.Z.Z.Z.S.S.S.S.S.S.S.S.S.S.S.S.S.S.S.Z.Z.p.p.p.p.p.p.p.p.p.p.i.i.i.i.i.i.S.T.Q.~.).).[.$X$X$X).~.~.~.E.R.R.R.R.R.",
"Q.Q.Q.Q.~.).$X$X.X~.K.H.G.D.q.0.0.%.%.0.0.q.0.G.P.!.oXOX*X*X*XOXoXoX|.|.L.P.J.G.G.G.G.G.K.J.G.G.G.G.B.B.G.G.G.K.L.L.L.!.L.L.L.K.K.G.G.G.G.C.0.0.u.q.q.q.0.G.G.K.L.!.'.oX4XxXMXxXkXkXaX7X7X5X1X1X,X(.n.x.h.d.d.4.4.2.>.2.2.2.>.>.:.:.:.:.:.:.:.:.:.2.4.4.f.f.f.h.h.j.x.x.v.b./.{.3X1X1X1X,X{./.x.h.4.4.4.4.4.4.2.2.2.2.>.>.>.>.>.:.) ( ^ ^ ^ ^ ^ ^ Q E E Q ~ Q T Y Y Y E E W Y B Z Q Q Q W ^ ^ ;.,.3.w.w.8.I M S D d j j S D D D D H H H K P P ] ] ] ] ] P P [ [ [ [ [ *.=.=.=.=.=.=.=.=.7.7.7.7.w.w.y.p.p.i.Z.Z.Z.Z.Z.Z.Z.Z.Z.p.p.y.y.y.y.y.w.a.a.a.a.w.y.y.p.y.y.p.p.t.i.i.i.i.k.^.Q.~.$X$X$X$X$X$X).).~.~.~.Q.Q.Q.Q.Q.",
".X.X.X.X$X$X$X X~.Q.W.K.G.G.G.G.G.G.D.G.L.^.'.XX:X*X;X4X4X;X&X*X*X*XOXoXoX'.!.!.!.!.!.!.L.K.K.K.K.K.K.K.K.K.K.K.L.L.!.!.!.!.!.!.!.!.!. X X!.!.L.K.K.H.G.C.G.G.K.K.W.Q.Q.iXlXmXxXkXaXaX7X5X1X1X<X>X/.n.j.h.f.d.4.4.2.>.2.2.2.>.>.:.:.:.:.:.:.:.:.:.2.4.4.f.h.h.h.h.j.x.x.v.b./.{.1X1X1X3X{.(.n.x.f.4.4.4.4.4.4.2.2.2.2.>.>.>.>.:.:.) ( ^ ^ ^ ^ ^ ^ Q E E T E T Y T ~ ^ E Z C N N Z E Q E E Q ~ ^ ,.-.1.w.w.I f f f f f f d d d S S S S S S F F F F F F H H H P P P [ [  .=.=.=.=.=.*.=.=.=.-.7.7.a.w.y.y.p.i.i.i.i.i.i.i.i.p.p.w.a.a.7.7.7.7.7.-.-.7.7.a.a.y.w.w.w.y.t.t.i.i.i.i.c.^.Q.~.$X$X$X$X$X$X$X).~.~.~.~.~.~.~.~.",
"%X%X%X%X=X$X#X#XoXoX*XOX+XoXOX:X-X-X-X4XtXhXgXgXgXgXaXaXsXiXiXiXiXqXwX;X-X*X*X-X*X-X-X-X*X*X*X*X-X-X-X-X*X*X*X*X*X*X*X*X*X-XwXtXtXtXtXtXtXtXtXwX-X*X*X*XoXoXOX*X*X&X;X;XgXmXmXcXkXkX7X7X5X1X1X,X].n.x.h.f.d.d.d.4.4.>.2.2.2.>.:.:.:.:.:.:.:.:.:.:.2.4.4.h.h.h.h.h.x.x.x.v.b./.{.1X5X1X>X]./.v.j.f.4.4.4.4.4.4.2.2.2.2.2.>.>.>.>.:.) ( ^ ^ ^ ^ ^ ^ Q E T Y E T Y E ( ( Y 0 0 q N Z E Q W W ~ ^ ;.,.-.3.w.i. .M S S M D F H H H H H P P P ] ] ] [ [ [ [ [ [  . . .=.=.=.=.=.-.=.=.=.=.=.=.7.7.w.w.y.y.p.i.i.Z.Z.i.Z.Z.Z.i.Z.p.p.y.a.a.a.a.a.a.7.7.7.7.a.a.a.w.w.w.y.y.t.i.i.i.i.i.T.^.Q.~.$X$X$X[.$X$X[.[.).).~.~.~.~.~.).",
"gXgXdXdXdXiXiXiXsXiXiXiXhXfXgXgXgXgXhXhXgXxXgXaXaXaXaXsXsXiXiXiXiXiXiXiXiXiXiXiXiXiXiXqX;X*X;XtXiXsXsXdXsXsXiXtX;X;X;X;X;XtXfXfXfXfXfXfXiXtXtX;X;X*X*X*X*X*X;XtXiXsXgXgXnXMXMXcXkXkXaX7X5X1X1X>X/.v.h.d.d.4.d.d.d.4.2.4.2.2.>.:.:.:.:.:.:.:.:.:.:.2.4.4.h.h.h.h.j.x.x.x.v.b.(.>X1X5X1X{./.n.x.h.f.4.2.4.4.4.4.2.2.2.2.2.>.>.>.>.:.) ( ^ ^ ^ ^ ^ ^ Q E Y Y E Q E E Q E N 7 7 N Y Y Y W ( ( ^ ^ ;.<.,.3.w.T.-.P  . . . .............=.=.=.=.6.6.6.6.6.6.6.=.=.6.7.7.7.8.8.8.8.8.7.-.-.7.7.7.w.y.y.p.i.i.Z.Z.Z.Z.Z.i.i.i.i.Z.Z.Z.p.p.p.p.p.p.p.y.w.w.w.w.y.y.y.p.p.y.t.t.i.T.i.i.i.T.^.Q.~.$X$X[.[.$X[.$X[.[.[.).).).).).[.",
"dXgXgXdXgXgXbXgXfXsXiXiXsXsXiXiXiX;X;X;X6X6X;X;X;X6XiXiXiX6XqXiXiXiXiXiXiXsXiXsXsXsXsXiX;X&X&X;XiXiXdXdXpXpXsXiXiXtX;X;X;XiXiXsXiXiXtX;X&X%X$XoX~.~.~.~.$X%X&X;XiXsXpXgXmXmXmXcXkXjX7X5X1X<X<X>X/.x.h.4.4.4.d.d.d.d.4.4.4.2.2.>.:.:.:.:.:.:.:.:.>.2.4.4.h.h.h.j.j.x.x.x.x.n.(.,X5X5X3X{./.v.x.h.f.4.4.4.4.4.4.2.>.>.2.2.>.>.>.>.:.) ( ^ ^ ^ ^ ^ ^ Q W Y Y E Q E Y Y B w 0 q Y W Y Y Y W ~ ^ ^ ;.,.,.w.w.H.1.*.=.q.8.6.6.6.6.6.6.7.7.7.q.8.9.9.9.9.8.8.8.9.y.y.y.y.y.y.y.y.y.w.8.7.7.7.7.w.y.u.i.i.i.Z.Z.Z.S.S.S.S.S.S.S.S.T.S.S.Z.i.i.i.i.i.p.p.p.p.p.p.p.i.p.p.i.i.i.T.T.T.T.S.T.R.~.~.$X$X$X$X[.[.[.$X[.[.[.[.[.[.[.[.",
"rXrXiXiXiXiXiXiXqX;X&X*X*X%X*X$XXX`.~.`.*X*X*XXX*X*X;X;X;X;X;XqXtXiXiXsXsXsXsXsXpXpXsXpXgXpXpXpXdXgXgXgXlXgXgXgXgXgXhXsXsXsXiXiXiX;X;X&X&X%X%X$X$X$X$X%X&X&X2XiXiXpXgXkXcXmXmXcXkXjX7X1X<X>X>X{.m.j.f.d.d.d.d.d.d.d.4.4.4.2.2.>.>.:.:.:.:.:.:.:.2.2.4.4.h.h.j.x.j.x.x.x.x.n.].3X5X5X3X].m.v.j.h.f.4.4.4.4.f.4.2.:.>.2.2.>.>.>.>.:.:.( ( ^ ^ ^ ^ ^ Q Q T T E W E Y N N N w N Y Q W Y Y E Q Q ^ ^ ,.,.w.w.T.8.;.-.8.8.q.q.q.q.q.q.q.q.8.8.9.9.9.9.9.y.y.y.u.u.u.u.u.u.u.u.u.u.u.y.y.y.y.y.i.i.Z.Z.Z.T.T.T.T.Q.Q.Q.Q.Q.Q.Q.Q.Q.Q.Q.S.S.S.S.S.S.i.i.p.p.p.i.i.i.i.i.i.Z.T.^.^.^.^.T.T.R.~.).$X$X$X$X[.[.$X$X$X$X$X$X$X$X$X$X",
"iXiXiXrXrXqX;X;X&X&X*X*X*X*XoXoXoXoX!.oX*X*X*XoXoXOXOXOX*X:X*X*X*XtXqXiXiXiXiXiXiXiXsXsXnXxXlXgXgXgXgXgXpXpXgXpXgXgXgXgXsXsX;X2X;X;XiXiXsXsXpXpXsXsXsXiXiXrXiXiXpXaXgXgXmXmXcXcXzXkX7X5X>X{.{.(.n.j.h.d.d.d.d.d.d.d.4.4.4.2.2.2.>.:.:.:.:.:.:.:.2.2.4.f.h.h.j.j.j.x.j.j.x.b.].3X5X1X{./.v.x.j.h.f.4.4.4.4.4.4.2.>.>.2.2.>.>.>.>.:.:.( ( ^ ^ ^ ^ ^ Q Q W Q E E E Z w q N N q B E ~ Q W W W W ^ ^ ,.-.w.w.T.w.=.-.8.8.8.8.8.q.9.9.9.8.8.8.8.y.y.y.y.y.y.u.u.u.u.u.u.u.u.u.u.u.u.u.u.u.u.i.Z.H.T.T.T.T.^.^.Q.~.~.~..X.X$X.X.X~.~.Q.T.T.T.T.T.S.i.i.i.i.i.i.i.S.k.S.S.T.T.Q.Q.Q.Q.^.^.Q.~.).$X$X$X$X[.[.$X$X$X[.[.[.[.$X[.[.",
"qX*X#X X~.~.~. X X X#XoXoXoXoXoXoXoX XoXoXOXOXoXoXoXoXoXoXoXoX#X#X$X&X;X;X;X;X;X;X2XiXsXdXgXdXpXiXiXrX2XiXiXqXiX;X;X;X&X*X%X&X&X=X=X%X%X%X;XpXlXNXlXgXdXiX2X2X2XrXiXpXgXmXcXxXcXcXzXjX7X>X{.{.(.n.j.h.d.d.d.d.d.d.d.4.4.4.4.4.2.>.>.>.:.:.:.:.>.2.4.4.d.h.h.j.j.j.j.j.j.x.n.(.>X<X,X].n.x.j.h.h.d.4.4.4.4.4.2.>.>.>.2.2.>.>.>.>.>.:.) ( ^ ^ ^ ^ ^ ~ Q ~ W E E E B 0 0 B Z Y Y E W ~ ~ ~ ^ ^ ^ ^ ,.-.w.w.T.T.H.i.i.u.u.u.i.Z.u.u.u.y.y.y.y.y.y.y.y.u.y.u.i.Z.Z.Z.i.i.u.u.u.u.u.u.u.u.Z.i.Z.T.T.T.^.^.^.Q.Q.~.~.~.Q.~.~..X.X~.~.Q.R.T.T.T.T.S.S.i.i.i.i.i.S.S.S.S.S.T.^.Q.~.Q.Q.^.Q.Q.~.).$X$X$X$X[.[.$X$X$X).).).).).).).",
"*X#X X~.~.~.~.~. X X X XoXoXoXoXoX X X XoXoXoXoXoXoXoXoXoXoXoXoXoXoXoX*X&X&X&X&X;XiXsXgXsXiXiX;X;X&X%X%X*X&X*X*X*X*X*X*X%X%X%X%X%X$X$X$X=X;XiXiXiX2X=X%X$X$X$X$X;X2XiXaXmXcXxXcXcXzXjX8X,X{.]./.n.x.h.d.d.4.4.d.d.d.d.4.4.4.4.4.2.>.>.>.:.>.:.>.2.4.d.d.h.h.j.j.j.j.h.j.v.n.(.{.>X{./.n.j.h.h.h.d.4.4.4.4.2.2.>.>.>.2.2.>.>.>.>.>.:.:.( ^ ^ ^ ^ ^ ~ ~ ^ W W E Y B q N C Y Y T E Q W ^ ( ( ( ^ ^ <.,.3.w.T.T.T.H.i.i.u.u.i.i.i.i.u.u.u.y.y.y.u.u.u.u.u.u.Z.Z.Z.Z.Z.Z.Z.u.u.u.u.i.i.i.Z.Z.Z.T.T.T.^.^.T.Q.Q.Q.Q.Q.~.~.~.~.~.~.~.Q.Q.Q.^.T.T.T.S.S.S.S.S.S.S.S.T.T.T.T.Q.Q.~.~.Q.Q.Q.Q.~.).$X%X%X$X[.[.$X$X[.).~.~.).).~.~.",
"#XoX X~.~.~.~.~.~.~. X X X X X X X X X XoXoXoXoXoXoXoXoXoXoXoXoX X XoX#X*X*X&X;XiXiXsXiX;X=X%X#X$X~.~.~. X#X#X#X#X*X*X*X*X*X*X*X*X*X*X*X*X&X;X;X;X&X&X=X%X$X$X%X%X;X2X2XcXcXxXcXcXcXjX5X1X{.]./.v.j.h.d.4.4.4.4.d.d.d.4.4.4.4.4.4.4.2.>.>.>.>.>.4.4.d.d.h.h.h.j.j.j.h.j.v.n./.(.{.(./.v.j.h.h.h.d.d.4.4.4.>.>.>.>.2.2.2.>.>.>.>.>.:.:.( ^ ^ ^ ^ ^ ^ ~ ^ ~ Q E Z B B C Y Y Y T E W W ^ ^ ( ( ( ;.<.,.3.w.T.T.T.T.H.z.i.i.Z.Z.H.Z.i.u.u.u.u.u.u.u.u.u.u.Z.Z.Z.H.H.Z.Z.Z.Z.Z.Z.Z.Z.Z.Z.Z.Z.Z.T.T.T.^.Q.^.Q.Q.Q.~.~.~.Q.~.~.~.~.~.~.Q.Q.Q.Q.Q.T.T.T.S.S.S.S.T.T.T.T.^.Q.Q.~.~.~.~.Q.Q.~.~..X$X%X%X$X$X[.$X$X[.).).).).).).~.",
"oX X~.~.~.~.!.~.~.~.~. X X X X X X X X XoXoXoX X X X X X X X X X X X XoXoX*X&X;X;X;X;X*X%X#XoX X~.~.~.~.~. XoXoX#X*X*X*X*X*X*X*X*X*X*X*X%X%X%X#X%X=X;X;X;X;X;X;X2XiXiXaXlXxXcXlXzXzXkX8X1X{.(./.v.j.h.h.d.4.4.4.4.d.d.4.4.4.4.4.4.4.4.>.>.>.>.2.4.4.d.d.h.h.j.j.h.h.j.x.v.n././.(./.m.v.j.h.h.h.d.d.4.4.2.>.>.>.>.2.2.2.>.>.>.>.:.:.( ( ^ ^ ^ ^ ^ ^ ^ ^ ~ W E B N Z Y Y Y T E E W Q W ~ ( ( ( ;.:.,.3.w.^.^.T.T.T.T.T.H.H.H.H.H.Z.Z.Z.i.i.i.i.i.Z.Z.Z.H.H.H.H.H.H.H.H.H.H.H.H.H.H.H.Z.T.T.^.Q.Q.Q.~.~.~.~.~.~.). X~..X.X.X.X.X~.~.Q.Q.~.Q.Q.Q.T.T.T.T.T.^.^.Q.Q.Q.Q.~. X X X~.~.~.~..X.X$X%X%X$X$X[.$X$X$X[.[.).[.[.[.).",
"~.~.~.~.!.~.~.~.~.~.~. X X X X X X X X X X X X X X X X X X X X X X XoXoX#X*X*X%X%X#X#X#X#X$X$X X X X X X X X XoX#X*X*X*X*X*X*X*X*X*X*X#X$X X~.~.~..X$X*X=X=X;X;X2XiXiXpXgXxXcXzXzXvXzX7X1X{.(.m.v.j.h.h.d.d.d.4.4.4.4.4.4.4.4.4.4.4.4.4.2.>.2.4.4.d.d.d.h.h.j.j.j.j.j.v.n.n././././.n.v.j.h.h.f.d.4.4.4.2.>.>.>.>.>.>.>.>.>.>.:.:.) ( ^ ^ ^ ^ ^ ^ ^ ^ ^ ~ W Y B B Y E T T E E E W W Q W ^ ( ( <.<.,.3.w.E.E.^.^.^.^.^.T.T.T.H.H.H.H.Z.Z.Z.Z.Z.Z.Z.H.H.H.T.W.W.W.T.T.H.H.H.H.H.H.H.H.T.T.Q.~.~.~.~.~.~.~..X.X.X.X.X.X.X$X$X$X.X.X~.~.~.~.~.Q.Q.Q.Q.Q.Q.Q.Q.Q.Q.Q.Q.~. X.X X X~.~.~.~..X.X$X$X$X$X$X[.$X$X$X$X[.[.$X$X$X[.",
"~.~.~.~.~.~.~.~.~.~.~.~.!.!.|. X X X X X X X X X X X X X X X X X X X XoX*X*X#X X~.~. X#X$X X X X X X X X X XoXoX#X*X*X#X#XoXoX#X#X#X X X X X X X.X*X;X;X;XrXiXiXpXpXpXpXpXlXcXlXjXzXzX7X1X{.(.n.v.j.h.h.d.d.d.d.4.4.4.4.4.d.d.d.4.4.4.4.4.2.4.4.4.d.d.d.f.h.j.j.h.j.x.v.n.m.m.n.n.n.v.v.j.h.h.f.d.4.4.4.2.2.>.>.>.>.>.>.>.>.>.:.:.( ^ ^ ^ ^ ^ ^ ^ ^ ^ ^ W E Y C Z T E E E E E E E E W W ^ ^ ( <.<.,.3.t.E.E.E.E.Q.Q.Q.^.^.T.T.K.H.H.H.H.Z.Z.H.H.H.H.H.T.W.W.Q.!.W.W.T.W.W.W.W.W.W.W.W.^.Q.~.~.~.~.~.~.~..X.X.X.X.X.X.X.X$X$X.X.X).~.~.~.~.~.Q.Q.Q.Q.Q.Q.Q.Q.Q.Q.Q.~. X.X.X X X~.~.~..X.X$X$X$X$X[.[.$X$X$X$X[.[.$X$X$X$X",
"Q.Q.~.~.~.~.~.~.~.~.!.!.!.!.!.~.~.~.~. X X X X X X X X X X X X X X X X X#X#XoX X~. X X X X X X X X X X X X XoXoXoXoXoXoX X X X X X.X X X$X#X*X*X;XrXiXiXiXsXdXgXgXgXgXgX6XlXcXkX7XzXzX9X5X>X(.n.x.j.h.h.d.d.d.d.4.4.4.4.4.d.d.d.d.d.4.4.4.4.4.4.4.d.d.d.h.h.j.j.h.j.v.n.m.m.n.v.v.v.v.x.j.h.h.d.d.4.4.4.2.2.2.>.>.>.>.>.:.:.:.:.) ( ^ ^ ^ ^ ^ ~ ~ ~ ^ ~ Q Y Z Y T E E E W E E E E E E Q ^ ( ( <.<.,.3.t.E.E.E.Q.Q.Q.Q.Q.Q.T.T.T.T.H.H.H.H.H.H.H.H.H.H.W.Q.!.!.!.Q.W.W.W.W.W.W.W.W.W.^.^.Q.Q.~.~.~.~.~.~.~.~.~.~.~.~.~..X$X$X.X.X).).~.~.~.~.~.Q.Q.Q.Q.Q.~.~.~.Q.Q.Q. X X.X X~.~.~.~..X.X$X$X$X$X[.[.$X$X$X$X$X$X$X%X$X$X",
"^.Q.Q.~. X~.~.~.~.Q.!.!.!.Q.!.~. X X XoX X XoXoX X X X X X X X X X X X X XoXoXoXoX X X X X X X X X X X X X XoX X X X X X X X X X X X X X#X%X*X*X&X=X=X=X=X=X=X=X=X%X%X%X6XxXcXaX7XkXzXjX5X>X(.n.x.h.h.h.d.d.d.d.4.d.4.4.d.d.d.d.d.d.d.4.4.4.4.4.4.d.d.d.h.h.j.h.j.j.v.n././.n.v.v.x.x.j.h.h.h.d.d.4.4.4.2.2.2.>.>.>.>.>.:.:.:.:.( ( ^ ^ ^ ^ ^ ~ ~ ~ ~ ~ Q Y Z Y W E E E W W W E E E E E W ^ ( <.<.,.3.i.E.E.Q.Q.Q.Q.Q.Q.Q.Q.T.T.T.H.H.H.H.H.H.H.H.H.T.W.W.^.Q.Q.^.W.W.W.W.W.W.W.W.^.^.^.Q.Q.~.~.~.~.~.~.~.~.~..X~.~..X.X$X$X.X.X.X.X.X~.~.~.~.~.~.~.~.~.~.Q.Q.Q.Q.Q.~..X.X X~.~.~.~.).).$X$X$X$X[.[.$X$X$X$X$X$X%X&X%X%X",
"W.^.Q.~.~. X X X~.~.Q.Q.^.W.H.W.!. XoX*X;X-X*XoX X XoX XoX X X X X X X X X X X X X!.!.!.!.|.|.|. X|. X X|.|.!.!.~.~.~.~. X X X X X X X X$X#X#X#X X X#X$X#X*X&X;X=X=X%X$X6XlXlX7X5X7XzXzX8X,X(.m.v.j.h.h.d.d.d.d.4.4.4.4.4.4.d.d.d.d.d.4.4.4.4.4.d.d.d.d.f.h.j.h.h.j.v.n././.n.v.x.j.j.j.h.h.f.d.4.4.4.2.2.2.2.>.>.>.:.:.:.:.) ) ( ( ( ^ ^ ^ ^ ^ ^ ^ ~ Q C Z Y T W W W Q Q Q E E E E E W ~ ( ( ( :.5.3.i.E.E.Q.Q.Q.Q.Q.Q.Q.Q.^.T.T.T.H.H.H.H.H.H.T.T.^.^.!.~.~.~.~.~.Q.Q.Q.Q.Q.Q.Q.!.~.~.~.~. X.X.X.X.X.X.X.X.X.X.X.X.X$X$X$X$X$X.X.X.X.X.X~.~.~.Q.~.~.~.~.Q.Q.Q.Q.~. X X.X X~.~.~.~.~..X.X$X$X$X$X[.$X$X%X%X$X$X%X&X%X$X",
"Q.^.^.Q.~.~. XoX X X~.~.Q.Q.Q.Q.~.oX*X-X;X-X*XoX~.~.oXoXoX X X X X X X X X X~.!.W.K.K.K.L.L.L.L.|.!.!.!.!.!.W.W.W.W.!.~.~.~.~. X X X X X X X.X.X X X#X#X#X*X*X&X=X=X%X$X6XpXaX5X5X5XjXcX7X3X].m.v.j.h.h.d.d.d.d.4.4.4.4.4.d.d.d.d.d.d.d.4.4.4.4.d.d.d.d.f.h.j.h.h.j.v.n././.n.v.j.j.j.j.h.h.f.d.4.4.4.2.4.4.4.>.>.>.:.:.:.:.) ) ( ( ( ^ ^ ^ ^ ( ( ^ Q Y Y Z Y T E Q W W Q W E E E E E E W ^ ( ( :.5.3.k.~.Q.Q.Q.Q.Q.Q.Q.Q.Q.^.T.T.T.T.H.H.H.T.T.T.^.Q.Q.~.~.~.~.~.~.~.Q.Q.Q.Q.Q.~.~.~.~.~. X X.X.X.X.X$X$X.X.X$X$X$X$X$X=X=X$X$X$X$X$X$X.X~.Q.Q.Q.Q.Q.~.~. X~.~.~.~. X.X.X.X X X X.X.X.X$X$X$X$X[.[.$X%X%X%X$X$X%X&X%X%X",
"Q.!.~.~. XoX X X~.Q.T.W.W.Q.~.oX*X-XtXtX;X*XoX!.!. X*X*X#X X X X X X X X X X!.W.K.K.K.K.J.K.J.K.K.K.K.K.K.K.K.W.W.^.W.W.~. X X X X X X X X X.X.X X X#X#X#X$X*X*X$X$X$X%X&X2X7X5X1X1X7XcX7X,X{./.n.x.h.h.f.d.d.d.4.4.4.4.4.d.d.d.d.d.d.d.4.4.4.4.4.d.d.d.f.h.h.h.h.j.v.n././.n.v.j.j.j.h.h.h.d.d.4.4.4.4.4.4.4.>.>.:.:.:.:.:.:.:.) ( ( ^ ^ ^ ^ ( ( ^ E Y Z Y Y T E Q W W Q W E E E E E E W ( ( ( :.5.e.c.Q.Q.Q.Q.Q.Q.Q.Q.Q.^.^.^.T.T.T.T.T.T.T.T.^.^.Q.!.~. X~.~.~.~.!.Q.Q.Q.Q.!.~.~.~.~.~. X.X.X.X.X.X.X.X.X$X$X$X$X$X$X$X$X$X$X$X$X#X.X~.Q.Q.^.Q.Q.Q.Q.~. X~.~.~. X X.X.X.X.X X X.X$X$X$X$X$X$X[.[.$X%X%X%X$X$X%X&X%X%X",
"*X*X;X;X*XoX~.^.T.T.T.^.~.oX*X;XtXiXtXtX*X*X X~.~.oX*X*X#XoXoXoXoX X X X X!.!.K.K.K.G.G.G.C.C.C.Z.K.K.K.H.K.H.T.^.!.~.~. X X X X X X X X X X.X.X X X#X#X#X.X.X.X~.~.~.~.;X<X7XaX5X<X5XkX9X<X{./.n.v.j.h.f.f.d.d.4.4.4.4.4.4.d.d.d.d.d.d.4.4.4.4.4.d.d.d.d.h.h.h.h.j.v.n.m./.m.n.v.j.j.h.h.h.d.d.4.4.4.4.4.4.4.2.>.:.:.:.) :.:.:.) ( ^ ^ ^ ^ ^ ^ ^ Q Y Z Z Y Y T E W Q Q W E E E E E E W W ( ( ( :.5.e.c.~.~.Q.Q.Q.Q.Q.Q.^.^.^.^.T.T.T.T.T.T.T.W.^.^.!.!.~.~.~.~.~.!.Q.Q.Q.Q.Q.Q.Q.~.~.~.~.~.~..X.X.X.X.X$X$X$X$X$X$X$X$X.X.X.X.X.X.X.X.X~.Q.Q.^.^.Q.Q.~.~. X X X X.X.X.X.X.X.X.X.X$X$X$X$X$X$X$X[.[.$X%X%X$X$X$X%X%X%X%X",
"sXsXiX;X*X XQ.Q.~. X#X%X;XiXsXsXiXqX*X%X*X*X#X$XoXoXoX$X$XoX X X X X|.!.!.K.K.G.C.C.C.C.G.K.K.K.K.W.W.W.H.T.T.W.W.~. X X~. X X X X X X X X X.X.X.X.X.X.X.X X X~.~.~.).).3X2XaXlXjX1X1X5X0X1X{.]./.v.j.h.f.f.d.d.4.4.4.4.4.4.4.d.d.d.d.d.4.4.4.4.4.4.d.d.d.h.h.h.h.j.x.v.n.m.m.n.v.j.h.h.h.h.d.4.4.4.4.4.4.4.4.2.>.:.:.) :.:.:.:.) ( ^ ^ ^ ^ ^ ~ Q E Z Z Y Y Y E E E W E E E T T E E W Q W ( ( _ :.2.e.c.).~.~.~.~.Q.Q.Q.Q.Q.^.^.T.T.T.T.T.T.W.^.^.Q.!.~.~.~.~.~.!.!.Q.Q.Q.Q.Q.Q.!.~.~.~.~. X.X.X.X.X$X$X$X$X$X$X$X$X$X$X$X$X$X$X$X$X$X$X.X~.Q.Q.Q.Q.~.~.~.~.~. X X.X.X$X.X.X.X.X.X.X$X$X$X$X$X$X[.$X$X$X$X$X$X$X$X%X$X$X",
"tX;X;X&X*X%X*X&X;X;XqXqXqXiXtX;X%X$X$X#X*X*X*X%X#X$X$X$X$X X X~.!.W.K.H.Z.C.C.C.C.C.C.C.K.L.L.!.!.W.W.!.^.^.^.^.~.~. X X~.~.~.~.~. X X X.X.X.X.X.X.X.X.X.X.X.X.X$X$X%X%X2X2XkXcXlX7X1X1X0X1X>X{./.n.j.h.f.f.d.d.4.4.2.2.4.4.4.d.d.d.d.d.d.4.4.4.4.d.d.d.d.f.h.h.h.h.j.v.n.m.m.n.v.x.h.h.h.f.d.4.4.4.>.4.4.4.4.2.>.:.:.) ) :.:.:.( ( ^ ^ ^ ~ Q E Y Z Z Z Y Y Y T E E E E E T T T E E W Q ~ ( ( _ :.3.e.T.[.[.).~.~.~.Q.Q.Q.Q.^.^.T.T.T.T.T.T.T.W.^.Q.!.~.~.~.~.~.!.Q.Q.Q.Q.Q.Q.Q.Q.~.~.~.~. X X.X.X.X$X$X$X$X$X$X$X$X$X=X&X;X;X=X=X=X=X=X$X.X.X~.~.~.Q.~.~.~.~.~. X X.X.X.X.X.X.X.X.X#X$X$X$X$X$X$X$X$X$X$X$X$X$X$X%X$X$X",
"*X$X$X%X%X&X;X;X;X;X&X&X*X*X%X#X X$X#X%X*X*X*X*X*X%X%X#X$X X~.~.!.W.H.H.Z.Z.C.C.C.Z.Z.K.K.L.!.!.!.W.W.W.!.!.W.~.Q.~.~.~.~.~.~.~.~.).~.~..X.X.X.X.X.X.X.X.X.X.X$X$X%X;X3X2X2XaXlXcXkX5X1X0X1X,X{.(.n.j.h.f.h.d.d.4.4.2.2.4.4.4.d.d.d.d.d.d.g.2.2.g.4.d.d.d.d.f.h.h.h.j.x.v.n././.n.x.h.h.h.f.d.4.4.2.2.4.4.4.4.2.>.:.) ( ) :.:.:.( ( ^ ^ ^ ~ E Y Z B B Z Y Y T T T T T T T T T T E W Q W W ^ ( _ :.2.e.T.[.$X[.[.~.~.Q.Q.Q.Q.^.^.T.W.T.W.T.T.T.^.Q.Q.~.~.~.~.~.~.!.Q.Q.Q.Q.Q.Q.Q.Q.Q.Q.~.~.~.~.~..X.X.X.X.X$X$X.X$X$X$X$X=X=X*X*X%X$X$X$X$X$X.X.X.X~.~.~.~.~.Q.~.~. X X X X X X X X$X$X$X$X$X$X$X$X$X$X$X$X$X$X[.$X%X%X$X",
"$X$X$X$X$X$X$X$X$X$X~.~.oX$X%X&X&X&X%X$X#X*X%X&X&X&X&X*X#X$X~.~.~.^.W.T.H.H.H.W.W.W.!.W.W.W.W.W.W.W.W.W.W.W.W.W.Q.~.~.~.~.~.~.~.~.).~.~.).)..X.X.X.X.X.X.X.X.X.X$X$X%X&X2X2X7XlXcXzXjX5X0X5X,X{.{.m.j.h.f.h.d.d.4.4.2.>.2.4.4.d.d.d.d.d.d.g.2.2.g.g.d.d.d.f.f.f.h.h.h.j.v.M././.n.x.h.f.f.f.d.4.4.2.2.4.4.4.4.>.>.:.) ) :.:.:.:.( ^ ^ ~ ^ ^ E Z B B B C Y Y T T T E E T T T T T T T E W ~ ~ ( ) :.3.e.R.[.[.).~.~.~.Q.Q.Q.^.^.^.T.T.T.T.T.^.^.^.Q.^.Q.~.~.~.~.~.Q.Q.Q.Q.Q.Q.Q.Q.Q.Q.Q.Q.Q.Q.Q.Q.~.~.~.~.~.~. X X X X X.X.X.X.X.X.X.X.X.X.X.X$X.X.X~.~.Q.~.~.~.~.~. X X X X X X X X X X$X$X$X$X$X$X$X$X$X$X$X[.[.$X$X$X$X",
"oX$X$X$X%X&X4X;X&X&X&X;X2X;X&X%X$X~.~.$X%X&X;X;X;X;X;X;X&X&X;X&X*X%X*X*X#X X^.T.T.Z.Z.Z.T.^.!.~.!.^.T.T.^.~.^.~.~.~. X X.X.X).).).).).)..X.X$X.X.X$X$X$X%X%X%X%X;X;X;X2X2X2X7XkXlXzXzX7X9X5X9X8X>X/.x.h.h.h.d.d.g.g.>.>.2.g.g.g.g.g.2.2.2.2.>.2.2.g.d.d.d.f.f.f.f.d.f.f.x./.]./.m.x.h.h.f.f.d.4.2.>.>.2.4.2.>.:.:.) ( ( ) :.:.) ( ^ ~ Q ^ ^ E Z B B B B Y Y T T T T T T Y Y Y T T Y T W W ~ ( _ :.2.e.R.~.~.~.~.E.Q.Q.Q.E.^.^.^.^.^.^.^.^.^.Q.Q.Q.Q.Q.Q.~.~.~.Q.Q.Q.Q.Q.~.Q.Q.^.^.Q.Q.Q.Q.Q.~.Q.~.~.~.~.~.~.~.~.~.~.~.~. X.X.X.X.X.X.X.X.X.X.X.X~.~.~.~.~.~.~.~. X X X X X X X X X X X X X$X$X$X$X$X$X$X$X$X~.~.$X~.$X$X",
"oX~.~.Q.~.%X;X4X;X;X;X;X;X;X&X%X%X%X%X;X;XiXiXiXiXiXrX2X2X;XrXiXiXiX;X*X$X$X$X%X%X$X.X~.T.Z.Z.i.Z.Z.T.T.Z.T.^.~. X X~.~.$X$X$X$X$X$X$X$X%X%X$X$X$X$X%X;X2X2X2XiXiXiXiX2X3X2X7XaXlXcXcXkX7X5X7X8X<X(.v.h.h.h.d.d.d.g.2.>.2.2.2.2.2.2.>.>._ ) _ ) _ 2.d.f.f.f.f.f.4.4.4.4.x./.]./.m.x.h.h.h.h.d.4.>.>.>.>.>.>.:.) ( ^ ^ ^ ( ( ( ^ ^ ^ Q Q Q W Z B B Y Y C Y Y Y Y Y Y R R T T Y W ~ T W _ W W ~ ( :.2.e.R.~.~.~.~.~.~.~.~.~.~.~.~.~.Q.Q.^.^.^.Q.Q.Q.Q.Q.~.Q.~.~.~.~.~.~.~.~.~.~.~.~.~.~.~.~.~. X X X X X~. X X X~.~.~.~.~.$X$X$X.X$X.X.X X X~.~.~.Q.~.~.~.~. X X X X X X X X X~.~. X X X XoX$X$X$X$X$X$X$X$X$X~.~.~.~.$X$X",
"Q.~.$X$X&XiXsXsXiX;X&X&X%X%X=X&X;X2XiXsXpXpXgXgXpXpXpXsXiXsXsXpXpXiX;X&X%X%X;XiXpXiXrX;X.X~.Q.T.T.T.T.T.W. X X#X#X#X#X.X.X.X$X$X$X$X%X%X&X&X%X%X%X%X;X2XrXiXpXiXiX2X2X&X&X2X2XaXkXzXzXkX7X5X8X8X1X{.n.j.h.h.d.d.d.g.2.2.2.>.>.2.g.>.>.) _ ~ ~ ~ _ >.d.f.f.d.d.4.4.4.2.2.x./.].m.m.v.h.j.h.h.d.4.>.:.:.:.:.:.:.( ^ Q Q Q Q ^ ^ ^ ~ Q Q E E Y Z Z Y Y Y C Y Y Y C Y Y R R W T B Y ~ W W ~ W W W ( :.2.e.c.[.[.[.[.$X$X$X$X[.[.[.~.~.Q.^.^.^.^.^.Q.Q.~.~.~.Q.Q.Q.Q.Q.Q.Q.Q.~.~.~.~.Q.~.~.~. X X$X$X$X$X$X$X#X$X$X$X$X$X$X X X X X X X~.~.~. X.X.X.X.X~.~.~.~. X X X X X X X X X X X X X X X$XoX$X$X$X$X$X$X$X$X~.~. X XoX#X",
"~.$X&XiXgXgXgXsX6X&X%X%X&X;X2XiXiXpXdXdXdXpXsXiXiXiXiXiXdXgXgXpXiX2X;XrXsXgXgXlXlXlXNXNXnXNXgXsXiXqX;X;XqXqX=X*X#X.X.X.X).).$X%X%X&X3X2X2X2X2X3X3X2XiXpXiX6X2X;X%X%X&X3X2X7X7XjXkXkXkXjX7X5X5X8X5X<X(.v.j.h.f.d.f.d.2.2.>.>.>.>.>.) _ _ ~ W W W ~ _ g.d.d.d.4.4.4.2.2.2.h.m.]./.m.v.x.x.j.h.d.4.>.:.) :.:.:.( ( ^ Q E E W Q Q Q Q Q Q Q E E E E E T Z B C C B w B Y R R Y Y 0 w T W E T E W W ( :.2.h.R.[.[.[.[.[.[.).~.Q.E.T.T.T.T.T.T.T.T.T.^.^.Q.Q.Q.~.~.~.~.~.~.~.~.~.~.~.~.~.~.~.~.~.~.~.~.~.~.~. X X X$X$X#X#X#X$X X X.X$X#X#X#X#X#X#X$X$X.X X~.~.~. X X X X X X X X X X X X X X X$X$X$X$X$X$X$X$X$X$X~.~.~. X$XoX",
"%X&X;X6XiX6X;X&X;X;X;X6XsXdXgXgXgXgXgXpXiXrX2X;X;X2X2X2XiXdXdXiX=X%X;XiXgXNXNXgXpXdXgXgXgXdXdXsXsXsXrXsXdXsXrX;X=X=X=X=X$X$X%X&X3X2X2XiX2X2X2X2X3X3X2X2X2X;X&X;X2X6XiXaXaXaXkXjXkXkXkXjX9X5X1X5X9X5X>Xm.j.h.f.f.f.d.g.2.2.>._ >.>._ _ ~ W T R R T ~ _ g.g.d.4.4.2.2.2.2.f.m.].m.m.v.x.x.j.h.d.4.:.:.( ( ) ( ( ( ^ Q E E Q Q Q Q Q Q Q Q Q E Q Q W E Y C ~ T B w w Y Y B w 7 7 q B Y Y Y T T W ( :.2.h.R.E.E.E.E.~.~.~.E.R.R.^.^.^.^.^.^.^.^.^.E.Q.Q.Q.^.^.^.^.T.^.^.T.T.T.^.^.Q.Q.Q.~.~.~.~.Q.Q.Q.Q.Q.~.~.~.~. X X X X$X#X#X#X#X%X%X%X%X#X$X$X~.~.~.~.~.~.~. X X X X X X X X X X X X X X X$X$X$X$X$X$X$X$X$X$X`. X$X$X#X",
"iX2X;X;X&X%X&X;XiXgXgXgXgXdXgXgXgXdXpXiXiX2X2X2XrXiXiXiXiXiX2X;X%X$X$X=X2XiXiXiXrX2X2X2X;X=X$X.X X.X$X=X;XrXrXiXiXiXiXrXrXrX2X2XiXpXpXiX2X3X3X&X&X&X;X;X3X2XpXaXkXlXlXgXaXiXaXjXkXlXzXzXkX5X1X5X0X0X1X(.v.j.f.f.f.f.g.2.>.>._ >._ _ _ ~ W R R R Y T ~ ) >.2.2.2.2.2.2.2.f.m./.m.m.v.x.x.j.h.d.4.:.) ( ( ( ( ( ( ^ ~ Q Q Q Q Q ~ ^ ^ ^ ~ Q Q ~ ^ ( ( ( ) j.) Y w w w 0 7 7 8 q w w B B Y T T W ( :.2.l.).%X%X%X%X%X&X&X;X;X;X;X;X;X;X;X;X;X;X;X;X;X&X&X*X%X$X$X$X$X$X$X$X.X.X~.~.Q.Q.Q.^.^.^.^.^.Q.Q.~.~.~.~.~.~.~.~.~. X X X$X$X$X$X X X X X X~.~.~.~.~.~. X X X X X X X X X X~. X X X X X$X$X$X X$XoX$X$X$X$X`. X.X#X#X",
"iXiXiXiX6X2X6XpXgXlXgXgXpXpXpXpXdXpXpXpXiXiXiXiXpXpXpXdXpX2X2X;X2X;X;X;X;X2XrXiXiXrX;X;XrXrX&X$X.X.X.X.X$X$X=X;X;XqX2X2XiXiXiXiXpXaXaXpX2X2X2X6XiXiXiXiXiXkXkXkXkXgXgXpX7X7XpXaXkXlXzXzXzX5X,X<X9XkX5X>X/.j.h.f.f.d.d.2.2.>._ _ _ _ _ ~ T R R Y Y R T W ) >.2.2.2.2.2.2.f.m./.M.m.v.x.x.j.h.d.4.:.( ( ( ( ^ ( ( ^ ^ ^ ^ ~ Q ~ ^ ^ ^ ^ ^ ^ <.>.4.4.4.f.x.M.2.Y q q q 7 8 8 8 Y w q B Y Y T T W _ :.:.l.{.gXgXgXgXgXgXgXgXlXlXxXgXgXgXgXgXgXgXgXgXgXgXgXgXgXbXgXgXgXgXgXgXgXdXsXiXrX;X&X%X#X X~.~.Q.^.^.^.Q.Q.~.~.~.~. X X X X.X X X.X.X X.X.X X X X X~. X X X X X X~.~. X X X X~. X X X X X.X$X$XoXoX$X$X$X$X$X~. X.X#X#X",
"iXiXiXpXaXiXiXiXaXaXiX6XgXlXlXlXgXgXgXpXiXiXrXrX2X2X2XrXrX2X2XiXpXpXpXiXiXiXiXiXpXiXiXrX;X=X=X&X=X*X$X$X=X=X=X=X%X;X;X2X2X3X2X2X6XiXpXiXiXiXiXaXgXkXgXgXaXaXpXiXiXiXpXaXaXaXaXaXkXkXkXzXcX8X>X,X5XkX9X1X].v.h.f.f.f.d.g.2.>._ _ _ _ _ ~ W T Y Y Y C Y Y ( ) :.>.>.2.2.>.h.m.].M.m.v.x.x.j.h.d.4.:.( ( ( ^ ^ ( ^ ^ ^ ^ ^ ^ ^ ^ ^ ^ ^ :.:.:.4.j.v.j.j.v.(.n.>.C 0 w w q 7 7 0 W w 0 Y Y Y T T ~ ) :.:.x.&XlXlXlXlXlXlXxXlXgXgXaXsXsXsXsXiXsXsXsXgXfXgXgXgXgXdXpXpXpXpXpXpXdXdXgXgXgXgXgXgXrX;X;X=X%X$X$X.X$X$X.X).~.~.~.~.$X$X$X%X%X%X%X#X#X#X$X X~.~.~.~. X X X X X X X X X X~.~. X X X X X X.X.X X X X$X$X$X$X~..X$X#X#X",
"iXiXiXpXiXiXiXiXiXiXaXgXgXlXlXlXlXgXgXpXiX6X;X;X;X;X;X&X&X&X&X;X;X;X;XiX2X6XiXiXiXiXiXrX;X&X%X%X%X%X=X;X2X2X2X;X2X2X2X2X;X3X2X6XiXiXiXiX2X2XiXaXaXaXaXpXpXiXiXiXpXaXaXaXkXaXaXaXaXkXkXkXcX9X3X{.<X5X9X9X>Xm.j.h.f.f.d.d.2.>.>._ _ _ _ ~ W W R R C B B B T ~ ^ ) ) :.:.:.h.m.]./.m.v.x.x.j.h.d.4.:.) ( ^ ^ ^ ( ^ ^ ~ ~ ( ^ ^ :.:.5.e.l.R._.(.{.{.{.>X,X<X].( B C w q 0 q w w w w Y Y Y Y T T ~ :.>.,.b.6XgXgXgXgXgXgXgXgXgXgXgXaXaXpXsXsXsXpXaXaXgXgXgXaXsXiXiXiXsXpXdXgXgXgXgXgXgXgXgXpXsXsXpXgXgXgXpXpXiXrX;X$X.X.X$X&X=X*X$X%X%X%X%X#X#X$X$X X X~.~.~. X X X X X X X X X X X X X X X X.X.X.X.X X X X$X$X$X$X~. X$X#X#X",
"iXpXiXiXiXiXiXiXiXpXaXgXgXgXgXgXgXgXgXaXiXiX6X6X6X6XiXiXpXpXpXpXpXpXpXpXpXpXsXiXiXiXsXpXpXsXiXiX2XiXiXiXiXiXiXiXiXiXiXiXiXiXpXgXaXaXaXaXaXaXaXaXiXiXiXiXiXpXpXpXaXaXgXkXgXaXpXpXaXjXkXkXvXkX1X{.{.<X8XkX1X(.v.h.f.f.d.d.g.2.>._ _ _ _ _ ~ ~ W R Y B w B C T ~ ^ ( ) ) ) h.m.]./.m.v.x.x.j.h.d.4.:.) ( ^ ^ ^ ( ^ ^ Q Q :.^ :.2.e.c._.{.<X5X7X7X7XjXjXkXkX(.( C C w 0 0 w w w w B Y Y Y T T W ( >.>.2._.pXgXgXgXgXgXgXgXaXpXpXpXiXiXiXiXiXiXiXiXiXiXpXpXpXpXsXsXpXpXpXpXpXdXpXsXsXiXiXiXiXrXiXrXrXiXiXpXgXgXpXiX2X=X=X;X2X;X=X%X$X$X$X$X$X X X X X X X X X X X X X~.~.~.~.~.~.~. X X X X X X X X X X~. X X$X$X~.~.~. X$XoX",
"pXpXpXpXpXiXiXpXpXaXaXaXpXiXpXpXaXaXaXpXpXpXpXpXaXaXgXgXgXgXgXgXgXgXgXaXaXaXaXpXpXpXpXgXlXlXgXaXpXpXaXgXaXaXaXaXaXaXpXpXiXiXpXgXaXaXiXaXaXaXkXaXpXiXpXaXaXaXaXaXaXgXkXkXgXaXiX7X7XaXaXjXcXzX8X,X(.{.1XkX8X>Xn.j.h.f.d.d.g.g.2.>.) _ _ _ _ ~ W T Y C w w N Z T ~ ~ ^ ( ) h.m.]./.m.v.j.x.j.h.d.4.:.:.( ^ ^ ^ ( ^ ^ E Q 4.4.j./.}.&X6XaXlXlXlXxXcXzXcXvXvX(.( C C B q q w w w w B Y Y Y T T W ( >.2.e.).gXgXgXkXkXgXaXaXpXpXpXiXiXiXiXiXiX6XiXiX6XiXiXiXiXiXrXiXiXiXiXsXsXsXsXsXiXiXiXiXiXrX2X;X;X&X;X2X2XiXiXiX2X2X2XrXiXiXiXiX2X;X&X=X$X#X.X~.~.~.Q.Q.Q.^.Q.~.~.~.~. X X X X X X X X X X X X X X X X X X[.$X~.~.~. XoXoX",
"aXaXaXaXpXpXpXpXaXaXgXaXiXiXiXiXpXpXpXaXaXaXgXgXgXgXgXgXgXgXgXgXgXgXaXaXaXaXaXgXgXgXgXgXgXgXaXiXiXiXiXsXpXaXaXaXaXaXpXpXpXpXaXgXaXiXiXiXpXaXaXaXiXiXpXaXkXkXgXgXgXkXkXkXgXaXiX7X7X7XaXjXzXzX0X<X(./.>X5X9X1X(.v.h.f.f.d.d.g.g.2.>._ _ _ _ _ ~ W R Y w w w C Z T E ~ ^ ^ h.m.]./.m.v.x.x.j.h.f.4.>.:.( ( ^ ~ ( ^ ~ E ~ f.(.%X7XaXlXxXxXxXxXcXcXcXcXcXcXvX/.) Y Y B w w w w w w B Y Y Y Y T ~ _ :.2.j.%XkXgXkXkXkXkXgXaXaXpXpXpXpXpXiXiXiXiXiXiXiXiXiXiXiX2X;X2X2XrXiXiXiXsXpXpXpXsXsXiXiXrXrXiXiXiX2X2X;X2X2X2X2X2XrXiXpXdXdXdXpXpXpXiXrX;X=X%X$X~.Q.Q.^.^.W.~.~. X X.X.X.X X X X X X X~.~.~. X X X X X.X).).~.~.~.~. XoX",
"aXaXaXaXaXpXpXpXaXaXgXgXgXaXaXaXaXgXaXgXgXgXgXgXgXgXgXgXgXgXgXgXaXaXpXpXpXpXaXaXaXgXgXaXiX6X;X;X&X&X;X2XiXiXiXiXiXpXpXpXgXgXkXkXaXaXiXaXaXaXgXaXaXaXgXkXkXgXgXgXgXkXkXkXaXaXiX7X7XpXaXjXzXzX0X1X(./.(.{.9X5X>Xn.j.f.f.d.d.d.g.2.>.) _ _ _ _ ~ W T Y B w q w C Y T ~ ^ ^ f.m.(.m.m.v.x.x.j.h.f.4.>.:.) ( ^ Q ^ ^ ~ T ~ j.5XaXxXcXmXmXnXxXxXcXcXcXcXcXcXvXn.) Y Y C w w w w B B Y Y Y Y Y W ( ) :.4.c.1XlXgXgXgXkXgXgXgXgXpXpXpXpXpXpXpXpXiXiXiXiXiXiXiXiXiXiXiXiXiXpXpXpXpXpXpXpXpXiXiXiXrXiXiXpXpXiXiXiX2X;X=X=X;X2X2X2XrXrXiXiXiXiXiXiXiXiX2X;X;X%X$X.X~.Q.Q.Q.Q.Q.Q.Q.~.~.~.~.~.~.~.~.~.~.~.~.~.~.~.~.~.~.~.~.~.~. X.X",
"pXaXpXpXpXiXiXpXpXaXaXgXgXgXgXaXaXpXaXaXaXgXgXaXaXpXpXaXgXgXgXaXpXiXiX6XiXiXiXiXiXiXpXpX%X%X$X$X$X$X%X;X6XiXiXiXiXiXiXpXgXgXgXaXiXiXiXaXaXaXaXgXkXkXkXkXgXgXaXaXaXgXkXkXaXaXpXiXiXaXaXkXzXkX0X1X{./.n.n.1X9X1X(.x.h.f.d.d.d.g.2.>._ ) _ _ ~ ~ W W Y C w w B C T E ~ ^ ^ f.n./.m.m.n.x.x.x.h.f.4.>.:.:.) ^ Q Q Q Q Y ^ n.zXcXcXmXmXxXxXxXxXxXcXcXcXcXcXvXb.) Y Y Y C B w w C Y Y Y Y Y Y W _ ) ) 4./.7XlXgXgXgXgXgXgXgXpXpXpXpXpXpXpXpXiXiXiXiX6X6X2X2X2XrXiXiXiXiXpXpXpXpXpXpXpXpXpXiXiXiXrX2X;X;X;X2XrX;X%X%X=X2XrXiX2X2X;X;X;X2X2X2XrXiXiXiXiXiXiXrXrX;X;X=X*X$X.X X~.~.Q.Q.Q.Q.~.~.~.~.~.~.~.).).).).).~.~.~.~.~.~.~.",
"iXsXiXiXiXiXiXiXiXpXaXaXiX6X6X2X;X;X;X;X2X2X2X2X;X;X;X;X6X6X6X2X;X;X&X%X%X&X&X;X;X;X2X;X&X%X$X%X&X;X2X6XiXiXiXiXiXiXiXiXpXiX2X2X2X2X6XiXiXiXpXaXgXgXgXgXaXaXaXpXaXgXkXkXgXaXpXpXaXaXkXzXzXkX8X5X,X/.x.d.{.8X5X>Xm.j.f.d.d.d.g.2.>.) _ _ _ ~ W W W R Y B w C Y E ~ ^ ) ) f.v.m.m.M.m.v.v.x.h.f.4.>.:.) ) ^ Q Q Q Q Z ^ (.mXcXcXmXcXxXxXxXxXcXcXcXcXcXcXcXv.:.E Y Y Y C w B C Y Y Y Y Y Y W ) :.:.4.(.aXlXgXgXgXgXgXgXgXgXpXpXaXaXaXaXaXaXpXiXiXiX6X2X2X2X2X2XiXiXiXiXiXiXiXiXiXiXiXrXrXrXrX2X;X;X;X2XrXiXiX;X2XiXiXpXpXiX2X2X2X2X2X2X2XiXiXiXiXiXiXiXiXiXpXpXiXiX2X;X=X$X.X).~.~.~.Q.Q.Q.~.~.~.~.).).).).~.~.~.Q.Q.Q.~.~.",
"iXiXiXiXiXiXiXiXsXiXpXpX$X$X$X[.).~.).).[.[.$X[.).~.~.~.[.[.[.~.~.~.~.~.~.~.[.$X$X%X&X;X;X;X;X;X;XiXaXaXpXiXiXiXiXiXiXpXiXiX2X2X2X2XiXpXpXpXpXpXpXaXpXpXpXpXpXpXaXgXkXkXkXaXpXiXaXlXlXzXzX0X8X5X<X(.h.>.n.1X9X<X(.x.h.f.d.d.g.2.>._ _ _ _ ~ W W W T Y B B Z T ~ ^ ) :.:.4.v./.m.M.m.v.v.x.h.h.4.>.:.:.:.( Q E Q E Z ^ (.MXMXmXxXcXxXxXxXxXxXxXxXcXcXcXcXv.:.E Y Y Y B w B B C Y Y Y Y Y W ) :.:.4.{.kXlXgXgXgXgXgXgXgXgXgXgXgXgXgXgXgXgXaXaXpXiXiX6XiXsXpXpXpXpXiXiXiXiXiXrX2X;X%X%X$X%X2XiXiXpXpXpXiXpXiX6XiXiXgXpXpXiX2X2X6X2X2X2X2XiXiXiXiXiXiXiXiXiXpXgXgXgXgXgXgXgXpXpXsXsXiXiXiXiX~.~.~.~.).).).).~.~.~.E.Q.Q.~.~.",
"iXiXiXiXpXpXpXpXiXiXiX6X2X;X%X$X$X[.$X$X[.).~.~.~.~.~.E.E.E.E.E.E.E.E.R.R.R.).$X$X$X&X2X6X6X2X;X;X&X;X;X;X6X6XiXiX6X6X6X6X6X2X2X2XiXaXgXgXgXgXgXgXgXaXpXaXgXgXgXgXkXlXlXlXgXpXpXgXcXcXkXzX9X5X1X>X/.h.>.v.5XkX9X>Xx.j.h.d.d.d.g.2.>._ _ _ ~ W W W T Y C Y ~ ( :.4.d.f.d.h.m.]./.m.m.v.v.x.h.h.d.4.>.:.:.^ Q E Q E Y ^ h.cXMXcXlXxXlXlXlXlXlXzXzXzXzXzXzX/.>.E Z Z C B w N N B C Y Y Y Y Q ( ) :.h.>XkXkXgXgXkXkXgXgXgXgXgXgXgXgXgXgXgXgXgXgXgXpXiXiXiXpXpXiXiXiXiXiXiXiXiXiX2X;X;X%X%X$X2XiXpXpXpXpXpXiXiXiXiXiXpXiXiX6X6XiX2X2X2X2X2X2X2X2X2X6XiXpXpXpXpXiXiXiXpXpXpXaXaXgXgXaXaXaXpXaXpXiXiX6X;X;X;X;X;X&X&X%X$X$X[.).",
"iXiXpXaXaXpXiXiX2X;X%X&X;X;X%X$X$X$X%X;X;X&X%X%X$X$X$X[.).~.~.~.~.~.~.~.~.[.&X2X2X;X6XiX6X;X;X&X%X%X$X%X%X&X&X&X&X%X%X%X;X;X;X;X2XiXpXgXgXgXlXlXlXlXlXlXlXlXlXlXlXlXlXlXkXkXgXgXlXcXzX9X9X5X1X<X{.m.h.4.f./.,X9X5Xn.v.j.f.d.d.d.g.>.>.) _ ~ W W W T Y C T d.x.v.m.].].m./.>X,X]./.m.v.x.j.h.h.f.d.2.>.) ^ Q E E E Y E :.7XcXlXaXlXkXgXkXkXaXjXjXjXjXjXjX{.4.Q Z Z C B w q w N B Y Y Y Y W ( _ >.j.1XlXkXkXgXkXgXgXgXgXgXgXaXaXaXgXgXgXgXgXgXgXgXpXpX6X2XiXiXiXiXiXiXiXpXpXpXiX2X;X;X;X3XiXiXpXpXpXpXpXpXiXiXiXiXiXiX6XiXpXgXpXpXiX2X2X;X;X;X;X2X2X6XiXiXiXiXiXiXpXaXaXgXgXgXgXgXgXaXaXaXpXiXiXiXiXiXiXiXiXpXpXpXpXpXiXiX",
";X2X6X6X6X6X;X;X%X$X).).[.$X%X&X;X6XiXiXiXiXiXiX6X6X2X;X;X;X;X;X;X;X;X;X;X6XpXaXpXiXiXiX6X2X;X;X;X&X&X&X&X&X&X;X;X&X&X;X2XiXiXiXpXpXgXgXgXgXgXgXgXgXgXgXgXlXlXlXgXgXkXgXkXlXlXlXlXlXkX5X5X1X<X>X{.n.h.4.>.2.x.5XzX{.M.j.j.f.d.d.d.g.>._ _ ~ W W W T Y C ~ v.{.,X1X5X5X,X,X5X5X{./.m.v.x.j.h.h.h.d.4.>.) ^ Q E E E Z Z ^ {.lXlX7XgXaXaXaXaXaXaXaXaXaXaXaX3Xl.^ Z Z C B N q N B Z Z Y Y Y Q ( ( >.b.5XlXgXkXkXgXgXgXgXgXgXgXaXaXaXgXgXgXgXkXgXpXgXgXgXiXrXiXpXpXpXdXdXdXdXdXpXiX2X2X2XiXiXiXpXpXpXgXgXgXpXpXpXiXiXiX6X2X2XgXgXgXpXiX6X2X2X2X2X2X2X2X2X2X6XpXpXpXpXpXpXpXaXaXaXaXpXiXiX6X6X6XiXiXiXpXpXpXpXiXiXiXiXpXpXaXaX",
";X;X2X2X2X2X2X;X;X;X&X&X;XiXaXgXlXlXlXgXgXgXgXaXaXpXpXpXpXaXaXaXaXaXaXaXaXaXgXgXaXpXpXpXiXiXiXiXiXiXiXiXiXiXiXpXpXpXaXgXgXlXgXgXkXkXlXlXgXgXgXgXgXgXgXgXgXgXgXgXlXlXlXlXkXlXlXlXlXlXjX5X1X<X>X>X(.n.h.4.:.) >./.zX9X].n.j.h.d.d.d.d.2.>.) ( ~ W W T T Y ~ M.5X8X9X0X8X5X9X9X5X>X/.n.v.v.j.h.h.h.d.4.:.( ^ E E E E Z B Q b.kXlX7XaXgXgXgXgXaXaXaXaXaXaXjX7Xx.:.E Z Z B N N N B Z Y Y T E W ( ( 2./.7XlXaXgXgXgXgXgXgXgXgXgXaXaXaXgXgXgXgXaXiX6X2XiXpXpXpXdXdXdXdXdXdXdXpXpXiXiXiXiXpXpXgXgXpXpXpXgXgXaXpXpXpXiX6X6X6X2X6X6XiX6X6X6X2X2X2X2X2X6X6XiXpXpXpXgXgXpXpXiX6X6X6X6X6X6X2X2X&X&X&X2X6X6X6XiXiX6X6X6X2X2X2X6X6X6XiX",
"aXaXgXgXgXgXgXgXgXgXgXgXxXnXnXxXgXpXiXiXaXgXgXaXaXpXpXpXpXaXaXaXaXaXaXaXaXpXiXiXpXaXaXaXaXaXaXaXaXaXpXpXpXaXaXgXgXgXgXlXlXlXgXgXgXgXgXgXgXgXgXlXlXkXlXkXgXgXgXgXgXgXgXgXkXkXgXkXlXzXkX9X<X>X{.{./.v.h.4.:.>.) >.5XvX1X(.v.j.h.d.d.d.g.>.) ~ ~ W W W T Y ~ n.5X0X0X0X9X9XkX0X5X,X/.n.v.v.x.h.h.f.d.4.:.( ^ E T T E Z N E l.aXlX7XaXkXkXkXkXaXgXgXgXkXjXjX7X_.2.Q Z Z V V N N V Z Y Y T T ^ ( ( 4.{.jXlXgXkXgXgXgXgXgXgXgXgXaXaXgXgXgXpXpXpXiXiX2X2X2XiXpXiXrXrXrXrXrXrX2XrXrXiXpXgXgXgXgXgXpXpXpXpXiXiX6X6X6X6X6X6X6X6X6X6X6X6X6X6X6X6X6X6X7XpXpXpXgXgXgXgXgXaXpX6X2X2X&X&X;X;X;X&X&X&X&X&X2X2X6X6X6X6X6X6X2X2X2X6X6XiXpX",
"lXxXxXxXxXxXxXxXxXnXnXxXgXaXiXiX6X6X6XiXpXaXpXpXiXiXiXiXpXpXaXaXaXaXaXaXaXpX6X6XiXpXaXpXpXaXaXaXaXpXiXiXiXiX6XiXiXiXpXaXgXgXgXgXpXpXpXpXpXpXpXpXpXgXaXpXpXpXpXiXiXiXiXpXgXaXaXkXlXzX9X5X{.{.].(./.v.f.4.>.d.) Q (.kX9X>XM.x.j.f.d.d.d.2._ _ ~ W W W T Y W f.1X0X0X9X5X8X0X9X5X1X].n.v.v.x.h.f.d.4.>.:.( ^ E Y Y Y Z N E 2.7XkX6XaXaXaXaXaXaXaXaXaXaXaXaXjX{.4.Q Z Z Z B B B Z Z T T T T ^ ( ( d.{.lXkXaXgXgXgXgXgXgXgXgXgXaXgXgXgXpXpXpXiXpXgXpXiX;X;X2X;X=X=X=X=X=X=X%X=X;XrXpXgXgXpXpXpXpXpXpXiX6X6X2X2X2X2X6X6XiXiXiXpXpXpXpXiXiXpXpXpXpXpXpXgXgXgXgXpXpXiX2X2X&X&X&X&X&X2X2X2X2X2X2X6X6X6X6X6X6X6X2X2X2X&X&X;X;X;X2X",
"aXaXaXpXiXiXiXiXiXpXpXaXaXpXpXaXgXlXlXgXgXaXiXiXiXiX6X6XiXiXiXiXiXiXpXpXpXpXiX6XiXpXpXiXiXpXpXaXaXpXiXiX6X2X2X6X6XiXiXaXgXlXgXgXpXpXpXiXiXiXiXiXiXiXiXiXiXiXiXiXiXiXiXpXgXaXaXlXcXjX1X,X(./././.n.j.d.4.>.4.:.^ f.>XzX5X>Xn.j.j.d.d.d.g.>._ ~ W W W T Y Y :.].9X0X9X5X5X8X5X5X5X>Xm.v.x.x.h.f.4.4.>.:.( ^ E Y Y Y Z V E :.2XpX2X7XaX7X7X7X7XpX7X7X7X7X7XjX3Xj.^ Z Z Z Z B V Z Y T E T E ^ ( ( h.3XzXkXaXgXgXgXgXgXgXgXgXaXaXgXaXgXpXpXgXgXgXgXgXpXiXiX2X2X;X;X;X2X;X;X;X=X=X2XiXiXiXiXiXiXiX6X6X6X6X6X6X6X6X6X6X6X6X6X6X6X6X6X6X6X6X6X6XiX6X6X6X6XpXpXiX6X2X2X&X&X%X%X&X&X2X6XiXpXpXpXpXpXpX6X6X6X2X2X2X2X&X&X&X&X%X%X%X",
"iXiX6X2X;X;X;X;X2X6XiXpXgXxXxXgXgXpX6X6XiXiXiXiX6X6X2X2X2X;X2X2X2X2X;X2X6XpXiXiXpXaXpXiXiXpXpXaXaXpXpXsXiXiXiXiXpXaXgXgXgXgXgXpXpXpXiXiXiXiXiXpXpXpXpXpXpXpXpXpXgXgXgXkXkXgXlXcXcX7X,X{././.m.n.v.h.d.4.>.>.:.2.>.v.vX0X1X(.n.j.h.d.d.g.>._ ~ W W W E Y Y ^ M.8X0X8X5X5X5X,X1X1X{.m.x.x.x.h.d.4.>.>.:.( ^ E Y Z Y Y Z Y 4.6XpX2XaXaX7X7X7X7X7X7X7X7X7X7XjX5Xb.:.E Z Z Z Z Z Z Y E E E E ^ ( :.j.2XlXgXpXaXaXpXpXpXpXpXpXpXaXpXpXpXpXpXgXgXgXpXpXgXlXlXgXpXpXpXpXpXpXpXiX2X;X2XrXiXiXiXiXiX6X2X2X2X2X6X6X6X6X6X2X2X2X2X2X2X6X6X2X2X2X2X2X2X2X2X2X2X&X;X&X&X&X%X%X%X%X&X&X2X6XpXpXgXgXgXgXpX6X6X2X2X2X2X2X6X6X6X6X2X2X;X&X",
"iXiXiXiXiXiXiXiXiXpXaXaXpXiXiXiXiXiXiXiXiXiXiXiX6X2X2X2X;X;X2X6X6X6XiXiXiXpXpXpXpXaXaXiXpXpXpXpXpXpXpXaXaXaXaXpXaXaXgXaXaXgXpXpXpXpXpXpXpXpXpXgXgXgXgXlXgXpXgXgXgXgXgXkXgXkXxXmXcX5X>X{./.n.v.v.j.h.d.4.>.>.) >.d.j.8XMX5X>X/.v.j.h.f.d.>._ W T Y Y Y E Y ~ x.,X8X8X5X5X5X,X,X<X{.m.j.h.v.j.d.4.>.>.:.( ^ E Z B Z Z B V b.aXaX7XkXaX7XaXaXaXaXaXaXaXaXaXaX7X(.2.Q Z V Z Z Z Z T E E E E ( ( >.(.7XkXaX7X7X6X2X2X2X6X6XiXpXpXpXpXpXpXpXgXgXgXgXgXgXgXgXpXpXiXiXiXiXpXgXgXpXiXpXpXpXpXpXpXiX6X2X2X2X2X2XiXiXiXiX2X2X2X2X2X6X6X6X6X6X6X2X2X2X2X;X&X&X&X&X&X&X&X&X&X&X;X2X2X6XpXpXpXgXgXgXgXgXpXpXpX6X6X6X6X6XiX6X6X6X6X2X2X",
"pXaXaXaXaXaXpXpXpXpXpXpXiXiXiXiXiXsXpXpXpXpXpXpXiXiXiXiXiXpXpXpXaXaXaXaXaXaXaXaXpXpXaXpXpXpXpXpXpXpXaXaXpXpXaXaXpXaXaXaXpXgXgXgXgXgXgXgXgXgXgXgXgXgXgXgXpXpXpXpXpXiXiXiXaXlXmXmXzX5X<X<X/.v.j.h.h.d.4.4.>.:.:.2.2.2.{.zX0X<X(.n.v.j.f.d.>.:.W Y B w w Y B Y 4.].1X5X5X5X5X1X<X1X3X(.m.v.n.j.h.4.>.:.:.( Q Y Z C Z Z V Z {.kXaXaXlXaX7XaXaXaXaXaXaXaXaXaX7X7X{.f.~ Z V Z Z Z Z Y E E E E ^ ( 4.{.aXaXpX6X2X2X2X2X2X2XiXiXpXpXpXpXpXpXpXpXpXgXgXgXgXpXpXgXlXlXgXpXpXiXpXpXgXgXlXNXlXgXdXpXiXiX6X2X2X2XiXiXpXpXpXpXiXiXiX6X6X6X6X6X6X6X6X6X6X6X6X6X2X2X2X2X2X2X6X6X6X6XiXpXpXpXpXpXpXpXpXpXpXpXgXgXgXgXgXpXiX6X2X2X2X6X6X6X",
"pXaXaXpXpXiXiXiX6X6XiXiXiXiXiXpXpXaXgXgXgXgXgXgXgXgXgXgXgXaXaXaXaXaXaXaXpXpXpXpXpXpXpXpXaXpXpXpXpXpXaXpXpXpXpXpXpXpXpXpXpXpXpXgXgXgXgXgXaXpXpXpXiXiX2X2X;X;X;X2X2X2X6XiXaXlXcXcXzX5X1X1X/.v.h.h.d.d.d.4.:.:.:.4.>.:.n.1XvX5X>X/.n.j.h.d.:.>.W B B w q q B Z 2.(.1X5X5X8X7X5X1X5X1X{./.v.n.j.h.4.>.:.( ( E Z Z Z B B Z ~ 1XkX7X7XkX7X7X7X7X7X7X7X7X7X7X7X7X7X1Xx.( Y Z Z Y Z Z Y T E E E ^ ( h.%XjXgX7X7X7X7X7X7X7XiXiXpXaXaXpXpXpXpXpXpXpXpXpXpXpXpXiXiXpXiXiXrXiXpXdXgXgXlXnXnXNXgXpXiXrX2XiXiXiXiXiXpXpXgXgXgXpXpXiXiX2X2X6X6X6X6X6XiXiXpXpXpXpXpXpXpXpXpXpXpXpXpXgXgXgXpXpXpXpXpX6X6X&X&X&X&X&X&X&X&X2X2X2X2X2X2X2X2X",
"2X2X2X2X2X6X6XiXiXiXpXpXpXpXpXaXaXgXgXgXgXgXgXgXgXgXgXaXpXpXpXiXiXiXiXiXiXiXiXiXiXiXpXpXpXpXpXpXpXpXpXpXpXpXpXpXpXpXsXsXpXpXpXpXpXpXpXpXiXiXiX6X2X2X2X;X;X;X2X2XiXpXpXpXgXlXcXcXzX9X1X>X/.v.h.d.d.d.d.2.:.:.:.>.>.d.(.1XvX9X,X]./.n.h.g.( _ Y w N B B N Y E 4.{.5X9X7X7X7X5X1X1X3X(.x.h.j.h.d.4.:.) ^ ~ T B C C N B ^ j.5XkX7X7XaX7X6X7X6X6X7X7X7X7X7X5X7X7X5X/.:.E Z Z Z Y Y Z Z T E E ^ ( x.1XjXaX7X7XiXpXpXpXpXpXpXpXgXgXgXpXpXpXiXpXpXpXpXpXpXiXiX2X=X%X;X;XiXdXlXlXgXgXgXgXgXpXiX2X;X;X2XiXiXiXiXiXiXpXpXpXpXiX6X2X2X2X2X2X6X6X6X6X6X6X6X6XiXiX6XpXpXpXpXpXpXpXpXpXpXpXpXpX6X7XiX6X6X6X2X2X2X2X2X2X6X6XiX6X6X2X2X2X",
"%X&X&X;X2X6XiXpXgXgXlXgXgXaXaXaXgXgXgXgXgXaXgXaXpXpXiXiX6X6X6X6X6X6X6XiXiXiXiXiXsXsXpXpXpXpXpXpXpXpXpXpXpXpXpXpXpXpXpXpXpXpXpXpXiXiXiXiX6X6X6XiXiXiXpXpXpXgXgXgXgXpXpXaXgXlXcXcXzX8X>Xn.n.j.d.4.d.d.g.>.:.:.( ( 4.(.5X9X0XzX1X>X(.m.j.g.( E N w B Y Y Y C Z :._.5XjX9X7X7X7X1X1X1X(.j.4.h.h.4.>.:.^ ~ Q Y B B N N E h.3X7XkX7X7XaX7X7X7X7X7X7X7X7X7X5X5X7X7X5X{.4.Q Z Z Z T Z Z Z T T E ^ :.b.5XkXkXpX7XiXpXpXpXpXpXpXpXaXaXpXpXpXiXiXpXpXpXpXpXiXiX6XiXiXiXrXrXiXdXgXgXdXiXrX2X;X;X2X;X%X%X&X;X2X2X;X;X;X;X2X2X2X2X;X;X2X2X2X2X2X2X2X2X2X6X6X6X6X6X6X6X6X6X6XiXpXpX6X6X6X6X6X6X6X6X6XiXpXpXgXgXgXgXgXpXpXpXiXiXpXpXpXpX",
"2X6XiXiXiXpXaXaXaXaXaXaXaXaXaXaXaXgXgXaXaXaXpXsXiXiXiX6X6X6X6X6XiXiXiXiXpXpXpXpXpXpXpXpXpXpXpXpXpXpXpXaXpXpXpXpXpXpXpXaXgXgXpXpXpXpXiXiXiXiXiXpXpXpXpXpXiXiXiXiXiXiXiXiXaXlXcXcXkX5X{.h.x.h.4.>.2.4.>.:.( ^ ^ Q 2.,XvXzX9XvX9X1X>X/.j.f._ T Y T E Y V N q q E x.3X7X7X7XjXjX7XjX7X{.v.h.j.h.4.>.( ^ Q E T Z B B E 4.{.jXjXkX7XaX7X7XaXaX7X7X7X7X7X7X7X7X7X7X5X>Xh.^ Z Z Z Y Z Z Z Y T E Q :.(.aXkXgXpX7X7XpXpXpXpXpXpXpXaXpXpXiXiXiXiXiXpXpXpXpXpXiXiXiXiXiXrX2XrXiXiXiXiX2X;X%X%X;X;X;X&X%X&X;X;X;X%X%X%X%X%X%X%X&X;X;X2X2X2X2X2X2X6X6X6X6X6X6XpXpXpX6X6X2X2X6X6X6X6X6X2X2X2X2X2X2X2X2X6X6XiXiXiXiXiXiXiXiXiXiXiXpXpXpX",
"aXaXgXgXgXgXgXaXpXiXiXiXiXsXpXaXaXaXaXgXgXaXaXaXpXpXiXiXiXiXiXpXsXpXpXaXaXaXaXaXaXpXpXpXpXpXpXpXpXpXpXaXpXpXpXpXpXpXpXpXpXpXpXpXpXpXiX6X6X6X6X6X2X2X2X2X[.$X%X%X;X2X2X2X2XkXcXkX5X<X(.h.x.f.>.:.>.>.:.( Q E E E :.>XzX0X9XzXkX5X,X(.v.f.<.~ ( _ E C q 7 7 7 Z h.{.7X5X5X7XjXaXjX7X{.x.4.h.4.2.:.^ Q E E T Z V Z 2.{.7XjX7XaX7X7X6X6XaX7X6X6X6X6X7X7X5X5X7X7X5X1Xv.:.E Z Z T Z Z Z Z T E Q :.{.kXkXaXaX7X6X7X7XiXpXpXpXpXpXiXiXiX6X6XiXiXiXpXpXpXpXpXiXiX2X2X;X;X;X2XiXiXrX2X;X=X;X;X2XiX2X2X2X2X2X;X;X&X%X$X$X$X%X&X;X2X6X6X6X6X6X6X6X6X6X6X6XiX6XpXpX6X6X6X6X6XiXiX6X6X2X2X2X2X;X2X2X2X6X6X2X2X2X2X2X2X2X6XiX6X2X2X2X2X",
"iXsXaXaXgXgXgXgXaXaXsXsXpXpXaXaXaXaXaXgXgXaXgXgXgXgXaXaXpXpXpXpXpXpXpXpXpXaXpXaXpXpXpXpXaXaXaXaXaXaXaXaXaXaXaXpXpXpXpXiXiXiXiX6X6X6X6X6X2X2X2X&X&X%X$X$X%X%X&X;X2X2X2X2X<XaXzX9X<X{./.h.x.d.>.( _ ) ( ~ T Y T Y ( (.9X5XkX5XvX9X1X{.n.h._ ) >.( Y B B 7 q 0 Y j.3X7X7X5X7XaX7X5X1X_.h.:.4.2.:.( ^ Q T Y T Z B E x.7XzX7X6X7X6X5X6X6XaXpX2X2X2X6X7X6X6X2X5X5X5X1X/.:.E Z Z Z Z Z Z Z Y Y Q :.3XlXaXaXaX7X7X7XiXiXpXpXpXiXiXiXiX6X6X6XiXiXiXiXpXaXpXpXpXiXiXiXrX2XrXiXiXiXrXrX2XrXrXiXiXpXpXpXpXiX2X2X2X2X;X;X$X%X&X2X6XiXpXpXpXiXiX6X6X6X2X2X2X2X2X2X2X2X2X6X6XpXpXpXpXiX6X2X2X2X;X&X&X%X%X$X$X%X%X%X%X&X;X;X2X2X6XiXiXiX",
"iXpXaXgXgXgXgXgXgXgXgXgXpXpXgXgXgXgXgXgXpXpXpXiXiXiXiXiXiXpXiXiXiXpXpXpXpXpXpXpXpXpXpXpXaXaXaXaXaXaXaXaXpXpXpXpXpXpXpXiX6X2X2X6X6X6X6X6X6X6X6X2X2X6X6X6X6X6XiXiXiXiXiXiXxX7XjX7X(.b.{.>Xj.d.:.( ~ W T C C Y Y C Y :./.5X9X9XvXvXzX9X/.j.f.>.) W Y B N q q 0 N E h.{.7XkXjX7X5X7X1X_.f.2.>.:.^ Q E Z Z C T Z V :.1X7X<X7X7X7X7X7X6X6X7X7XpXiXiX2X2X2X2X2X2X5X5X5X/.( B V B V Z Z V Z Z Z E h.zXcXjXaX7XjXaXaXaXaXpXpXpXpX6X6X6X6X6X6X6XiXiXiXpXpXpXpXaXiX6XiXrXiXiXiXpXpXiXiXiXiXiXiXiXpXpXiX2X;X;X;X2X2X2X2XiX2X2X2XiXiXiX6X6X6X6X2X2X&X&X&X;X2X2X&X&X&X2X2X6X6X6X6XiXiX6X6X6X2X2X2X2X2X2X2X;X%X%X$X$X%X&X;X;X2XiXiXiXiX",
"pXpXgXgXgXgXgXaXgXgXgXpXpXpXpXpXgXgXgXgXgXpXpXiXiX2X2X2XiXiXiXiXiXiXiXiXiXiXiXiXiXiXiXiXiXiXiXiXiXiXiXiXiXiXiXiXiXiX6X6X6X2X2X2X6X6XpXpXpXpXpXpX6XiX6X6X6X6X6X6XpXpXpXpXxXaXzXkX{.{.3X>Xf.>.) ( W Y C B N B B Y Y W d.(.5XkXMXMXvX9X/.n.f.>.) W Y C B w 7 7 7 N <./.7XcXjX7X7XjX7X_.4.<.^ Q T Z N N q q Z V E x.7X7X<X7XaXpX7X7X6X2X2X<X<X&X&X&X<X<X<X<X1X7X5X5Xn.Q q 0 N N N B B V Z Z Z :.{.jXjXaX5XlXaXaXaXaXpXpXpXiX7X7X7X7XiX7X7XiXiXiXiX6X2X2X2X2X2X2X2X2XiXiXiXiXiXiXiXiXiX6X2X2X$X$X$X$X%X%X%X%X&X;X2X2X2X2X;X;X2X2X2X;X&X&X%X%X[.%X&X2X2X2X&X;X2X2X6X6XpXpXpXpXpX6X6X6X2X2X2X6XiX6X2X;X;X%X%X%X&X&X;X;X2X2X2X2X",
"iXiXiXpXpXpXpXpXpXpXpXpXpXpXiXiXpXiXiXiX6X2X3X&X%X$X$X[.pXpXpXpXpXiXiXiXiXiXiXiXiXiXiXiXiXiXiXiXiXiXiXiXiXiXiXiXiXiXiX6X6X6X6X6XpXpXaXgXgXgXpXpX7X6X6X6XpXpXpXpXpXgXgXgXaX7XkXzX7XaXkX1X4.>.) ~ T C B C B N N Z Y Y W g.g.n.0XvXvX9X/.j.g.) ( T B N N q 7 8 8 7 Z 4.{.jXjX5X3X3X{.j.:.Q E T Z N q 0 0 0 V A 2.&X7X6X7X7X6X6X6X6X6X7X7X7X7X7X7X7X7X7X7X7X7XjX7X7Xn.E 7 8 0 q N N N B V Z E <.v.1XzX7X3X7XaXaXaXaXaXaXpX7XiX7X7X7X7X7X7XiXiXiXiXiXiXiXiXiXiXiXiXiXiXiXiXpXaXaXpXpXiX6X2X2X&X;X2X6XiXiX2X2X2X2X2X2X2X;X&X;X2X2X2X&X&X%X[.[.[.%X&X;X2X2X2X2X2X2X2X&X&X&X&X%X&X%X%X&X%X&X&X;X2X2X2X2X2X2X2X2X3X;X;X;X;X;X&X%X",
";X2X2X6XpXpXpXpXpXpXpXpXpXpXpXpXiXiXiX6X2X2X2X3X;X;X;X;XpXpXpXpXpXpXpXiXiXiXiXiXiXiXiXiXsXsXpXsXpXpXpXpXaXaXaXaXaXaXaXaXpXpXpXaXgXgXlXlXlXgXaXpXpX7X6X6XpXgXgXgXgXgXgXaXpX7XaXlXkXcXzX1X4.>.( E C B C Y Y Y C B Z Y B Y W h.9XmXvX9Xn.f.f.>.( E Y B B N q 0 7 7 V ^ f.R.<X>X<X3X>Xv.:.Q T Z B N q q q q N E _.lX6X7XlX7X7X7X7X7XpXpXpXaXpXpXiX7X7X6X2X5XaXjXjXjX_.Q 0 7 7 7 q 0 q q N N N Z ^ j.2XjX7XzXaXaXaXaX7X7X7X7XiX7X7X7X7X7X7X2X2X2X2X2X2XiXiXiX2X3X3X3X2X2X2X2X2X2X2X2X2X2X2X3X%X%X;X2X2X2X2X2X;X;X;X2X2X2X2X2X2X2X2X2X&X%X%X%X%X%X&X&X%X%X%X%X%X%X%X[.).).E.E.).).).).).).).).$X$X%X2X2XiXiXiX2X2X2X2X2X2X2X2X",
";X2X6XiXpXpXpXpXpXpXiXiX2X2X2X2X2X2X6XiXiXpXpXpXpXpXpXpXpXpXiXiXpXpXpXpXpXpXaXaXaXaXaXaXaXaXaXaXaXaXaXaXaXaXaXgXgXgXgXgXgXgXgXgXaXaXaXaXaXpXpX7X7X6X6X6XpXpXpXpXpXpXpXpXaXaXkXkXkXzX7X].h.:.( ) ( ( >.Y W ~ ~ N B E q 8 N 2.0XMXvX1Xm.n./.j.g.:.~ E E Y N V B C Z T Q ^ 4.l.v._._.x.:.E Z V N N q q q q 0 ^ 1XlX3X5XlX2XaXaX7XpX7X7X6X6X6X7X7XiXiXpXaXaXjXkXkXlX{.:.N 0 7 0 N q 4 8 0 V N V V T 4.{.1X2XaXlXkX%X7X7X7X7XiX7X7X7X7X7X7XiXiXiXiX2X2X2X2X3X;X;X;X3X3X3X3X3X;X&X;X;X3X3X2X3X;X;X;X;X;X;X2X;X;X&X%X%X&X;X2X6X6X6X2X&X%X%X%X&X&X2X2X&X%X%X%X%X[.[.).E.E.R.R.R.E.E.E.E.E.E.E.R.~.~.).%X;X2X2X;X;X;X;X2XiXrX2X2X",
"6XiXpXpXpXpXpXpXpXpXpXpX%X%X&X;X2X2XiXpXpXpXpXpXpXpXpXiXiXiXiXiXiXiXiXpXpXpXpXaXaXaXpXpXiXiXiXiXiXiXiXiXiXiXpXpXpXaXaXpXaXpXpXpX7X7X6X6X6X6X6X6X7X6X6X6X6X6X6X6X6X6X6X6XpXaXaXaXkXjX1X{.b.d.4.j.f.d.j.Y 0 E ~ 8 7 C 8 # # B >XvXzX1X,X1X1X(.j.g.:._ _ _ C Z Y E E Y V N N Z Z Z E ^ ^ E B N q 0 7 7 0 0 0 3.6X6X{.1XaX<X6X6X6X6X7X7X7XiXpXaXaXaXaXgXkXaXjXkXkXcX1X4.Z N 7 q N 8 $ 1 0 q 7 N N 0 N Q ;.Z R.7XkX<X7X7X7X7XiX7X6XiX7XiXiXiXpXaXaXaXaXaXpXiXiX6X2X2X2X2X2X3X3X3X;X;X3X3X3X;XgXpXpXiX6X6X6X2X2X2X;X&X;X2X6X6X6X2X2X2X&X&X&X&X3X2X2X2X&X&X%X%X%X[.).).E.R.R.R.R.R.R.R.R.R.R.R.R.R.~.).$X$X%X%X$X$X$X=X;X;X;X=X",
"6XiXpXpXpXiXiXiXiXiXiXiXiXiXpXpXpXpXpXgXpXpXpXpXiXiXiXiXiXiX6X6X6XiXiXiXiXiXiXiXiXiXiX6X6X6X6X6X6X6XiXiXiXiXiXiXiXiXiX6X6X6X6X6X6X6X6X6X6X6X6X6X6X6XpXpXpXpXpXpXpXpXiXpX7X7X7XaXlXaX5X1X>X(./.(.j.>.2.8 $ w Y $ # 7 1 # # q M.zXvXzX9XzX1X(.n.f.>.>.>.>.Q E T T T B 7 8 7 7 1 # 1 N E Q N N 0 7 8 8 4 8 Z n.7X1X3X5X7X7X6X2X2X6X7X7XiXiXiXiX7X6X6X2X2X6X7XjXjXcX2X4.Z 0 7 0 8 # @ 1 8 1 @ $ 1 1 $ 4 7 # Q ).kX6X7X7X7X7X7X7X7X7X7X7X7X7XiX2XiXiXaXaXaXgXgXgXaXpXpXiXiXiXiXiXiXiX2X2X3X3X2X2X2X;X;X;X;X2X2X2X2X2X2X2X2X2X2X2X2X2X&X&X%X%X%X%X&X&X&X&X&X%X%X[.[.).E.E.R.R.c.c.c.c.c.T.R.R.R.R.R.~.).$X%X%X%X%X%X=X;X;X=X%X",
"2X2X2X2X6XiXiXiXiXiXiXiXiXiXiXiXiXiXiXiXiXiXiXiXiXiXiXiXiX6X6X6X6X6X6X6X6X6X6X2X2X2X6X6X6X6XiXiXiXiXiXiXiXiXiXiXiXiXiX6X6X6X6X6X6X6X6X6X6X6X6X7XpXpXpXpXgXgXgXgXpXpXpXaXgXaXaXlXlX7X1X5X1X1X3X>Xf.W W # # q Y # @ 8 8 8 # 0 j.9XvXcX9X9X1X/.v.h.f.d.f.f.:.( E Y C q 8 1 q 7 $ @ # 0 ~ :.V N 7 8 4 1 1 1 :.1XaX6XaXjX7XxX7X7X7XpX7XpXiXpXpXpXgXgXkXkXkXkXjXaXaXlX<X2.V 7 7 7 $ X X 1 4 #   @ @ @ o # 4 # 7 c.lXpX7X7X7X7XiX7X6X6X7X7XiXaXgXkXkXkXaXaXgXgXaXaXaXaXaXgXgXkXkXgXaXaXpXiXiX2X2X2X2X2X;X;X;X&X;X;X;X;X;X%X$X).2X;X&X&X&X%X$X[.).).).[.[.[.[.).).).~.E.E.R.R.c.c.c.k.k.c.c.T.T.T.T.R.Q.).$X;X;X;X;X;X;X;X;X%X%X",
";X;X&X;X;X2X2X6XiXiXiXiXiXiXiXiXiXiXiXiXiXiXpXpXpXpXpXpXpXpXpXiXiXiXiXiXiXiX6X6XiXiXiXiXiXiXiXiXiXiXiXiXiXiXiXiXiXiXiXiXiXiX6X6X6X6X7X7X7X7XpXpXpXpXpXpXpXpXpXpXiX6X6X6X6X6X6X2X2X2X2X<X1X3X].m.x.>.T q w N Y ) d.f.g.>.>.>.j.5X9X9X9X9X{.M./.m.h.f.h.g.4.:.^ Y q 4 $ # 8 8 1 # 1 8 2.f.^ V 0 N B B E 4.{.{.{.{.{.%X%X%XR.b.b.R.R.R.R.E.).[.[.%X{.{.{.[.%X2X7X7Xb.<.Q E V 1 @ X @ 8 4 @           X @ 1 1 Q E.{.2X7XaXaX7X6X2X2X2X2X2X6XiXpXaXpXiX7X3X&X&X&X3X3X2XiXiXiXiXiXiX2X6X2X2X2X2X2X2X2X2X;X;X;X;X;X2X3X3X;X2X2X2X6X6X6X6X6X6X6X2X2X&X%X[.[.).).E.E.E.R.R.R.c.c.T.T.T.T.T.T.T.T.R.R.R.R.~.$X%X=X=X%X$X$X%X%X$X$X",
"&X%X%X%X%X;X;X2X2X2X2X2X6XiXiXiXiXiXiXiXpXpXpXpXpXpXpXpXgXlXgXgXpXiXiX2X6X6XiXiXpXpXpXpXpXiXiXiXiXiXiXiXiXiXiXiXiXiX6X6X6X6X6X6X6X6X7X7X7X7X7X6X6X6X6X6X6XpX6X6X6X6X6X2X&X&X<X<X2X2X6X2X2X1X1X1X<X>X].x.v.n.(.<X5X5X1X<X<X<X<X5X9X5X5X5Xn.j.j.j.4.4.g.:.:.<.<.<.:.>.4.4.4.2.2.2.2.4.4.4.4.e.e.f.f.e.e.4.3.3.3.2.2.2.5.,.,.,.:.-.:.,.-.,.3.3.e.e.t.l.k.k.c.b.R.E.3.;.~ ~ Q Z N N E 4.2.Q 7 0 0 7 7 N Q <.<.R.%X%X3X3X<X<X2X2X2X3X<X<X<X3X2X2X2X2X2X3X3X&X%X%X&X3X2X6XiXiXiXiXiXiXiXiXiXiXiXiXiXiXiX6X6X6X6XiXiXiXpXpXpXpXiX6X6X6X6X6X6X6XpXiX6X2X2X&X2X&X%X$X).~.R.R.R.c.R.R.R.E.E.E.E.E.R.R.R.R.Q.~..X$X.X~.~.~.~.).).$X",
";X&X&X&X;X;X2X2X2X2X6XiXiXpXpXpXpXpXpXpXpXpXpXpXiXiXiXiX6X2X2X2X2X2X2X2X2X2X6XiXiXiXpXpXiXiXiXiXiXiXiXiXiXiX6X6X6X6X6X6X6X2X6X6X6X6X6X6X6X6X6X6X6X6X6X6X6XpXpXpX6XiXiXiXpX7X7X7X7X7X7X7X7X7X7XaXjXjX9X9X7X7XjXkXzXkX9X7X7X7X7X7X7X7X7X5X1X{.>X,X(.(.{././.(.>X3X1X9XjXjX9X7X7X7X7X1X1X1X3X3X>X>X>X>X{.{.{.{.{.}.}.}.}.{.%X%X{.[.}.}.).E._.).}.{.&X<X6X6X2X<X&X&X{.}.{.%X<X<X{.%X2X5X1X3X%X%X{.%X3X5XkXlX7XaX7X<X%X%X{.{.%X&X&X&X&X%X%X%X%X%X%X%X&X&X3X3X2X2X2X2X2X2XiXiXiXiXpXiXiXiXiXiXpXpXpXpXpXiXiXiXiXiXiXiXiXiXiXiX2X2X&X%X[.).).[.[.$X%X&X&X2XiXpXiX6X;X%X[.).E.E.E.E.E.E.E.E.E.R.R.R.R.R.~.)..X.X.X).~.Q.Q.~.)..X",
"iXiX6X6X6XiXiXiXiXpXpXpXgXgXgXgXgXgXgXpXpXpXpXpXpXiXiXiXiXiXiX6X2XiXiXiXiXiXiXiXiXiXiXiXiXpXpXpXpXpXiXiXiXiXiXiXiXiXiX6X6X6X6X6X6X6X6X7X6X6X6X6X6X6X7XpXpXpXpXpXpXpXpXpXkXlXkXkXgXaXaXaX7X7X7X7X7XaXjXjXaXjXaXaXaXaX7X7XjXaXjXaXjXjXjXkXzXkXzXvXjXkXzXkXjXkXzXzXzXkXzXkXzXkXkXkXkXkXkXkXkXkXkXkXkXkXzXzXzXzXcXcXcXcXcXcXcXcXcXxXxXlXgXpXpX6X6XpXaXlXxXxXxXlXgXaXaXaXlXcXcXlX7XpX7X<X%X6X7X7X5X7XkXlXlXlXaXaX2X%X<X2X2X2X2X6X6X6X2X2X2X2X2X2X2X2X6X6X6X2X;X&X%X%X%X{.%X%X%X%X%X%X%X%X%X%X&X;X2X2X2X2X2X2X2X6X6XiXiXiXiXiX6XiXpXpX6X6X2X2X2X2X6X6XpXgXgXgXpX6X6X2X3X&X%X%X$X[.[.).~.E.R.T.T.T.Q.~.).$X%X%X%X%X.X).~.)..X$X",
"pXpXpXpXpXpXpXpXpXgXgXgXgXpXpXpXaXpXpXpXpXiXiXiXiXiXiXiXpXpXiXiX2X2X2X2X2X2X6XiXpXpXpXgXaXaXaXaXaXaXaXaXaXaXaXaXaXaXaXpXaXaXgXaXaXaXaXaXaXaXpXaXaXaXaXaXpXpXpXpXpXaXpXpX7X7X7XaXaXgXkXaXgXaXaX7X7X7X7XaXaXaXaXaX7XaXkXlXkXkXkXkXkXkXkXzXzXkXzXzXjXkXkXjXjXjXjXjXjXkXkXkXjXjXjXjXjXjXjXjXjXjXjXjXjX7X7X7X7X7X5X5X5X5X7XpXaXgXgXgXgXgXpX6X6X2X2X2X2X6X6XiX6X6X6X7X7X7X7XaXaXaX7X7XaX<X<X7X6X<X<X6XaXjX7X2X2X7X2X2XaXlXkXaXaXgXaXpXpXpXaXaXkXkXkXkXgXpXiX2X3X&X&X&X%X%X%X%X%X%X%X%X&X&X&X&X&X&X;X;X;X;X;X;X;X;X&X&X&X%X%X;X2X6XpXpXgXgXgXgXgXlXlXlXlXlXgXpX2X2X2X2X2X6X2X2X2X;X%X%X[.).).~.~.).$X$X$X$X.X$X$X$X).~.Q.~.~.).",
"pXpXpXpXpXiXiXiXpXpXpXpXiXiXiXiXiXiXiXiXiXiX6X2X6X6X2X2X2X2X2X2X2X2X2X2X6XiXiXpXpXgXgXgXgXgXgXgXgXgXgXgXgXgXgXgXgXgXgXgXgXgXgXlXlXlXlXlXlXlXlXlXgXgXgXlXgXgXgXlXlXlXlXlXgXkXgXgXgXkXkXkXkXlXkXkXlXlXkXkXkXkXaXaXaXaXaXkXkXkXkXkXkXkXkXkXkXjXjXjXjXjXjXjXjXjXjXjXjXjXjX9X7X7X7X1X7X7X7X7X7X1X7X1X5X5X5X5X5X5X5X5X5X5X7XpXaXaXgXgXlXlXlXlXlXlXgXgXgXgXgXgXgXgXgXkXkXkXkXlXlXkXaXaXaX7X7XaXaX7X7XjXlXlXkXaXaXkXjXkXlXcXlXkXgXgXaXpXpXpXaXgXkXlXlXlXgXaX7XiXpXaXaXgXaXgXaXaXpXpXpXpXaXgXkXkXgXgXgXpXpXpXiXiX2X2X;X%X%X$X$X%X&X&X%X%X%X%X&X2X6XpXgXgXpX6X2X&X%X&X&X;X2X2X2X2X2X2X2X;X;X%X%X%X%X;X;X;X%X.X~.~.~.~.Q.R.T.T.T.R.",
"pXpXpXpXiXiXiXiXiXiXpXpXiXiXiXiXiXiXiXiXiXiXiXiXpXpXpXpXpXpXpXpXpXgXgXgXgXgXgXgXgXgXgXgXgXgXgXgXgXgXgXgXgXgXgXgXgXgXgXgXgXpXpXgXgXlXlXlXlXlXlXlXgXgXgXgXgXlXlXlXlXlXxXxXxXxXlXlXkXkXgXgXkXlXlXlXlXlXkXaXaX7X6X6X6X6X6X2X6X2X2X2X2X2X6X6X6X5X7X7X7X7X7X7XjXjXjXjXjXjXjXjXaX7X7X7X7X7X7X7X7X7X7X7X7X7XaXaXaXjXjXjXjXkXgXgXaXpXpXpXpXgXgXgXlXlXlXlXlXlXgXgXgXgXgXkXkXkXkXlXlXkXgXaXaXpXpXaXaXaXjXkXcXcXlXlXlXlXlXzXkXkXjXkXlXlXlXkXkXkXkXlXlXlXlXlXlXkXkXaXaXgXgXkXkXlXlXlXlXlXkXkXkXkXkXkXlXlXlXlXlXlXlXlXlXlXgXgXpXpXpXiX2X&X%X%X[.[.%X&X6XpXgXgXpX2X&X%X%X%X%X%X%X&X;X2X2X2X2X;X;X%X%X%X;X2XiXiX2X%X).).).$X).~.T.k.k.S.",
"pXpXpXpXpXpXiXiXiXpXpXpXpXpXpXpXpXpXpXpXpXpXpXpXgXgXgXpXpXpXpXpXpXiXiXiXpXgXgXlXlXlXnXxXgXgXgXgXgXgXgXgXgXgXgXgXlXlXlXlX6X6X6XpXgXgXlXlXlXlXlXgXgXgXpXpXpXpXgXgXgXgXlXgXpXpXpXpXaXgXaXgXaXaXaXaXpX7X2X2X<X&X%X<X2X2X2X2X2X&X<X<X<X<X2X2X6X6X7X7X7X7X7XaXaXjX7X7X7XjXjXkXkXkXkXkXkXkXkXkXkXkXjXkXjXkXkXjXkXlXzXkXzXkXkXlXkXkXgXgXlXlXlXlXxXxXnXnXxXxXlXlXlXgXgXlXgXgXgXgXgXgXgXgXgXaXaXaXkXkXkXlXlXcXxXlXlXlXlXjXaXaXaXgXkXkXkXkXgXgXgXgXgXgXkXkXkXkXkXgXaXgXgXkXkXlXlXlXnXxXlXkXgXaXiXiXpXpXpXpXgXgXgXgXgXgXgXpXpXpXiXiX6X6X2X2X&X&X&X2X6XpXpXpX6X2X&X%X%X%X%X$X%X%X&X;X2X2X3X;X%X[.).).$X3XiXpXiX;X;X;X2XrX2X%X).R.k.k.",
"pXpXdXpXdXdXsXiXpXgXdXsXpXpXgXgXgXgXpXpXpXpXpXpXpXgXgXpXaXpXpXpXpXgXgXgXgXgXgXlXlXlXlXlXlXlXgXgXgXaXpXiXiX6X2X;X&X&X&X&X;X&X$X[.[.&X2X6X6X2X;X&X&X&X&X%X%X$X;XiXiX6X2X2X2X2X2X&X&X2X6XpXpX6X6X2X<X%X%X{.{.%X%X&X&X&X%X[.).{.}.{.&X<X2X7X7X6X7XaXzXlXlX7X7X7X7X7X7X7XjXkXlXlXzXzXlXlXlXlXzXlXkX7XkXzXkXkXkXzXxXcXlXlXkXkXkXgXgXlXxXxXxXlXgXgXpXpXpXpXgXgXgXgXpX6XpXpXpXpXpXgXgXgXgXaXgXkXkXlXlXlXlXlXlXlXkXgXgXaXaXaXaXaXkXkXkXkXkXkXkXgXaXgXgXgXgXkXkXkXkXkXlXlXkXkXgXaXaXiX7X2X2X2X3X;X2X2XiXiXiX6X6X2X2X2X2X2X;X;X&X%X$X$X%X$X[.%X&X6XgXgXgX6X&X%X%X%X%X$X$X$X$X%X%X;X2X6X6X;X%X%X$X).).).).$X$X=X%X=X;X;X;X;X;X;X;X;X",
"gXgXgXgXgXgXpXsXgXgXgXpXpXpXiXiXiXiXiXiXiXpXpXpXpXpXpXpXaXgXgXgXgXgXgXgXgXgXgXgXgXaXpXpXiXiX6X6X2X2X;X;X;X&X&X%X$X$X$X$X$X).~.~.).$X&X;X;X&X&X%X$X$X[.[.).).$X%X%X$X[.$X%X;X&X%X%X&X2X2X6X2X<X%X{.{.%X&X3X3X2X2X3X&X%X%X%X%X&X<X<X2X6XpXaX6X2X<X<X6X6X1X2X7XaXkXjXjXjXaXaXaXaXkXlXlXlXkXjXkXlXlXlXlXkXkXlXlXkXkXjXlXlXlXgXpXgXlXxXxXlXlXgXpXpXiXiXpXpXpXgXpXpXiXiXpXpXpXpXgXgXgXgXgXkXkXlXlXlXcXcXcXlXlXgXaXaXaXaXaXaXaXgXkXlXlXlXlXkXkXgXaXaXaXgXkXkXkXlXlXlXkXkXkXaXaXpXiX7X2X2X2X3X;X;X2X6X6X6X6X6X6X6X6X2X2X;X;X&X%X$X[.[.[.).).[.2XgXlXgX2X%X[.$X%X%X$X$X$X$X$X$X%X%X%X%X%X%X$X$X$X%X%X%X%X%X%X%X%X%X%X%X%X%X=X=X%X",
"pXgXgXgXgXgXiXiXiXsXiXiXiXpXpXpXpXpXpXpXgXgXgXgXgXlXlXlXgXgXgXgXgXpXpXpXiXiX6X2X2X2X;X;X&X%X$X$X$X$X$X$X[.[.[.[.[.[.[.[.).~.~.~.).[.$X$X$X$X[.).~.E.~.~.).$X$X$X).E.R.~.%X2X2X2X2X6XiXpXaXaXpX7X7XpXgXkXlXlXkXgXgXgXaXgXlXxXxXxXgXpXpXgXlXlX7X6X6X7XaXaXaXgXlXlXjXaXaXaXaXaXaXkXkXkXaX7X7XaXlXxXlXlXlXlXlXaX7X7XaXlXlXlXkXlXlXxXxXxXxXlXgXgXpXpXpXpXgXgXgXgXpXpXgXgXgXgXgXlXlXlXkXkXlXlXlXlXxXcXcXcXxXlXgXgXaXaXaXaXpXpXaXkXlXlXlXlXkXkXaXaXaXaXgXkXkXlXlXlXkXgXaXaXpXpXiX6X2X2X2X3X&X&X;X2X2X6X6X6X6X6X6X2X;X;X;X&X&X%X[.[.$X[.).).$X6XlXxXlX6X%X[.%X%X%X$X$X$X[.[.).).).).).).).$X$X$X%X%X=X%X%X%X%X$X%X%X%X%X%X=X;X;X",
"rXiXgXgXgXgXpXsXgXgXgXpXpXgXlXlXlXlXgXpXpXpXpXpXgXgXlXgXpXiXiXiXiX2X2X2X;X;X=X%X%X%X%X$X[.[.).).).).).).).).).[.).).).).).).).[.$X[.).~.).).~.E.R.R.R.E.).$X$X[.).~.).%XiXgXkXgXgXgXgXpXpXaXgXkXlXlXlXlXkXaXpXiXaXkXkXlXlXxXgXpX6X2X6XgXlXgXpX7X7XaXgXlXlXlXlXkXgXaXkXlXxXlXgXaXaXaXaXaXaXkXkXkXaXaXkXlXlXaX7XaXkXkXpX6XiXgXxXxXlXlXlXlXgXiX6X6X6XiXpXgXgXgXpXgXgXlXlXlXlXlXlXlXlXlXlXxXlXlXxXcXcXxXlXkXgXaXaXaXaXpXiX7XiXaXgXkXlXlXlXkXgXaXaXaXaXkXlXlXlXkXkXaXaXpXiXiX7X2X2X2X2X3X3X&X;X;X;X2X2X6X6X2X;X;X&X%X%X%X%X%X%X%X%X%X%X&X6XgXxXmXlX6X&X%X&X;X%X$X).).).).).).).).).).).).$X$X$X$X$X$X$X$X$X$X%X%X%X%X%X%X%X=X",
";XiXgXgXgXgXgXpXgXlXgXgXpXpXdXpXiXrX2X;X%X%X%X%X%X;X;X;X=X%X%X%X%X%X$X$X$X$X$X$X$X.X.X).).).~.~.~.~.~.~.~.~.~.~.~.~.~.~.[.%X&X;X&X$X).~.~.~.~.E.R.R.~.).).).[.$X%X2XiXgXlXlXgXgXgXgXgXgXpXaXkXlXlXkXaXiX2X3X3X3X2XiXiX6X3X&X&X&X&X6XgXlXlXgXpXaXgXgXpXaXlXcXmXxXlXlXlXlXkXaXiX6XpXgXkXkXkXkXgXaX7X7XaXaXaXaX7X7X7X6X<X%X&XiXgXgXiX2XiXiX2X%X%X%X%X%X;X2XgXgXpXpXgXgXgXgXgXgXlXgXgXlXlXlXlXkXlXlXkXgXaXpXpXpXpXpXiX7X2X2X2X6X7XaXgXkXlXlXkXaXaXpXaXgXkXlXlXkXgXaXaXaXpXpXiX7X7X6X2X2X2X2X2X2X2X6X6XiXiXiX6X2X;X;X&X;X;X;X6X6X6X6XpXgXxXmXmXxXgX6X2X&X;X&X%X$X.X).).).).$X$X%X%X$X$X.X).)..X$X$X$X$X$X$X$X$X$X$X$X$X$X$X$X",
"2XpXgXgXgXgXsXiXsXpXpXiXiX2X=X$X).).~.~.).).).).).).).).~.~.~.~.~.).).).).).).)..X).).).~.~.~.~.~.~.~.~.~.).).).).).).[.$X2X6X;X$X~.E.R.E.E.R.T.c.R.~.).).%X;XiXpXgXlXlXgXiX;X;XiXpXgXlXxXnXnXlXlXgXpX6X2X2X2XiXiXiX2X2X;X2X6XpXgXlXxXxXlXgXgXgXxXxXxXlXlXmXmXnXlXaXpXiXiX2X6XiXaXgXaX7X6XiXaXaX7X7X7X7XpX7X6X<X&X%X%X%X%X6XgXpX2X&X;X2X%X[.).).).).$X;XgXpXiXiXiXiXiXiXpXpXgXdXpXgXlXlXgXaXaXpX7X7X2X2X2X2X2X2X2X3X&X&X&X&X3X2XpXgXlXkXkXaX7X6X6XiXaXaXaXpXiX7X7X7X7XiXiX7X7X6X6X2X2X2X2X2X6X6XiXiXsXsXiXiX6X6X6X6XiXiX2X&X2X6XpXlXnXnXxXgXpXpX6X6X2X&X%X$X.X).).).).$X%X=X;X;X=X$X$X).).).).).).).).).).)..X$X$X$X$X$X",
"sXgXgXgXgXgXsXiXsXpXpXsXrX&X$X~.Q.R.Q.Q.~.~.).).).~.~.~.Q.R.Q.Q.Q.~.~.~.~.).)..X).$X$X).~.~.~.~.).).).[.$X$X$X%X%X&X&X&X;XiX6X&X).R.T.R.R.E.R.R.R.~.).[.%X2XgXxXgXaXiXiX;X&X&X2XiXgXlXlXlXlXlXkXgXaXpXiXiXiXiXiX6X2X2X2X6XpXgXlXlXgXgXgXpXpXpXgXxXxXlXgXgXkXkXgXpX6X2X6XiX2X6XiXiX6X3X%X%X2X7XpX6X2X6XpXpX2X<X%X%X%X%X[.[.6XgXaX;X%X;X;X%X).).).).).$X;XpXiX2X;X=X=X;X;X2XiXiXiXiXiXpXpXiXiX7X6X2X<X&X%X%X{.%X%X%X{.[.).[.[.{.&X2XiXaXgXaX7X2X<X<X3X2X6X2X2X2X3X2X2X2X6X6X2X2X2X2X2X2X2X2X2X2X6XiXiXiXiXiXiXiXiXiXiXpXpX%X%X&X6XpXgXlXlXlXlXlXgXpX2X;X%X$X).).).~.~.~.).$X$X=X=X=X=X%X$X.X).~.~.~.~.~.~.~.~.)..X$X$X$X$X",
"gXgXpXsXsXsX2X;X;X;X&X;X;X;X%X).~.Q.Q.Q.~.~.~.).~.~.~.~.~.~.Q.Q.Q.~.~.~.).).$X$X$X$X$X$X~.~.).).[.$X$X%X&X;X;X;X2X6XiXiXiXiXiX;X$X$X$X%X&X&X;X;X6XiXsXsXiXpXgXgXiX;X%X;X2XiXaXgXlXgXgXgXgXpXpXpXpXgXgXgXgXpXiXiXiX6XiXiXpXgXlXxXgXiX6XiXgXlXxXxXlXgX6X2X;X2X2X6X6XiXpXgXpX2X;X%X%X%X%X[.%X2X6X6X<X2X7XgXpX<X%X%X2X<X$XE.).6XgXiX$X[.%X&X[.~.~.~.~.~.[.;X2X;X%X$X.X.X$X$X;X2X2X2X;X;X2X6X6X2X2X2X<X%X%X).)._._._._._._._.).E._.).%X&X2X2X2X<X%X{.[.%X%X%X%X%X{.{.{.%X%X%X%X%X%X%X%X%X%X%X%X%X%X%X&X&X;X;X;X;X2X2X6X6XiX6X2X6XpXaXgXlXlXlXlXlXlXpX2X%X).).).).~.~.~.~.~.~..X.X$X=X=X=X;X2X.X.X$X$X$X).).).~.~.~.~.~.~.~.).",
"2X%X$X$X$X$X;X&X%X$X$X%X&X%X.X~.^.^.^.R.Q.Q.Q.Q.Q.R.Q.Q.Q.Q.Q.Q.R.T.T.T.T.Q.).$X$X$X~.~.~.Q.R.R.~.$X;XiXpXiXiXiXiXiXsXsXpXpXsXsXiXsXpXgXgXgXgXnXnXnXnXNXgXpXsXiX&X$X$X%XiXgXlXgXgXsXiX2X;X;X2XiXiXpXpXpXpXpXpXiXpXpXpXpXgXgXpXpXgXgXaX6X2X6X6X;X;X&X%X$X$X$X$X$X%X%X%X%X%X;X%X%X$X$X[.$X&X3X&X%X%X[.).).[.%X[.).).E.).).iXiX6X$X~.).$X$X~.E.~.~.~.~.$X;X=X%X.X).~.~.).$X%X;X;X=X%X%X=X2XiXiX7X2X2X&X[.).E.R.R.R.R.R.E.E.R.R.R.E.E.).[.{.[.).).).).).).).)._._.E._.).).).).).).).).).).).).).).).).[.[.$X%X&X;X;X2X6X6X6XiXiXiXaXgXgXgXlXlXgXaXiX;X$X).~.~.~.~.~.~.~.~.)..X.X$X$X$X=X=X$X$X.X$X$X$X$X%X%X$X$X$X).~.~.Q.Q.",
").~.~.).^.$X;X;X$X~.$X%X%X$X~.Q.^.^.^.R.R.Q.^.T.T.^.Q.Q.^.^.^.^.^.^.R.Q.).%X&X;X;X;X=X%X%X%X%X&X;XiXgXgXgXpXsXiXiXsXpXpXgXgXgXgXgXnXNXlXgXgXgXlXlXgXdXsXiXiX2X;X&X%X$X%XiXgXpX;X&X&X%X$X).$X%X;X2X2X;X;X;X;X2X2X2X2X;X;X;X2X;X;X2X6X;X$X[.$X$X[.).).~.E.R.~.~.~.).).[.$X$X%X%X$X$X).).[.$X$X[.[.).).~.).[.[.).~.E.).{.&X6X6X;X$XQ.~.[.[.Q.^.E.~.~.~.$X&X%X.X).~.~.~.).$X%X=X%X%X.X$X%X2XiXpXiX6X3X%X[.).E.R.R.R.R.R.R.R.R.c.c.k.c.c.R.R.R.R.R.R.R.R.E.E.E.R.R.c.c.R.R.R.R.R.R.R.R.R.R.E.R.R.E.E.E.~.~.).[.$X&X;X2X6X6X6X6X6XiXiXpXaXgXgXgXaXiX2X&X$X~.~.~.~.~.~.~.~.~.~.~..X.X.X.X$X$X.X.X~.).$X$X%X%X%X%X%X$X$X).~.~.Q.",
"~.Q.~.~.^.).&X%X$X).%XiX%X%X%X&X&X*X%X$X$X~.~.~.~.~.$X$X%X%X%X&X&X&X;X;XiXiXiXiXiXiX;X;XqXiXiXsXpXpXgXgXgXgXpXsXsXpXgXgXgXgXgXgXgXgXgXpXdXgXgXgXpXiX;X;X;X;X%X%X&X&X$X$XiXgXsX%X).$X~.^.^.~.[.$X&X&X%X$X$X$X%X&X%X$X$X[.$X$X$X[.%X;X$X~.E.E.E.R.R.R.T.T.T.R.R.E.~.~.~.).[.[.[.).).~.~.~.E.E.E.E.E.E.E.E.~.E.E.).&X6XpXgX;X&X$X~.E.E.E.E.^.T.T.T.R.~.[.$X$X).).~.~.~.).).$X$X$X.X).$X;XiXpXaXiX2X&X%X)._._.R.R.R.R.R.R.R.c.k.l.k.k.k.k.k.k.l.l.c.c.c.R.R.R.c.c.k.l.k.k.c.c.c.c.c.c.c.c.T.T.T.T.T.T.T.T.E.~.[.$X&X;X;X;X;X;X;X;X6XiXpXpXpXiX6X;X&X$X).~.~.~.~.Q.Q.Q.Q.Q.~.Q.~.~.~.~.~.~.~..X.X$X$X$X%X%X%X%X$X$X).~.~.Q.R.",
"^.T.T.T.^.~.$X%X$X=XiXgX*X*X&X;X;X&X&X%X%X*X%X%X#X$X$X$XiXiXsXsXsXsXsXsXiX;X;X&X&X&X;X;XiXpXgXpXsXiXiXsXpXpXsXsXsXpXgXgXgXgXgXgXpXiXiXiXpXgXgXgXsX;X&X&X%X$X~.~.%X&X$X$XrXgXiX).Q.~.E.i.T.^.~.[.$X$X[.~.~.~.).$X[.~.~.~.~.).~.~.$X&X$X~.R.R.R.^.^.^.R.^.^.R.E.E.Q.Q.Q.Q.Q.Q.Q.E.R.R.^.T.T.T.R.R.R.E.E.E.).E.).&XpXpX6X&X$X).Q.^.^.T.T.T.T.T.c.i.T.E.~.~.).).).~.~.~.~.).)..X).~.).$X2XpXpXiX2X&X{.)._._._._.E.R.R.R.R.c.c.k.l.k.l.t.t.e.t.l.l.k.l.l.k.c.k.l.l.k.k.k.k.k.l.l.l.l.l.l.l.k.k.k.k.k.k.k.k.c.T.E.~.[.$X$X$X$X$X$X%X;X;X2X2X2X;X%X$X).~.~.~.E.E.R.Q.R.R.R.Q.Q.Q.Q.Q.Q.~.~.~.~..X.X$X$X$X$X$X$X$X).~.~.Q.R.R.Q.",
"^.T.i.t.^.~.$X=X;XrXiXiX%X#X X~.~.~.~.~.~. X X#X#X$X X XsXiXqX;X;X;X;X;X*X%X#X#X#X*X;X;XiXgXgXgXpXpXgXgXsXiXiXiXiXsXgXgXgXgXgXpXiX;X;XiXpXgXgXpX2X%X$X$X$X).Q.~.%X&X$XoX&XqX&XQ.Q.~.^.i.T.T.Q.~.~.~.~.Q.Q.Q.Q.~.Q.Q.^.^.^.Q.^.Q.$X%X$X~.Q.Q.^.^.^.^.^.^.^.^.^.^.^.^.^.^.T.T.T.T.T.k.k.c.T.T.R.R.E.~.~.).$X%X2X6X6X&X~.T.~.R.T.T.T.Z.i.i.Z.T.i.t.k.^.R.R.~.~.~.~.Q.~.Q.~.~.).~.Q.~.$X2XpXiX2X&X%X).E.E.E.E._.E.R.R.c.c.l.k.k.l.k.k.t.e.e.e.e.e.t.l.l.l.k.k.k.k.k.k.k.l.l.l.l.l.l.k.k.k.i.i.i.i.i.i.i.i.i.k.T.R.E.~.~.~.~.~.~.).$X$X$X$X$X[.~.~.E.R.T.T.T.T.T.^.T.T.T.T.T.^.^.Q.Q.Q.Q.Q.Q.~.~.).).$X$X$X$X$X).~.~.Q.R.R.^.",
"i.Z.T.^.~.$X*XqXrX;X&X%X X~.T.Z.Z.T.T.^.T.T.T.~. X#X*X*XfXiX;X#X X X X#X#X#XoX#X#X*XwXqXrXiXiXiXiXiXsXsX;X&X&X&X;X2XiXsXpXgXgXsXiX2XiXsXgXgXpX;X$X~.R.^.R.Q.Q.Q.$X$X~.~.%X;X&X~.Q.Q.T.t.T.^.Q.Q.~.Q.Q.^.T.T.^.^.^.^.^.^.^.^.T.T.~.%X$X~.Q.Q.Q.^.^.^.^.^.^.^.^.^.^.^.^.T.T.T.T.T.T.T.T.T.T.R.R.R.E.~.~.).%X2X2X;X$X~.R.T.^.T.i.i.T.i.t.t.i.i.t.t.i.T.T.T.^.R.R.R.R.T.T.R.R.Q.R.T.R.).;XiX2X3X%X).E.E.E.E.E.E.E.R.c.c.l.l.k.l.k.k.k.l.l.t.e.e.e.e.e.e.t.t.l.l.k.k.t.l.t.t.t.t.t.t.t.t.t.t.i.t.t.t.t.t.t.i.i.k.c.T.T.^.E.R.^.T.R.E.E.E.E.E.R.T.c.c.k.k.k.i.k.k.k.c.T.S.S.T.T.T.^.^.Q.Q.Q.~.~.~.~.~.~.$X$X$X$X).~.~.Q.R.^.^.",
"y.Z.~.*X*X;XqXqX;X#X~.Q.^.T.i.p.i.Z.T.T.Z.Z.T.~.#X*X*X-XwX;X#X~.^.^.!. X~.!.^.^. X*X;XiX;X$X$X%X&X&X&X%X%X$X$X$X%X&X;X2XiXsXsXiXiXiXiXsXsXiX;X$X~.^.^.T.T.T.T.^.Q.~.$X%X;XqX&X$X~.Q.T.i.T.^.Q.Q.~.Q.Q.^.T.T.T.T.^.T.^.^.^.T.i.i.Q.$X$X~.Q.Q.^.T.i.i.i.i.i.T.T.T.T.T.T.z.i.i.i.i.i.i.T.T.T.T.R.R.R.E.E.~.$X%X%X).R.R.R.R.T.i.i.i.i.t.y.y.t.t.t.t.i.T.T.T.T.T.T.S.k.k.S.T.R.R.T.S.S.R.$X;X2X;X%X).).E.E.E.E.E.E.R.c.c.c.c.l.k.k.k.l.l.l.e.e.e.e.e.e.e.t.t.t.k.k.k.k.t.t.t.t.t.t.t.t.t.t.t.t.e.t.w.w.t.t.t.t.t.i.i.k.c.T.T.c.c.c.c.c.c.c.c.c.k.k.i.i.t.t.t.t.t.t.t.i.i.i.Z.S.T.T.^.^.Q.Q.~.~.~.~.~.~.~. X$X$X X~.~.~.Q.Q.^.",
" X X-XiXtXsXiX;X XW.H.H.Z.i.y.y.y.i.Z.Z.Z.T.~.*X-X*X X!.^.T.Z.Z.Z.Z.H.T.Z.u.y.p.Z. XwXiX&X~.Q.$X;X;X&X$X~.~.~.~.).$X=X;XrXiXiX2X2XrXsXsXrX&X$X).~.Q.Q.^.T.T.T.T.Q.~.%XqXiX;X%X~.Q.Q.Q.Q.Q.Q.~.~.~.~.~.Q.R.T.T.T.^.^.R.R.^.T.Z.T.^.$X$XQ.Q.^.T.i.t.t.p.e.t.i.i.i.i.i.i.i.t.t.i.i.i.i.T.T.T.^.^.R.R.R.R.R.$X$X~.^.k.k.c.c.i.i.i.i.i.t.t.t.t.t.t.i.i.i.k.k.k.k.k.k.k.k.k.T.^.^.T.Z.i.T.~.%X;X;X%X[.).~.~.E.E.E.R.R.c.c.c.c.l.k.k.k.t.t.t.t.t.e.e.e.e.e.e.e.t.t.t.t.t.t.t.e.e.e.e.e.e.t.t.t.t.e.w.w.w.w.w.t.t.w.w.t.t.t.i.i.i.i.i.i.i.t.t.i.i.i.i.i.t.e.w.w.w.w.e.t.t.t.i.i.i.Z.Z.T.T.^.^.^.^.^.^.Q.Q.Q.~.~.~.~. X X$X%X%X#X",
"|.*X-XoX X!. X!.H.Z.Z.W.W.W.H.Z.H.W.K.Z.!.wXwXoX!.K.H.W.!.W.C.u.u.C.u.y.9.8.y.q.8.!.;X*X~.^.^.%X=X$X~.Q.T.^.~.~.Q.~.=XiXrXrXrX;X;X;X=X=X=X$X.X~.Q.T.T.S.k.i.S.^.~.&XrXiXrX&X.XQ.^.Q.Q.Q.~.~.~.~.~.~.Q.R.T.T.T.T.T.T.^.T.T.T.T.T.^.^.^.^.T.T.i.t.w.w.w.w.w.w.y.t.t.t.p.p.y.w.t.t.i.Z.T.T.T.^.^.^.^.^.T.T.T.T.c.i.i.i.t.t.t.t.i.i.i.i.i.i.i.i.i.i.i.i.i.i.i.i.i.i.i.i.i.Z.T.^.T.H.H.T.Q.$X;X2X&X[.}.).).E.R.R.R.R.c.R.c.c.l.k.k.k.t.t.t.t.t.t.e.e.e.e.e.e.e.e.e.e.e.e.e.e.e.e.e.e.e.e.e.t.t.t.t.t.t.w.t.t.t.w.w.w.w.w.t.t.t.t.t.t.w.t.w.r.w.w.w.w.w.w.w.w.w.w.w.w.y.t.t.i.i.i.Z.Z.T.T.T.^.T.^.^.^.^.^.^.^.^.^.^.Q.~.~. X X",
"K. XOXoX!.!.|.!.Z.u.u.Z.K.K.Z.C.K.K.H.Z.K. X!.K.C.C.C.u.u.9.6.=.6.6.6.=.=.=.7.6.7.!.*XoXQ.H.T.~.#X~.^.T.Z.T.T.T.^..X;XiXrXrX;X=X=X%X%X=X=X$X.X~.R.T.S.k.i.S.S.Q.~.$X&X;X&X$X~.T.T.T.^.Q.Q.~.~.~.Q.T.S.i.i.i.i.i.Z.Z.S.Z.Z.Z.Z.Z.T.T.T.H.Z.i.u.w.w.7.-.-.8.w.w.w.w.w.w.w.w.w.w.y.t.i.i.i.i.i.H.H.H.H.H.i.i.i.i.t.t.u.w.w.w.u.t.t.t.t.t.i.i.t.t.t.t.t.u.u.u.u.u.u.u.t.t.t.i.H.u.u.u.u.z.T.&X6X2X&X{.[.E.R.R.R.R.R.R.R.R.c.c.k.k.k.k.k.t.t.t.t.e.t.t.e.e.e.e.e.e.e.e.e.e.e.e.e.e.e.e.w.w.w.e.t.t.t.t.t.t.t.w.w.w.t.w.w.w.w.w.w.w.w.w.w.w.w.w.w.w.w.w.w.w.w.w.w.w.w.w.y.w.t.t.t.i.i.Z.Z.T.T.T.T.T.^.^.T.^.T.T.T.S.S.T.T.T.T.",
"u.K.!.!.K.Z.Z.C.9.7.q.u.u.u.9.9.9.u.u.9.u.C.u.9.9.9.9.q.6.=.....=.6.=.....=.6.6.7.K.oX XT.i.i.T.Q.Q.T.H.Z.i.i.u.T.=XiX2X;X;X=X$X$X.X$X.X.X~.Q.T.S.i.p.i.i.S.T.T.Q. X$X$X$X~.^.S.Z.S.T.^.^.Q.Q.^.T.Z.i.t.y.y.p.t.t.i.i.t.t.i.i.i.i.i.i.i.u.y.w.8.8.-.=.=.-.7.8.8.8.8.8.8.8.8.8.8.w.y.r.u.t.t.u.t.i.i.i.t.t.u.r.r.w.w.w.w.w.w.r.u.u.u.u.i.u.u.u.w.w.w.w.w.w.w.w.w.w.w.w.w.y.u.y.8.9.9.u.u.%XiXiX6X<X%X}.E.E.).E.E.R.R.R.R.c.c.c.c.c.k.k.k.k.t.e.e.e.e.e.e.e.w.w.w.w.e.e.e.e.e.e.e.w.w.w.w.w.w.w.r.r.t.t.r.r.r.r.r.w.r.r.w.w.w.w.w.w.w.t.w.w.w.w.w.3.3.w.w.w.w.w.w.w.w.w.w.u.u.t.t.i.i.i.Z.Z.Z.T.T.^.^.^.^.T.S.Z.i.i.i.t.i.",
"9.C.K.K.u.9.9.9.q.6.6.9.9.9.q.6.6.6.6.6.q.u.q.6.6.6.6.6.6.6.6.6.6.9.9.9.6.6.q.6.9.K.!.K.C.u.u.u.u.Z.T.H.Z.i.u.y.T.=X;X$X$X#X.X.X~.~.~.Q.^.T.T.i.i.y.y.y.t.t.i.i.H.T.T.T.T.Z.i.t.t.i.i.Z.i.i.i.t.y.w.w.8.7.w.w.w.w.w.w.w.w.w.w.w.y.y.y.w.w.8.8.-.=.=.=.=.=.-.-.7.8.8.8.7.-.-.-.-.7.8.8.8.9.9.9.w.w.w.w.w.w.8.8.8.8.1.-.-.8.8.9.w.w.w.w.w.w.w.8.8.8.1.8.8.8.8.8.8.8.8.8.7.8.8.9.8.=.=.w.H.&XaXaXpX6X2X&X[.[.).).).E.E.R.R.R.T.R.c.c.c.k.k.k.k.t.t.e.e.e.e.w.w.w.w.w.w.e.w.e.e.e.e.w.w.w.w.w.w.w.w.w.r.r.r.r.r.r.r.w.r.r.r.w.w.w.w.e.e.e.w.w.w.w.w.3.3.w.w.w.w.w.w.w.w.w.w.w.w.u.u.t.t.i.i.i.i.Z.T.T.^.^.^.^.T.T.T.T.T.T.T.",
"6.B.G.C.9.q.9.9.6.6.6.9.9.6.6.6.=...X.X.6.q.6.| ] | ..X.6.6.q.9.q.q.u.B.q.9.q.6.q.C.C.u.9.q.q.7.=.8.Z.Z.i.i.u.u.Z.~. X^.^.Q.Q.~.^.^.H.Z.i.u.y.y.y.w.w.w.8.8.8.w.y.u.u.u.u.u.y.w.w.y.u.u.u.w.8.8.-.-.-.-.-.-.-.-.-.-.8.8.8.8.8.8.8.8.8.6.6.=.=.=.X.X.X...=.=.=.=.=.=.=.=.=.=.=.X.=.=.=.=.=.=.=.1.=.1.1.1.1.=.=.=.=.=.=.=.=.=.=.1.1.1.1.1.1.1.=.=.=.=.=.=.=.=.=.=.=.=.=.=.=.q.6.X.| X.H.&XsXgXaX6X;X&X%X[.[.).).).~.E.E.E.E.R.R.R.c.c.c.k.k.k.k.k.t.e.e.e.e.e.w.w.w.w.e.e.e.e.w.w.w.w.w.w.w.w.w.w.w.w.w.w.r.r.r.r.r.r.r.w.w.w.w.w.w.t.w.w.w.w.w.w.w.w.w.w.w.w.w.w.w.w.w.w.w.w.w.w.u.u.t.i.i.i.Z.T.T.T.^.^.^.~.~.~. X#X#X#X",
"6.q.C.9.6.=.X.X...........| | ..| ] [ | ..X.| H G ] o.6.o.o.@.@.@.@.@.6.@.@.@.@.@.q.q.6.X.X.X...| ..8.y.9.9.y.y.y.Z.Z.u.u.i.H.H.H.Z.u.u.9.8.8.8.9.9.9.8.=.=.=.=.8.8.9.9.8.9.9.9.9.9.u.u.9.8.=.=.=.=.=.=.=.=.=.=.=.=.=.=.=.=.=.=.=.=.X.X.X.X.X. . . . .|  .X.X.X.X.X.X.X.X... .o.o.o. . . . .X.X.X.X.X.X.X.X.X.X.X... . . .X.X.X.X.X.X.X.X.X.X.X.X.X.X.X.....X.X.X.X.X. .X.X.X.|  .u.&XnXgXgX6X%X[.}.~.E.E.~.~.~.).).).).E.E.E.R.R.T.c.k.k.k.k.k.t.t.e.e.w.w.w.w.w.w.e.e.w.w.w.w.w.w.w.w.w.w.w.w.w.w.w.w.w.w.r.r.r.t.r.r.w.w.w.w.w.e.t.t.w.w.w.w.w.w.w.w.w.w.w.w.w.w.w.w.w.w.w.w.w.w.u.i.Z.Z.T.T.T.T.T.^.^.~. X#X*X=X;X;X",
"X.6.9.9.6.| | | ] ] K K K H ` ] K H K ` | o.` J J { o.@.J { o.o.o.{ { o.o.o.{ { @.@.o.o.| ` ] | | P | ..=.=.=.=.=.8.q.7.8.9.w.u.u.u.9.8.1.=.=.6.8.8.8.8.| |  .....X.X.X.=.=.=.=.6.=.=.=.=.X.X.X.X.X.X.X.X.X.X.X.X.X.X...X. . . . . .o.o.o.| | | | | | | | | o.o.X.X.X.o.o.| | { { { { ! | | | | | o.| o.| o.| | | | | | | | | | | | | | | | | | | | | | | | | | | | | | | P K [ u.;XnXnXgXaX2X[.~.E.R.R.R.R.R.E.~.).).).).).E.E.E.R.T.c.k.k.k.k.k.t.t.t.e.w.w.w.w.w.w.w.w.w.w.w.e.w.w.w.w.w.w.w.w.w.w.w.w.w.w.w.r.r.t.t.w.w.w.w.w.w.w.w.w.w.w.w.w.w.w.w.w.w.w.w.w.w.w.w.w.w.w.w.w.w.y.i.i.Z.H.T.T.T.T.T.^.^.~. X X#X*X*X",
"o.@.q.9.6...o.| | ] ` K K H ` | ` K ` { o.o.{ J J J J J J ' { o.{ ' ' ` { { ' { @.@.o.{ { G G ` | H L K | | | |  .X.6.=.=.=.6.6.q.q.6.6.=.X.=.=.=.=.X.X.| | | | o.| | | | |  . .X.o.o.o.o.| | | | | | o.o.o.o.o.o.o.o.| | | | { { { { { { ! ! ! ` ! ! { { { { o.o.o.o.| { { ` K J J J J K K K ` ! { { { | { ! ! ! ! K K K K K K K K K ! ! ! K K K K K K K K K K K K K K K L L 6.*XnXlXsXpXiX;X$X).~.E.R.T.T.R.E.E.).).).).).).~.E.E.R.R.c.c.k.k.k.k.l.t.e.e.e.e.e.e.e.e.w.w.w.3.3.3.3.w.w.w.w.w.w.w.w.w.w.w.w.w.r.r.r.r.w.w.w.w.w.w.w.w.w.w.w.w.w.w.w.w.w.w.w.w.w.w.w.w.w.w.w.w.w.w.w.y.i.i.Z.Z.H.T.T.W.W.^.W.W.!.~.~. X",
"` o.6.q.6.@.o.o.o.| ` K K ` ` ` ` ` ` { { { ` ` J J z x J ' J x x x x J ' ' ' c x G ' { o.{ J J K J G G L L L K | X.X...o.o.X.o.X.X.X.o.o.o.o.o.o.o.o.| | | | { { ` K J J K ` ` ` ` J J K ` ` ` ` ` ` { { { { { { { { ` ` K J J J J J J J J J J J J J J J c J ' ' { { { J x z z l l z c J J J J J J K { { { { ! ! { { | { K K J L D z g d d d d g D D L L L L L L L L L L L K K.gXgX;X;X;X;X&X%X$X).E.R.T.T.T.R.E.~.~.~.).).).).).E.E.R.R.c.c.c.k.k.k.k.t.t.t.t.t.t.e.e.e.e.e.w.w.w.w.w.w.w.w.w.w.w.w.w.r.w.w.r.r.r.r.r.w.w.w.w.w.w.w.w.r.r.w.w.w.w.w.w.w.w.w.w.w.w.w.w.w.w.w.w.w.w.w.w.y.u.i.Z.Z.H.T.T.W.W.W.W.W.^.^.^.",
"K | @.q.$.@.o.o.o.o.{ ` ` ` ` J J J J J J J J J J J J ' ' ' ' x x z x c b b c c c ' } o.@.o.{ J J J J J J J G G K K K K K { | o.o.o.o.{ { { { o.o.o.o.{ { { { ' J J x z z z z z z l l h z z z z z z z x J J J c c x x x z z z z z z l l l l l l z z z l l l l l l z c c l p p p i a p l c c x z z z z c c x z z x J J K J J z l d s f u u 3 3 u s d z J G G G G D G D D D D K L.bXiX#X&X&X&X%X$X[.).E.E.R.R.R.R.E.E.~.~.~.).).).).).).E.E.R.R.R.T.c.c.c.k.k.k.i.t.t.t.t.t.t.t.t.t.e.w.w.w.w.w.w.w.w.w.r.w.w.r.r.r.r.r.r.w.w.w.w.w.w.w.w.t.t.w.w.w.w.w.w.w.w.w.w.w.w.w.w.w.w.w.w.w.w.w.w.w.w.y.u.Z.Z.Z.Z.H.H.H.H.T.T.T.T.",
"` { o.@.o.o.o.o.@.@.@.o.{ { { ' J J J c c c c c c c c J ' ' c c z z l c c c c c c ' { O.O.{ J x x x J J ` ` ` ` { { ` J J ` { { { { { { { { { { { { { { { { { ' ' c c z z z z z l s s s h l l l l l l l l l l l h s s s s s p p p p p p p p p p p p p p p i i p p p l l p i a i a a i l x x l l s p p p p i i p s s h l l h h s s p i a u u u i s l x J c c J c J J J J s u d 6.*XsXqX*X%X%X$X[.).E.E.E.E.E.E.E.E.E.E.E.E.E.E.E.).).).).).E.E.E.E.R.R.c.c.k.k.k.k.i.i.i.i.i.t.t.t.t.t.t.t.t.r.r.w.w.w.r.r.r.r.r.r.r.r.r.w.w.w.w.w.w.e.e.t.t.t.w.w.w.w.w.w.w.w.w.w.w.w.w.w.w.w.w.w.w.w.w.w.w.y.y.p.p.u.u.u.u.u.i.Z.Z.Z.Z.",
"` ` { { { J J J { @.@.@.@.o.o.{ { { ' J J J J J J J J } { } } } ' c c c b b c x l x b ' } ' ' J J J ' { { { { { { { { J J J J ' ' J J J J J J c J J c J J J J J J c c c z z z l l s p p s h h h h h h s s p p p a a a y y y y y y y y y y y y y y y y y y > y y y y u u y > 9 y 9 9 y y y 9 9 9 y 2 > > > > > e e e e e y y y y y 2 > > > , > > > > 2 e y y y u y y y y 2 - 2 d X.oXqX$X$X$X[.).~.E.E.E.~.~.~.E.~.E.E.E.E.E.E.E.E.).).).).).).).E.E.R.R.c.c.c.k.k.k.k.k.k.k.k.k.k.c.i.i.i.i.i.t.r.r.r.r.r.r.r.r.r.r.r.r.e.w.w.w.w.w.w.e.t.t.t.e.w.w.w.w.w.w.w.w.w.w.w.w.w.w.w.8.8.8.8.8.8.8.w.w.w.w.w.w.w.w.w.y.y.y.u.u.",
"z z z z z h s s z J J J J J J c c z z z l l l l l l l z z z c c l h h h l l h p i i p h h l l h h h x x x j s d j j j d j l l l l l l l h h h h h s s s p p p s s s s p p p p a a y y y y y y y y y y y y e 2 2 2 > > > > , , , , , , , , , , , , , , , , ; ; , ; ; ; , ; < ; ; ; < ; ; % % ; ; ; ; ; ; ; ; ; ; ; % % % % % ; ; ; ; % % ; ; ; ; ; ; ; % % < % < % - - ; ; * * - 3 | W.#X%X$X$X).~.~.E.E.~.~.~.~.~.E.E.E.E.E.E.E.E.E.E.E.~.~.).).).E.E.E.T.c.c.c.c.c.c.c.c.k.c.k.c.c.c.c.c.c.c.z.i.i.i.r.r.r.r.r.r.r.r.t.t.e.w.w.w.w.e.t.t.t.t.w.w.w.w.w.w.w.w.w.w.w.8.8.8.8.8.8.-.7.7.7.7.-.7.7.8.7.8.8.8.8.7.w.y.y.y.y.",
"s s d l z d p i s h l l l z l l l h s s s s s p s s s p a a a i i i i p p h p p i i i i i i i i y i s h s u u u s s s s s d h d d s d d d s s s s s s p a u a a p p a a a a y y y y e 2 2 2 2 2 2 2 2 2 2 2 > > > > > > > > > > , , > > , , , , , , , , , , , > , , , , , ; ; , ; ; ; ; ; ; ; ; , ; ; ; ; ; ; , , , ; ; ; , , ; ; ; ; ; ; ; , , , ; ; ; ; ; ; ; ; ; ; ; 2 > : % * f q.;X&X&X%X[.~.~.E.~.~.~.).).).~.E.E.~.).~.~.E.E.E.E.E.E.E.E.E.E.E.E.R.T.T.c.c.c.c.c.c.c.c.k.c.k.c.c.c.c.T.T.T.z.z.z.i.i.r.r.r.r.r.t.t.t.w.w.w.w.e.t.t.t.t.t.w.w.w.w.w.w.w.w.w.8.8.8.8.8.-.-.-.-.-.-.-.-.-.7.7.7.8.8.8.8.7.w.w.y.y.y.",
"l h l z x z h l z J J J J ' ' ' J J J J c c x x x x z z l l z c x l l l l c l l l h h l c b ' x h h x ' x l h z x x z l l z z z z l l l l h h h h z z z z z z z z z l l s s p p p p i i i a a a a i a a a a a a a u y y y y y y y y y y u y y y y y y y y y u a u u a i a u u a u y y u u u y e y 2 > > 2 y y u a p p s p p a u y e 2 > > , , , , > 2 y y u i a a a a a u 2 2 : 3 D K.fXiXqX&X$X[.~.~.~.~.).).).).~.~.~.).).).).E.E.E.E.E.R.R.R.R.E.E.E.E.E.R.T.T.c.c.c.c.k.k.k.i.i.i.i.c.T.T.T.T.T.T.T.z.i.i.t.r.r.r.r.t.t.w.w.w.w.w.r.r.r.t.t.w.w.w.w.w.w.w.w.w.8.8.7.8.-.-.-.-.-.-.-.=.-.-.7.7.7.7.7.7.7.7.7.7.7.8.y.",
"J J G J J J G J { o.@.o.{ { { ` ` ` J J J J J J J J J J { { { { { ' ' ' b ' b b c c c c } } } c h h J { ' c J ' { ' J x J ' ` J J J G G x x x x x J J ` ` J J J J J c z l h s s s s p p p p p p p p p p p p p p i a a u y y y y u u u u u u y y y y y y y y a i i u i p i u a i u y y u p p i a a y a a u y e e y u u i u u u u u u y e 2 > > > 2 y u i p s s s s s s s 2 : 3 3 d q.tXnXsXsX;X&X$X).~.~.~.).).).).).~.~.).).).).).~.~.E.E.R.R.R.R.R.R.R.R.R.R.T.T.c.c.c.c.k.k.i.t.i.i.i.c.c.c.T.T.T.T.T.T.z.z.i.i.i.i.t.t.t.r.w.w.w.w.w.r.r.t.t.w.w.w.w.w.w.w.w.w.w.8.-.-.-.-.-.-.-.-.-.-.-.7.7.7.7.7.7.7.7.-.7.7.7.7.7.",
"{ o.o.o.o.o.o.o.| { | | ` K K K J G G G D D G G G G G G D G G G x x x x x x x c c c J ' ' ' ' J J x x z z z G J J J ' ' ` ` ` ` ` ` ` K K K ` { | ` ` ` K G G D G G G x l j j l j h d s s s s s s s s s s s s s s s s s s s i i p i i i i i i i i i i i i a u i p s h h s i a y u u s s s d s s s f s s s s s s d s s s f f f f u u e e 3 e u u u f s s s s d d j j j j s d e u X.yXMXNXfXgXiX;X%X$X).).).).).).).).).).).).).).).).).).).~.~.R.R.R.T.R.R.R.R.R.c.c.c.c.c.k.c.l.t.t.t.t.i.i.c.c.c.T.T.T.T.c.T.c.c.i.i.i.t.t.t.t.w.w.w.w.w.t.t.t.w.w.w.t.e.w.w.w.w.w.w.-.-.-.-.-.-.-.-.-.-.-.7.7.7.7.7.7.7.=.=.=.=.=.=.=.",
"K ` ] | o.o.| ` K H H K H H H D D D S S S S S S S S S S S S S j j j d d d d j j j x x G G H G G G x x x D D G J K ` ` ` { | | | o.o.| | | | | | | | | [ K H D D D G G D D j j x D x j j x x D x D D G G G G G J J J G G D x x j j j j j j j j j j j j j j j j j x z G G x j s f f s d j x x D j j j j S S D H L K K H H H H D D S j d d d d d d j j D D D D D L G G L L D G d D u.fXMXfXtXiXiXtX&X%X$X$X$X$X).~.~.).$X$X$X[.[.$X$X$X$X$X$X[.).).~.E.R.R.E.E.R.R.R.b.b.c.c.x.c.l.k.l.t.t.k.i.i.c.c.c.c.c.c.c.c.c.c.c.i.i.i.i.t.t.t.t.w.w.w.w.t.t.t.w.t.t.t.t.y.w.w.w.w.-.-.-.-.-.-.-.-.-.-.-.7.6.6.6.6.6.6.6.6.6.=.=.=.=.",
"K ] ..X.K.K.K.C.9.q.q.8.9.9.9.8.q.q.q.q.7.7.7.7.q.q.q.8.u.u.9.q.6.=... .[ [ ] ] ` ` K K K H H H H H H H H H K K ] ] [ | | ................ . . . . . . . .[ P P ] [ [ [ ] P P ] ] ] ] K K K K K K K K K K K K K K K K K K K K K K H H H H H H H H H H H H H H H K ` ] K K H S S S S S D H H H H H F F F H P P [ P P H H H H F F F D S M S S M S S S D D D D D F F F F F F H D F 8.oX*XQ.oX;XiXiX;X%X$X$X$X%X%X$X$X$X$X$X$X$X$X$X%X$X%X%X$X$X[.).).~.E.E.E.E.E.E.R.R.R.b.c.c.x.c.k.k.k.i.i.i.i.i.i.c.c.c.c.c.c.c.c.c.c.i.i.i.t.t.t.t.r.r.w.w.t.t.t.t.t.t.t.t.w.w.w.w.w.w.-.-.-.-.-.-.-.-.-.-.=.6.6.6.6.6.6.=.=.=.=.=.=.6.",
"7.u.K. XtXyXfXsXsXiXqXqXtXiXtXtXtXqXqXqXqXqXqXqXtXtXtXiXfXfXiXtX-X*XoX X!.W.K.H.K.K.Z.C.9.7.q.7.7.7.6.6.7.7.q.q.9.9.9.9.9.9.9.9.8.8.7.=.=.=.*.*.*.*.*.*.[ [ P P [  . . .[ [  . ....... . .[  .[ [ [ [ [ [ ] [ [ ] [ [ [ [  . . .[ [ ] ] P P P P P P P P P P P ] [ [  .[ ] P H H F H H H P H P P P P P P P [ [ [ I I I I I I I I I I H F F F F H H I H P P P I I H H H I H P S S P =.*.F Z.oX;XiX;X&X%X%X%X&X;X&X%X%X$X$X%X%X%X%X%X%X%X%X$X$X$X[.).).).).).).E.E.E.E.R.R.R.c.c.c.c.k.k.k.i.i.i.i.i.i.i.i.c.c.c.c.c.c.c.c.i.i.i.i.t.t.t.t.w.w.t.t.t.t.i.i.t.t.w.y.w.w.w.w.w.-.-.-.-.-.-.-.=.=.=.6.6.6.6.6.=.=.=.=.6.6.6.7.",
"tXfXbXnXnXnXnXnXnXnXgXgXgXgXgXgXgXgXgXgXfXfXgXgXgXgXgXgXgXgXgXgXsXiXiXiXqXqXtXtXtXtXtXtXwXwXwX-X-X=X=X=X*X*X*X*X=X=X-X=X*X*X*X#X X~.^.T.i.t.y.w.w.w.-.-.*.Q I I [ *.*.*.*. .*.*.=.=.=. .[ [ [ [ [ [ [ [ [ [ [ [ [ [ [ [ [  . .[ [ [ P P P H H I H H H H H P P P [ [ [ [ P P P H H H H P P P I P [ I [ [ [  . .[ I I I I I I I I [ I I P P P P P P I  . . . . . .[ [ [ P P P P I I I I I w.T.$X&X;X2X2X;XiX;X;X;X&X%X$X$X%X%X%X%X%X%X%X%X$X$X[.[.[.[.).).).).).E.E.E.E.E.R.b.c.c.c.x.c.k.t.t.t.t.t.i.i.i.i.z.c.c.c.c.c.T.c.i.i.i.i.t.t.t.t.t.t.t.t.i.i.i.i.t.y.u.w.w.w.w.w.w.-.-.-.-.-.=.=.=.=.6.=.=.=.=.=.6.6.6.6.6.6.7.",
"nXnXnXnXgXgXgXgXaXsXsXsXiXiXiX6X2X2X2X6X;X6X6XiXiXiXiXiX;X;X;X;X;X;X;X;XiXiXiXsXgXfXfXgXgXfXfXfXfXgXgXsXsXsXsXiXiXiXiXiXiXiXsXgXsXsXsXsXiX;X&X%X$X$X~.~.T.k.i.i.i.T.T.T.T.i.T.T.^.^.T.T.8.7.-.-.-.-.-.-.-.=.=.=.=.=.*.*.=.=.=.;.;.*. .[ [ [ I [ [ [ [ [ [ [  .[  . .*.*.[ [ I I P P P P [ [ [ *.*.*.;.;.;.;.*.*./ / Q / / *.;.;.;.;.;.*.*.*.*.*.*.*.*.*.*.*.*.*.*.*.*.*.*./ / / Q I Q Q ;.w.T.~.%X;X2X2XiXiXiX;X;X;X%X%X%X;X&X%X%X%X%X%X$X$X$X$X$X$X[.[.[.[.).)._._.E.E.E.R.R.b.c.c.c.k.t.t.t.t.t.t.t.t.i.i.c.c.c.c.T.T.T.T.c.z.i.t.t.t.t.t.t.t.i.i.i.i.t.t.y.y.w.w.w.w.w.w.w.-.-.-.;.=.=.=.=.=.=.=.6.6.6.6.6.6.6.6.6.7.",
"gXgXpXsXsXsXsXsXgXsXsXsXiXiXiXiX;X;X;X;X;XiXiXiXiXsXsXiX;X;X;X;X;X;X2XiXiXiXsXpXaXgXgXgXgXgXgXsXsXsXsXsXsXsXsXiXiXiXiXiXiXsXpXaXgXgXgXgXgXaXpXpXpXpXpXiXiXiXiXiXiXsXpXsXiXiXiXsXaXaXsXiX;X&X&X%X%X%X#X$X$X$X$X$X).~.~.Q.^.T.T.T.T.T.k.k.i.i.k.T.T.T.T.T.T.T.i.i.i.i.i.t.e.e.w.w.w.w.w.w.w.3.,.,.-.3.3.,.-.-.;.*.*.*.*.*.;.;.-.-.-.-.;.;.;.*.*.*.*.*.*.*.*.*.*.;.;.;.;.;.*.*.*.*.*.*.*.*.;.-.w.i.^.~.$X$X%X&X;XiXsXiXiX2X2X2X;X;X&X&X%X%X%X$X$X$X$X$X$X[.[.[.[.}.}.}.}.).E.E.E.R.R.b.c.c.t.t.e.e.e.t.t.t.t.i.z.c.c.c.T.T.T.T.T.c.i.i.t.t.t.t.t.i.i.i.i.i.i.t.t.t.w.w.w.w.w.w.w.-.-.-.=.=.=.=.=.=.6.6.6.6.6.6.6.6.7.7.7.7.",
"gXgXsXaXsXsXsXsXgXsXiXiXtX;X;X&X&X;X;X;X;X;X;X;X;XrXiXrX;X;X;X;X;X;X6XiXiXiXiXpXpXgXgXpXpXiXiXiXiXiXiXiXiXiXiXiXiXiXiXiXiXiXiXiXiXiXiX6X6X6X6XiXiXpXpXpXaXaXpXpXaXgXgXgXaXpXpXaXgXgXaXaXgXgXgXgXgXgXgXgXgXgXgXgXgXgXgXgXpXpXpXiXiXiXiXiXiXiXpXpXgXgXgXgXaXpXpXiXiX6X2X2X2X2X2X2X2X2X;X;X&X%X$X$X[.).~.E.T.k.e.w.3.,.,.-.,.3.w.w.w.w.w.3.1.-.-.-.-.-.-.-.-.-.,.1.3.1.1.1.1.-.-.;.-.-.-.-.-.-.-.w.t.i.S.T.T.R.$X;XpXgXgXpXiXiX2X3X3X&X&X%X%X%X%X%X%X%X%X%X$X$X[.[.}.}.}.}.)._.E.E.R.R.c.c.i.t.t.t.t.t.w.t.t.i.z.c.c.c.T.T.^.T.T.T.c.i.i.t.t.t.i.i.i.i.i.i.i.t.p.t.t.t.p.w.w.w.w.-.-.-.=.=.=.=.=.6.6.6.6.6.6.7.7.7.7.7.7.7.",
"sXsXsXsXsXsXiXiXiXqXiXqX;X;X;X;X;X;X;X;X;X;X;X;X;X;X;X;X;X&X;X;X;X2X6XiXiXiXiXpXpXpXaXpXiXiXiXiXiXiXiXiXiXiXiXiXiX6XiXiXiXiXiXpXpXaXaXgXgXgXgXaXaXaXaXaXaXaXaXaXaXaXaXaXaXaXaXaXaXaXaXaXaXaXgXgXgXgXgXgXgXgXgXgXgXgXgXgXgXgXgXgXgXgXgXgXgXgXaXgXgXgXgXgXgXgXgXgXgXgXgXgXgXgXgXgXgXgXgXgXgXgXgXaXpXpXsXiXiXiXiX6X6X2X2X;X&X%X$X$X[.~.~.E.T.i.t.w.w.w.w.3.3.1.-.-.-.-.-.-.-.-.3.3.3.3.3.3.,.w.w.w.t.i.i.i.i.i.i.k.T.Q.[.%X;X2X6X6X2X2X;X;X%X%X%X%X%X%X%X%X%X%X[.[.[.[.[.}.}._.E.E.R.R.b.c.c.i.t.t.t.e.w.t.t.t.k.c.c.c.T.T.T.T.T.T.c.i.i.i.i.i.i.i.i.i.i.i.i.t.w.t.t.t.t.t.w.w.w.w.-.-.=.=.=.-.7.6.7.6.7.7.7.7.7.7.7.7.7.8.",
"sXsXsXsXsXsXiXiXiX;XqXtX;X;X;X;X;X;X;X;X;X;X;X;X;X;X;X;X;X;X;X2X2X6X6XiXiXiXiXpXpXpXpXpXpXsXiXiXiXiXiXiXiXiXiXiXiXiXiXiXiXiXiXpXpXaXaXgXgXgXgXaXaXaXaXaXaXaXaXaXaXaXaXaXaXaXaXaXaXaXaXaXaXaXgXgXgXgXgXgXgXgXgXgXgXgXgXgXgXgXgXgXgXgXgXgXgXgXaXaXgXgXgXgXgXgXgXgXgXgXgXgXgXgXgXgXgXgXgXgXgXgXgXgXgXgXgXaXaXaXaXaXaXaXaXaXaXpXpXsXsXsXsXsXiX;X&X$X~.E.T.c.i.i.i.i.i.t.t.t.t.t.r.w.w.w.w.w.w.w.w.e.t.i.i.i.i.e.w.w.w.i.T.R.E.).$X;X2X6X2X2X&X%X%X%X%X%X&X&X%X%X[.[.[.[.[.}.}.).).E.E.R.b.c.c.c.i.t.t.e.e.t.t.i.k.c.c.c.c.T.T.T.T.T.c.c.i.i.i.i.i.i.i.i.i.i.i.t.t.t.t.t.t.t.t.w.w.w.-.-.-.=.=.7.7.6.7.7.7.7.7.7.q.q.q.q.q.8.",
"sXsXsXsXsXsXiXiXiXiXiXiXtXiXiXiXiXiXtXtXiXiXiXiXtXiXiXtX6X2X2X6X6X6XiXiXiXiXiXpXpXpXpXpXsXsXiXiXiXiXiXiXiXiXiXiXiXiXiXiXiXiXiXpXpXaXaXgXgXgXgXgXaXaXaXaXaXaXaXaXaXaXaXaXaXaXaXaXaXaXaXaXaXaXgXgXgXgXgXgXgXgXgXgXaXgXgXgXgXaXaXgXgXgXgXgXgXgXgXgXgXgXaXaXaXaXaXaXaXaXaXaXaXaXaXaXaXaXaXaXgXgXgXgXgXgXgXgXgXaXaXaXaXaXaXaXaXaXgXgXgXgXgXgXgXgXaXiX6X;X&X&X&X&X%X$X$X$X[.[.~.~.~.~.Q.E.E.^.T.k.i.t.i.i.i.k.i.i.t.t.i.i.k.k.k.k.R.~.$X%X;X2X;X&X%X%X%X%X%X%X%X$X[.[.[.[.}.}.}.}._.E.E.R.R.c.c.c.k.t.t.t.t.t.t.i.k.c.c.c.c.T.T.T.T.T.T.c.c.i.z.i.i.i.i.i.i.i.i.i.i.t.t.t.t.t.t.w.w.w.7.-.-.-.-.7.7.7.7.7.q.q.q.q.q.q.8.8.8.8.",
"sXsXsXsXsXsXsXiXiXiXiXiXiXiXiXiXiXiXiXiXiXiXiXiXiXiXiXiX6X6X6X6XiXiXiXiXiXiXiXpXpXpXpXpXpXpXsXsXpXpXpXiXiXiXiXiXiXiXiXiXiXiXiXpXpXaXaXgXgXgXgXgXaXaXaXaXaXaXaXaXaXaXaXaXaXaXaXaXaXaXaXaXaXaXgXgXgXgXgXgXgXgXaXaXgXgXgXgXgXgXaXaXgXgXaXgXgXgXgXgXaXaXaXaXaXaXaXaXpXpXpXpXpXpXpXaXaXaXaXaXaXgXgXgXgXgXgXaXaXaXaXaXaXaXaXaXpXaXaXaXgXgXgXgXgXgXaXaXhXiXiXiXsXaXaXaXaXsXsXsXsXiXiXiXiX6X6X;X&X[.~.E.R.R.R.R.T.T.k.k.i.i.i.i.i.k.k.R.~.).$X%X;X2X;X;X&X&X%X%X%X%X%X%X{.%X%X{.[.[.}._.E.E.R.R.c.c.c.k.t.t.t.t.t.t.k.c.c.c.c.T.T.T.T.T.T.T.c.c.c.c.c.i.i.i.i.i.i.i.t.t.i.i.i.t.t.y.w.w.7.-.-.-.-.7.7.7.7.7.q.q.q.8.8.8.9.9.9.8.",
"sXsXsXgXsXsXsXiXiXiXiXiXiXiXiXiXiXiXiXiXiXiXiXiXiXiXiXiXiX6XiXiXiXiXiXiXiXiXpXpXpXsXpXpXpXpXpXpXpXpXpXsXpXpXpXpXpXpXpXiXiXiXiXpXpXaXaXgXgXgXgXgXaXaXaXaXaXaXaXaXaXaXaXaXaXaXaXaXaXaXaXaXaXaXgXgXgXgXgXgXgXgXgXgXgXgXgXgXgXgXgXgXgXgXgXgXgXgXgXgXaXaXaXaXaXaXaXaXpXpXpXpXpXpXpXaXaXaXaXaXaXgXgXgXgXgXgXaXaXaXaXaXpXpXpXpXpXpXpXpXaXaXaXaXaXaXsXsXiXsXsXaXaXaXaXgXgXgXgXgXgXgXgXgXgXgXgXaXiX6X;X;X;X;X;X&X%X$X).~.E.T.T.c.T.T.T.R.E.).[.$X%X;X2XiXiX2X2X&X&X&X&X&X&X&X&X%X%X{.[.}.).E.E.R.R.T.c.k.i.t.t.t.t.i.k.c.c.c.c.c.T.T.T.T.T.T.T.T.c.c.i.i.i.i.i.i.i.i.t.t.i.i.i.t.t.y.w.w.w.-.-.-.7.8.q.q.q.q.8.8.8.9.9.9.9.9.9.8.",
"gXgXgXgXpXpXsXsXsXsXsXiXsXsXsXsXsXsXsXsXsXsXsXsXsXsXiXiXiXiXiXiXiXiXiXiXsXiXpXpXpXsXpXpXpXpXpXpXpXpXpXsXpXpXpXpXpXpXpXiXiXiXiXpXpXaXaXgXgXgXgXgXaXaXaXaXaXaXaXaXaXaXaXaXaXaXaXaXaXaXaXaXaXaXgXgXgXgXgXgXgXgXgXgXgXgXgXgXgXgXgXgXgXgXgXgXgXgXgXgXaXgXaXaXaXaXaXaXaXaXaXaXaXaXaXaXaXaXaXaXgXgXgXgXgXgXaXaXaXaXpXaXpXpXsXpXaXpXpXpXaXaXpXpXsXsXpXsXpXsXpXpXpXiXiXiXiXiXiXiXiXpXpXpXsXpXpXpXpXaXaXaXgXgXgXaXaXiXiX6X;X&X$X[.~.E.R.R.R.~.).[.%X%X;X;X2XiX6X6X2X2X2X2X2X<X<X<X&X&X%X[.}.}._.E.E.R.T.c.k.i.t.t.i.i.k.c.c.c.c.c.T.T.T.T.T.T.T.T.T.c.c.i.i.i.t.i.i.i.i.t.i.i.i.t.t.y.w.w.w.w.-.7.7.q.8.q.8.8.9.9.9.9.9.8.9.9.9.8.",
"gXgXgXgXaXaXpXpXiXiXpXpXpXpXpXpXpXpXpXpXpXpXpXpXpXpXpXpXiXiXiXiXiXiXiXpXpXpXpXpXpXpXpXpXaXaXaXaXaXaXaXaXpXpXaXaXaXaXaXpXpXiXpXpXaXaXaXgXgXgXgXgXaXaXaXaXaXaXaXaXaXaXaXaXaXaXaXaXaXaXaXaXaXaXgXgXgXgXgXgXaXaXgXgXgXgXgXgXgXgXgXgXgXgXgXgXgXgXgXaXaXgXgXgXgXgXgXgXgXgXgXgXgXgXgXgXgXgXgXgXgXgXgXgXgXgXaXaXaXaXaXaXaXaXpXaXaXaXaXaXaXaXaXsXpXiXpXpXpXpXaXpXpXpXpXpXpXpXpXpXpXpXpXpXpXiXiXiXaXaXgXgXgXgXgXgXgXgXgXaXpXpXiX6X;X%X[.[.).).).%X%X&X;X2X2X2X2X6X6X6X6X6X6X6X6X6X2X<X&X%X{.[.}.).E.E.T.c.c.k.t.t.i.k.k.c.c.c.c.c.T.T.T.T.T.T.T.T.T.c.c.i.i.i.t.t.i.i.i.t.i.i.i.t.t.t.w.w.w.w.-.7.7.8.8.8.9.9.9.9.9.9.8.8.9.9.8.8.",
"gXgXgXgXgXpXpXpXpXpXpXpXpXpXpXpXpXpXpXpXpXpXpXpXpXpXpXpXpXiXiXiXiXpXpXpXpXpXpXpXpXpXpXpXaXaXaXaXaXaXaXaXpXpXaXaXaXaXaXpXpXpXpXpXaXaXaXgXgXgXgXgXaXaXaXaXaXaXaXaXaXaXaXaXaXaXaXaXaXaXaXaXaXaXgXgXgXgXgXgXgXaXgXgXaXgXgXgXgXgXgXgXgXgXgXgXgXgXgXgXaXaXaXgXgXgXgXgXgXgXgXgXaXaXaXgXaXgXgXgXgXgXgXgXgXgXaXaXaXaXaXaXaXaXaXaXaXaXaXaXaXaXaXaXpXpXaXpXpXpXpXaXpXpXpXpXpXpXpXpXaXaXaXaXaXpXpXpXaXaXaXaXaXpXiXiXiXiXiXiXpXpXpXaXpXiXiX2X2X2X2X2X2XiX6X2X2X2X2X6X6X6X6X6X6X6X6X6X6X6X2X&X%X%X[.}.~.E.R.c.c.k.t.t.i.k.k.c.c.c.c.c.c.c.c.T.T.T.T.T.T.T.c.i.i.i.t.t.i.i.i.i.i.i.i.t.t.t.w.w.w.w.7.7.8.8.8.8.8.8.8.9.9.9.8.8.8.8.8.8.",
"pXpXpXpXpXpXpXpXpXpXpXpXpXpXpXpXpXpXpXgXaXaXaXpXpXpXpXpXpXpXpXpXpXpXpXpXpXpXpXpXpXpXpXpXpXpXpXpXpXpXpXpXpXpXpXpXpXpXpXpXpXpXpXpXpXaXaXaXgXgXgXgXaXaXaXgXgXpXgXgXgXgXgXgXgXgXgXgXpXpXpXpXpXgXgXgXgXgXgXgXgXgXgXgXaXaXaXgXgXgXgXlXlXlXlXlXlXgXgXgXaXpXgXgXgXgXgXgXgXgXaXpXpXpXpXpXpXgXgXgXgXgXgXgXgXaXaXpXpXpXpXgXgXgXgXgXgXgXgXgXgXaXgXgXpXgXpXpXpXpXpXpXpXpXpXpXpXpXpXpXgXaXgXgXgXgXgXgXgXgXgXgXgXgXgXgXgXgXgXgXkXlXlXlXlXlXlXlXlXlXlXlXlXgXpXpXiXiXiX6XiXpXpXpXpX6X6X6X6X6XiXpXiX;X&X%X[.~.E.E.R.T.c.c.c.c.c.k.k.k.c.c.c.T.c.T.T.T.T.T.T.T.c.k.i.i.i.t.i.i.i.i.i.i.i.i.t.u.w.w.w.w.8.8.8.8.8.8.q.q.q.8.8.8.8.8.8.8.9.9.",
"pXpXiXiXiXiXiXiXiXpXpXpXpXpXpXpXpXgXaXgXgXgXgXaXgXgXgXpXgXaXgXpXpXpXpXpXpXpXpXpXpXpXpXpXpXpXpXpXgXgXgXgXgXgXgXgXaXpXpXpXpXpXpXpXpXaXaXaXgXgXgXgXaXaXaXaXpXpXpXgXgXgXgXgXgXgXgXgXgXgXgXgXgXgXgXgXgXgXgXgXgXgXgXgXaXgXgXgXgXgXgXgXgXgXgXgXgXgXgXgXaXaXgXgXgXgXgXgXaXaXpXpXpXpXpXgXgXgXgXgXgXgXgXgXgXaXaXpXpXpXpXgXgXgXlXgXgXgXgXgXgXaXaXgXgXgXgXgXgXgXgXgXgXgXgXgXgXgXgXgXgXgXgXgXgXgXgXgXgXgXgXgXgXgXgXgXgXgXgXgXgXlXlXlXlXlXlXlXlXlXlXlXlXgXgXgXgXpXpXpXpXgXgXgXgXpXpX6X6XpXpXpX6X2X&X%X[.[.[.).E.E.T.c.c.k.k.k.i.k.k.c.T.T.T.R.T.T.T.T.T.T.c.c.k.i.i.t.i.i.i.i.i.i.i.i.t.u.w.w.w.w.8.8.8.7.7.8.8.8.8.q.q.8.8.8.9.9.9.9.",
"pXpXiXiXiXiX6X6X6X6XiXiXiXpXpXpXpXgXgXgXgXgXgXgXgXgXgXgXgXgXgXgXgXgXpXpXpXpXpXpXpXpXgXgXgXgXgXgXgXgXgXgXgXgXgXgXgXgXgXgXgXgXgXgXgXgXgXgXgXgXgXgXgXgXgXaXpXpXpXgXgXgXgXgXgXgXgXgXgXgXgXgXgXgXgXgXgXgXgXgXgXgXgXgXgXgXgXgXgXgXpXpXpXpXpXpXpXpXpXpXaXgXlXlXgXgXgXgXaXaXpXaXgXgXgXgXgXlXlXlXgXgXgXgXgXgXaXaXgXgXgXgXgXgXgXgXgXgXgXgXgXgXgXgXgXgXgXgXgXgXgXgXgXgXgXgXgXgXgXgXgXgXgXgXgXgXgXgXgXgXgXgXgXgXgXgXgXgXgXgXgXgXgXgXgXgXgXgXgXaXaXaXgXgXgXgXgXgXgXgXgXgXgXgXgXpXpXpXpXpXpXpX6X2X2X&X&X&X&X%X[.).E.R.T.c.c.c.i.k.k.k.c.T.T.T.T.T.T.T.T.T.c.c.k.i.i.i.i.i.i.i.i.i.i.i.t.u.w.w.w.w.8.8.8.8.7.8.q.q.q.q.q.8.8.8.9.9.9.9.",
"gXpXpXpXpXpXiXiXiXiXiXiXpXpXpXpXpXgXgXgXgXgXgXgXgXgXgXgXgXgXgXgXgXgXgXgXgXgXgXgXgXaXgXgXgXgXgXgXgXgXgXgXgXgXgXgXgXgXgXgXgXgXgXgXgXgXgXgXgXgXgXgXgXgXgXgXpXpXpXgXgXgXgXgXkXkXlXlXgXgXlXlXlXlXlXgXgXgXgXgXgXgXgXgXgXgXgXgXgXpXpXiXiXiXpXpXpXpXpXpXpXgXlXlXgXgXgXgXaXgXgXgXgXgXgXlXlXlXlXlXgXgXgXgXgXaXaXgXgXgXgXgXgXgXgXgXgXgXgXgXgXgXgXgXgXgXgXgXgXgXgXgXgXgXgXgXgXgXgXgXgXgXgXgXgXgXgXgXgXgXgXgXgXgXgXgXgXgXgXgXgXpXpXpXpXpXpXiXiXiXiXiXiXiXiXpXpXpXgXgXpXpXpXpXpXpXpXpXpXpXpXpXpXpXpX6X6X6X6X6X2X&X%X[.).E.R.R.c.c.c.c.T.T.T.T.T.T.R.T.T.c.c.c.k.i.i.i.i.i.i.i.i.i.i.i.t.u.w.w.w.w.8.7.8.-.7.8.8.8.q.q.8.q.q.q.q.q.9.9.",
"gXgXgXgXgXgXgXgXgXgXpXpXpXpXpXpXpXpXgXgXgXgXgXgXaXaXgXgXgXgXgXgXgXgXgXgXgXgXgXgXgXgXgXgXgXgXgXgXgXgXgXgXgXgXgXgXgXgXgXgXgXgXgXgXgXgXgXgXgXgXgXgXgXgXgXgXgXgXgXgXgXlXlXlXlXlXlXlXlXlXlXlXlXlXlXgXgXgXpXpXpXpXpXpXpXpXpXpXpXpXiXiXiXiXpXpXpXpXpXpXpXpXgXgXgXgXgXgXgXgXgXgXgXgXgXlXlXlXlXgXgXgXgXgXgXgXgXgXgXgXgXgXgXgXgXgXgXgXgXgXgXgXgXgXgXgXgXgXgXgXgXgXgXgXgXgXgXgXgXgXgXgXgXgXgXgXlXlXlXlXlXlXgXgXgXgXgXgXpXpXpXpXpXpXiXiXiXiX6X6X6X6XiXiXiXpXpXgXgXgXpXpXpXpXpXpXpXpXpXpXpXpXpXpXpXpXaXgXgXaXaXpX6X6X;X&X%X$X[.[.[.).E.T.T.T.R.R.R.T.T.T.c.c.k.i.i.i.i.i.t.i.i.i.i.t.t.u.w.w.w.8.8.8.-.7.6.6.8.8.q.8.8.8.q.q.8.8.8.8.",
"gXgXgXlXlXlXgXgXgXgXgXpXpXpXpXpXpXpXgXgXgXgXgXgXaXaXgXgXgXgXgXgXgXgXgXgXgXgXgXgXgXgXgXgXgXgXgXgXgXgXgXgXgXgXgXgXgXgXgXgXgXgXgXgXgXgXgXgXgXgXgXgXgXgXgXgXlXlXlXlXlXlXlXlXlXlXlXlXlXlXlXlXlXgXgXgXpXpXiXiX6X6X6XiXiXiXiXpXpXpXpXpXpXpXpXpXpXpXpXpXpXpXgXgXgXgXgXgXaXaXaXgXgXgXgXgXgXgXgXgXgXgXgXgXgXgXgXgXgXgXgXgXgXgXgXgXgXgXgXgXgXgXgXgXgXgXgXgXgXgXgXgXgXgXgXgXgXgXgXgXgXgXgXgXgXgXgXlXlXlXlXlXlXgXgXgXgXpXpXpXpXpXpXpXpXpXpXpXpXpXpXpXpXpXpXgXgXgXgXgXgXaXpXpXpXpXpXpXpX6X6X2X6X6XpXpXaXgXgXgXgXgXgXgXgXpXpX6X6X2X2X;X$X[.).~.E.E.R.R.T.T.c.c.k.i.i.i.t.t.t.t.t.i.i.t.t.u.w.w.8.1.-.-.=.=.=.6.6.6.6.6.6.6.8.6.8.8.8.8.",
"gXgXlXlXgXgXgXgXpXpXpXpXpXpXpXpXpXpXgXgXaXgXaXaXaXaXaXaXgXgXgXgXgXgXgXgXgXgXgXgXgXgXgXgXgXgXgXgXgXgXgXgXgXgXgXgXgXgXgXgXgXgXgXgXgXgXgXgXgXgXgXlXlXgXgXlXlXlXlXlXlXlXlXlXlXlXlXgXgXgXgXgXgXgXpXpXiX2X2X2X;X2X2X2X2X6XiXiXpXgXgXgXgXpXiXiXiXiXpXpXgXgXpXpXpXgXaXaXgXgXgXgXgXgXgXgXgXgXgXgXgXgXgXgXgXgXgXgXgXgXgXgXgXgXgXgXgXgXgXgXgXgXgXgXgXgXgXgXgXgXgXgXgXgXgXgXgXgXgXgXgXgXgXgXgXgXgXgXlXlXlXlXlXgXgXgXgXpXpXpXpXpXpXpXpXpXpXpXpXaXgXgXgXgXgXgXgXgXgXgXpXpXpXpX6XpXpXpX6X2X2X2X2X6XpXgXgXgXgXgXgXgXgXgXgXgXgXgXgXpXpXpX6X;X&X$X~.E.R.T.T.T.c.c.k.i.i.i.t.t.u.u.u.u.t.t.u.w.w.w.8.-.-.=.=.=.=.=.=.=.=.=.=.=.=.=.=.=.6.6.",
"gXgXgXgXgXgXgXpXpXiXiXiXiXiXpXpXpXpXgXgXgXgXgXaXaXaXaXaXaXgXgXgXgXgXgXgXgXgXgXgXgXgXgXgXgXgXgXgXgXgXgXgXgXgXgXgXgXgXgXgXgXlXlXlXlXlXlXlXlXlXlXlXlXlXlXlXlXlXlXlXlXlXlXgXgXgXgXgXpXpXpXpXpXpXiXiX6X2X2X;X;X;X;X2X2X2X2XiXpXgXgXgXgXpX6X2X2X6XpXgXgXgXgXpXpXpXpXpXpXpXpXpXgXgXgXgXgXgXgXgXgXgXgXgXgXgXgXaXpXpXpXgXgXgXgXgXgXgXgXgXgXgXgXgXgXgXgXgXgXgXgXgXgXgXgXgXgXgXgXgXgXgXgXgXgXgXkXgXgXgXgXgXgXgXgXgXgXpXpXpXpXpXpXiXiXiXpXpXpXpXpXpXgXgXpXpXpXpXpXpXiX6X6X6X6X6X6X6X6X6X2X6X6XpXgXgXgXgXaXgXaXaXgXgXgXgXgXgXgXgXaXgXaXiX2X%X[.~.R.T.T.T.c.c.k.i.i.t.t.w.w.w.u.u.u.u.w.w.w.8.-.-.=.=.=.=.=.=.=.=.=.=.=.=.=.=.=.=.=.=.",
"gXgXgXgXaXaXpXpXpXpXpXpXpXpXpXpXpXpXaXgXgXgXgXgXgXgXgXgXaXgXgXgXgXgXgXgXgXgXgXgXgXgXgXgXgXgXgXgXgXgXgXgXgXgXgXlXlXlXlXlXlXlXlXlXlXlXlXlXlXlXlXlXlXlXlXlXlXlXlXlXlXgXgXgXgXpXpXpXpXpXpXiXpXpXiXiXiXiX6X2X2X2X2X6X6X6XiXiXpXgXgXgXgXpX6X2X2X6XpXgXgXgXgXpXpXiXiXpXpXpXpXpXgXgXgXgXgXlXlXlXlXlXlXgXgXgXpXpXpXpXpXpXpXpXpXgXgXgXgXgXgXgXgXgXgXgXgXgXgXgXgXgXgXgXgXgXgXgXgXgXgXgXgXgXgXgXgXgXgXgXgXgXgXgXgXgXgXpXpXpXpXpXpXpXpXpXpXpXpXpXpXpXpXpXpXpXpXpXpXpXpXiXiX6X6X6X6X6X6X6XiXpXpXgXgXlXgXgXaXaXpXaXaXgXgXgXgXgXaXaXaXaXaXaXiX2X%X).E.R.T.T.c.k.k.i.t.t.w.w.w.w.w.w.w.w.w.w.8.-.-.-.=.=.=.=.=.=.=.=.=.=.=.=.=.=.=.=.=.=.",
"aXaXaXgXaXaXaXaXgXgXpXpXpXpXpXpXpXgXgXgXgXgXgXgXgXgXgXgXgXgXgXgXgXgXgXgXgXgXgXgXgXgXgXgXgXgXgXgXgXgXgXgXgXgXgXlXlXlXlXlXlXlXlXlXlXlXlXlXlXlXlXlXlXxXlXlXlXlXlXlXgXgXgXgXpXpXpXpXpXiXpXpXpXpXpXpXpXpXpXpXpXpXpXpXpXpXpXpXpXpXpXgXpXpXiX6X6XiXpXpXgXgXpXpXiXiXiXiXpXpXpXgXgXgXgXlXlXlXlXlXlXlXlXgXgXgXpXpXpXpXpXpXpXpXpXpXpXpXpXpXpXpXpXpXpXpXpXpXgXgXgXgXgXgXgXgXgXgXgXgXgXgXgXgXgXgXgXgXgXgXgXgXgXgXgXgXpXpXpXpXpXpXpXpXpXpXpXpXpXpXpXpXpXpXpXpXgXgXgXpXpXpXpXpXpXpXiXpXpXpXpXpXgXgXgXgXgXgXaXpXpXpXpXpXaXaXaXaXaXaXpXpXaXaXaXiX2X%X[.~.R.T.c.k.i.t.w.w.w.w.w.w.w.w.w.w.w.8.-.-.-.=.=.=.=.=.=.=.=.=.=.=.=.=.=.=.=.=.=.=.",
"aXaXgXgXaXaXaXaXgXgXgXpXpXpXpXpXgXgXgXgXgXgXgXgXgXgXgXgXgXgXgXgXgXgXgXgXgXgXgXgXgXgXgXgXgXgXgXgXlXlXlXlXlXlXlXlXlXlXlXlXlXlXlXlXlXlXlXlXlXlXlXlXxXxXlXlXlXlXlXlXgXgXgXgXpXpXpXpXpXpXpXpXpXpXpXpXpXpXpXpXpXpXpXpXpXpXpXpXpXpXpXpXpXpXpXiXiXiXpXpXpXpXpXpXpXpXpXpXpXgXgXgXgXlXlXlXlXlXlXlXlXlXlXgXgXpXpXpXpXiXpXpXpXpXpXpXpXpXpXpXpXpXpXpXpXpXpXpXpXpXpXpXgXgXgXgXgXgXgXgXgXgXgXgXgXgXgXgXaXaXaXgXgXgXpXpXpXpXpXpXpXpXpXpXpXpXpXpXpXpXpXpXpXpXpXpXgXgXgXgXpXpXpXpXpXpXpXpXpXpXpXgXgXgXgXgXgXaXpXpXpXpXpXpXpXpXpXpXpXpXpXpXpXaXaXaXiX2X%X[.~.T.T.c.k.t.w.w.w.w.w.w.w.w.w.w.w.-.-.-.-.=.=.=.=.=.=.=.=.=.=.=.=.=.=.=.=.=.=.=.",
"aXaXgXgXgXaXaXaXgXgXgXpXpXpXpXgXgXgXgXgXgXgXgXgXgXgXgXgXgXgXgXgXgXgXgXgXgXgXgXgXgXlXlXlXkXkXlXlXlXlXlXlXlXlXlXlXlXlXlXlXlXlXlXlXlXlXlXlXlXlXlXlXlXlXlXlXlXlXlXlXgXgXgXgXpXpXpXpXpXpXpXpXpXpXiXiXiXiXiXiXpXpXpXpXpXpXpXpXpXpXpXpXiXpXpXpXpXiXiX6X6XiXiXpXpXgXgXgXgXgXgXlXlXlXlXlXgXgXgXgXlXlXgXgXaXpXpXpXpXpXpXpXpXpXgXpXpXpXiXiXpXpXpXpXpXpXpXpXpXpXpXpXgXgXgXgXgXgXgXgXgXgXgXgXaXaXaXgXaXpXpXpXpXpXpXpXpXpXpXpXpXpXpXpXpXpXpXpXpXpXpXpXpXpXpXpXgXgXgXgXgXgXpXpXpXpXpXpXpXpXgXgXgXgXgXpXpXpXpXiXiXiXiXiXpXpXpXiXiXiXiXiXpXpXpXpXpXiX;X%X[.~.R.T.T.c.t.t.w.w.w.w.w.w.w.8.-.-.-.-.-.-.=.=.=.=.=.=.=.=.=.=.=.=.=.=.=.=.=.=.",
"aXaXaXaXgXgXgXgXgXgXgXgXpXpXgXgXgXgXgXgXlXlXlXgXgXgXgXgXgXlXlXlXlXlXlXlXlXlXlXlXlXlXlXlXlXlXlXlXlXlXlXlXlXlXlXlXlXlXlXlXlXlXlXlXlXlXlXlXlXlXlXxXlXlXlXlXlXlXlXlXgXgXgXpXpXpXpXpXpXpXpXiXiXiXiXiXiXiXiXiXiXpXpXpXpXpXpXpXgXgXpXpXiXiXpXpXpXiX6X2X6XiXpXpXgXgXgXgXgXlXlXlXlXgXgXgXgXgXgXgXgXgXgXgXpXpXpXpXpXpXpXpXpXgXgXgXpXpXpXpXpXpXpXpXpXpXpXpXpXpXpXgXgXgXgXgXgXgXgXgXgXgXgXgXgXgXgXgXgXpXpXpXpXpXpXpXpXpXpXpXpXpXpXpXpXpXpXpXpXpXpXpXpXpXpXpXpXpXpXpXpXpXpXpXpXpXpXpXpXpXpXpXpXpXpXpXiXiXiXiX6X6XiX6XiXiXiXiXiXiXiXiXpXpXpXiXiXiX2X;X%X[.~.E.E.^.c.i.t.w.w.w.w.w.8.8.-.-.-.-.-.-.-.=.-.=.=.=.6.6.6.=.=.=.=.=.=.=.=.=.",
"aXaXgXgXgXgXgXgXgXgXgXgXgXgXgXgXgXgXlXlXlXlXlXlXlXlXlXlXlXlXlXlXlXlXlXlXlXlXlXlXlXlXlXlXlXlXlXlXxXxXxXxXnXnXxXxXnXnXxXxXxXxXlXlXlXlXlXlXlXlXlXlXlXlXlXlXlXlXlXgXgXpXpXpXiXiXiXiXiXiX6X6X6X6X6XiXiXiXiXpXpXpXpXpXpXpXpXgXgXgXpXpXiXiXpXpXpXiXiXiXiXpXpXgXgXgXgXgXgXgXlXlXgXgXgXgXgXpXpXpXpXpXpXpXpXpXpXpXpXpXpXgXgXgXgXgXpXpXpXpXpXpXpXpXpXpXpXpXpXpXpXgXgXgXgXgXgXgXgXgXgXgXgXgXgXgXgXgXgXpXpXpXpXpXpXpXpXpXpXpXpXpXpXpXpXpXpXpXpXpXpXpXpXpXpXpXpXgXpXpXpXpXpXpXpXpXpXpXpXpXpXpX6X6X6X6X6X6X6X6X6X6X6X6X6X6X6X6X6X6X6XiXiXiXiXiXiX6X2X;X&X[.).).~.Q.^.T.t.t.y.w.w.w.8.8.-.-.-.-.-.-.-.7.-.-.7.8.8.8.6.6.6.=.=.=.6.=.=.=.",
"aXgXgXgXgXgXgXaXaXaXaXgXgXgXgXgXlXlXlXlXlXlXlXlXlXlXlXlXlXlXlXlXnXnXxXxXnXxXnXnXxXxXxXxXnXnXnXnXnXnXnXnXnXnXnXxXnXnXxXxXxXlXxXlXlXlXlXlXlXlXlXlXlXlXlXlXlXgXgXgXpXpXiXiX2X2X2X2X2X2X2X2X2X2X2X2X2X2X6XiXiXiXpXpXpXpXpXpXpXpXpXpXpXpXpXpXpXpXpXpXpXgXgXgXgXpXpXgXgXgXgXgXgXgXgXgXgXpXpXpXpXpXpXpXpXpXpXpXpXpXaXgXgXgXgXgXgXgXgXgXaXaXgXgXgXgXgXgXgXgXgXgXgXgXgXgXgXgXgXgXgXgXgXgXgXgXgXpXgXpXpXpXaXpXpXpXpXpXpXpXpXpXpXpXpXpXpXpXpXpXpXpXpXpXpXpXpXpXpXpXpXpXpXpXpXpXpXpXpXpX6X6X6X2X2X2X2X2X2X6X6X6X6X6X6X6X6X6X6X6X6XiXiXiXiX6X6X6X2X;X&X[.).[.[.).Q.^.t.t.w.w.w.w.8.8.-.-.-.-.-.1.8.8.8.8.8.8.8.8.8.8.6.6.6.6.6.6.=.=.",
"aXgXgXgXgXgXgXgXgXgXgXgXgXgXgXgXlXlXlXlXlXlXlXlXlXlXlXlXlXlXlXlXlXnXxXxXxXxXnXnXxXxXxXxXnXnXnXnXnXnXnXnXnXnXlXlXlXlXlXlXlXlXlXlXlXlXlXlXlXlXlXlXlXlXlXlXgXgXgXpXpXiXiX2X2X;X;X;X;X;X;X;X;X;X;X;X;X;X2X2X2X6XiXiXiXiXpXpXpXpXpXpXpXpXpXgXgXgXgXgXgXgXgXpXpXpXpXpXgXgXgXgXgXgXgXgXgXpXpXpXpXpXpXpXpXpXpXpXaXaXgXgXgXgXgXgXgXgXgXgXgXgXgXgXgXgXgXgXgXgXgXgXgXgXgXgXgXgXgXgXgXgXgXgXgXgXgXpXpXpXpXpXaXpXpXpXpXpXpXpXpXpXpXpXpXpXpXpXpXpXpXgXgXgXgXgXpXpXpXpXiX6X6XiXpXpXpXpXpXiX6X6X2X2X&X&X&X&X&X;X;X2X2X6X6X6X6X6XiXiXiXpXpXpXiXiXiXiXiX6X;X[.).[.$X$X~.Q.i.t.t.u.w.w.w.8.8.-.-.-.1.1.8.8.8.8.8.q.8.8.8.8.8.6.8.8.6.=.6.=.",
"gXgXgXgXgXgXgXlXlXlXlXlXlXgXlXlXlXlXlXlXlXlXlXlXlXlXlXlXlXlXlXlXlXlXlXlXlXlXlXlXlXlXlXlXlXlXxXnXnXmXnXnXnXlXlXlXlXlXlXlXlXlXlXgXlXlXlXlXkXgXgXgXgXgXgXgXgXgXpXpXpXpXiX2X2X;X;X;X;X;X;X;X;X;X;X;X;X2X2X2X6XiXiXiXiXpXpXpXpXpXpXpXpXpXpXgXgXgXgXgXgXgXgXpXpXpXpXpXgXgXgXgXgXgXgXgXgXgXpXpXpXpXpXpXpXpXgXgXgXgXgXgXgXgXgXgXgXpXpXgXaXgXgXgXgXgXgXgXgXpXgXgXgXgXgXgXgXgXgXpXpXpXpXpXpXpXpXpXpXpXpXpXaXgXgXaXaXpXpXpXpXpXpXpXpXpXpXpXgXgXgXgXlXgXgXgXpXpXiX6X6X6XiXpXpXpXpXpXpXpX6X6X2X;X&X&X%X%X%X&X&X&X&X2X2X6X6XpXpXgXgXgXgXgXpXpXpXpXpXiX;X$X[.).$X[.).~.T.i.i.t.u.w.w.w.w.w.w.w.w.w.8.9.9.8.9.9.8.8.8.8.8.8.8.8.8.1.1.=.",
"gXgXgXgXgXgXgXlXlXlXlXlXlXlXlXlXlXlXlXlXlXlXlXlXlXlXlXlXlXlXlXlXlXlXlXlXlXlXlXlXlXlXlXlXlXlXxXnXnXnXnXnXlXlXlXlXlXlXlXlXlXlXgXgXlXlXgXlXgXgXgXgXgXgXgXgXpXpXpXpXpXpXiXiX2X2X2X2X2X2X2X2X2X2X2X2X2X2X6XiXpXpXpXpXpXpXiXiX6XpXpXpXpXpXpXgXgXgXgXgXgXgXgXgXpXpXgXgXgXgXgXgXgXgXgXpXpXpXpXpXpXpXgXgXgXpXgXgXgXgXgXgXgXgXgXgXpXpXpXpXaXgXgXgXgXgXgXgXpXpXpXpXpXpXpXpXpXpXpXpXpXpXpXpXpXpXpXpXpXpXgXgXgXgXgXgXaXpXpXpXpXpXpXpXpXpXpXpXpXgXgXgXgXgXgXpXpXiXiXiXpXpXpXpXgXgXgXgXgXpXpX6X6X2X2X2X&X&X&X&X;X;X2X2X6X6XpXgXgXlXlXlXgXpXiXiXpXpXpX6X;X$X[.).).).).E.^.T.i.i.i.t.u.w.w.w.w.w.w.w.w.w.w.9.9.9.9.9.8.8.8.8.8.8.8.1.8.=.",
"gXgXgXlXlXlXlXlXlXlXlXlXlXlXlXlXlXlXlXlXlXlXlXlXlXlXlXlXlXlXlXlXlXlXlXlXlXlXlXlXlXlXlXlXlXlXlXlXlXlXlXlXkXgXgXgXgXlXlXlXlXlXlXlXgXgXgXgXgXgXgXgXpXpXgXgXpXpXpXpXpXpXiXiX6X2X2X2X2X2X6X6X6X6X6X2X2X6X6XiXpXpXpXiX6X6X2X2X6X6XpXpXpXgXgXgXgXgXgXgXgXgXgXgXgXgXgXgXgXgXgXgXgXpXpXpXpXpXpXgXgXgXgXgXgXgXgXgXaXaXaXaXgXgXaXpXpXiXpXpXpXpXgXgXgXgXpXpXpXpXpXpXpXpXpXpXpXpXpXpXpXpXpXpXpXpXpXpXpXpXgXgXgXgXgXgXgXgXpXpXpXpXpXpXpXpXpXpXpXpXpXpXpXpXpXpXpXpXpXpXpXgXgXgXgXgXgXpXpXpXpXpXpX6X6X6X6X6X6X6X6X6X6X6XpXpXpXgXgXgXlXlX6X2X2X2XiXiX6X2X%X$X).).).).~.Q.^.T.H.H.i.i.t.u.u.w.y.w.w.r.r.w.w.w.u.9.9.9.9.9.8.8.8.8.8.8.8.1.",
"kXkXlXlXlXlXlXlXlXlXlXlXlXlXlXlXlXlXlXlXlXlXlXlXlXlXlXlXlXlXlXlXlXlXlXlXlXlXlXlXlXlXlXlXlXlXlXlXlXlXgXgXgXgXgXgXlXlXlXlXlXlXlXlXlXlXgXgXgXgXgXaXgXpXpXpXpXpXpXpXpXiXiXiX6X2X2X2X2X2X6XiX6X6X6X6X2X6X6X6X6X6X6X6X2X2X2X2X6X6XpXgXgXlXlXlXgXgXgXgXgXgXgXgXgXgXgXgXgXgXgXgXpXpXpXpXpXpXgXgXgXgXgXgXgXgXgXpXpXpXpXpXpXpXpXpXiXiXpXpXpXpXpXgXgXpXpXpXpXpXpXpXpXpXpXpXpXpXpXpXpXpXpXpXpXpXpXpXpXaXaXgXgXgXgXgXgXgXgXpXpXpXpXpXpXpXpXpXpXpXpXpXpXiXiXiXpXpXpXpXgXgXgXgXgXpXpXpXpXpXpXpXpXpXpXpXpXpXpXpXpXpXpXpXpXpXpXgXgXgXgXpX6X2X2X2XiXpX6X;X%X$X).).).).~.Q.^.^.T.z.i.i.t.t.u.u.u.y.w.u.u.w.w.u.u.u.9.9.9.9.9.8.8.8.8.8.8.8.",
"gXlXlXlXlXlXlXlXlXlXlXlXlXlXlXlXlXlXlXlXlXlXlXlXlXlXlXlXlXlXlXlXlXlXlXlXlXlXlXlXlXlXlXlXlXlXgXgXgXgXpXgXgXgXgXgXlXlXlXlXkXlXgXgXgXgXgXgXgXgXgXaXpXpXpXpXpXpXiXiXiX6X6X2X2X2X2XiX6X6X6XiXiX6XiXiX6X6XpXpXpXpX6X6X6X6X6XiXpXpXgXgXlXlXlXgXgXgXgXpXpXgXgXgXgXgXgXgXgXgXgXpXpXpXpXpXpXgXgXgXgXgXgXgXgXgXpXpXpXpXpXpXpXpXiXiXiXiXpXpXpXpXpXpXpXpXpXpXpXpXpXpXpXpXpXpXpXpXpXpXpXpXpXpXpXgXgXgXgXgXgXgXgXgXgXgXgXgXgXgXpXpXpXpXiXiXiXpXpXpXpXpXiXiXiXiXiXpXpXpXgXgXgXpXpXpX6X6X6X6X6X6XpXpXpXpXpXpXpXpXpXpXpXpXpXpXpXpXpXpXpXpXiX6XiXpXgXpXiX;X%X$X).).).).~.~.Q.^.T.H.Z.i.i.t.t.t.u.u.u.r.u.u.u.u.u.u.w.9.9.9.9.9.9.9.8.q.q.8.",
"lXlXlXlXlXlXlXlXlXlXlXlXlXlXlXlXlXlXlXlXlXlXlXlXlXlXlXlXlXlXlXgXgXgXgXgXgXgXgXgXgXgXgXgXgXgXgXpXpXpXpXpXgXgXgXgXgXgXgXgXgXgXgXgXgXgXgXgXgXgXaXaXgXgXgXpXpXiXiX6X2X2X2X2X2X2XiXiXiXiXiXiXiXpXpXpXpXpXgXgXgXgXpXpXpXpXpXpXgXgXgXgXgXgXgXpXpXpXpXpXpXpXpXgXgXgXgXgXgXpXpXpXpXpXpXpXpXgXgXgXgXgXgXgXgXpXpXpXpXpXpXiXiXiXiXiXiXiXiXpXpXpXpXpXpXpXpXpXpXpXpXpXpXpXpXpXpXpXpXpXpXpXpXpXpXpXpXgXgXgXgXgXgXgXgXgXgXgXgXgXgXgXpXpXiXiXiXpXpXpXpXpXpXpXiXiXiXpXpXpXpXpXpXpXpXiX6X6X6X6X6XpXpXpXpXpXpXpXpXpXpXpXpXpXpXpXpXpXpXpXpXpXpXpXpXgXgXgXiX;X%X$X).).).).~.~.Q.^.T.H.H.Z.i.i.t.t.u.u.u.u.u.u.u.u.u.u.w.w.9.9.9.9.9.9.9.9.8.8.",
"lXlXlXlXlXlXlXlXlXlXlXlXlXlXlXlXlXlXlXlXlXlXlXlXlXlXlXlXlXlXlXgXgXgXgXgXgXgXgXgXgXgXgXgXgXpXpXpXpXpXpXgXgXlXlXlXgXgXgXpXpXiXpXpXpXpXpXpXpXgXgXgXgXgXgXgXpXiXiX6X2X2X2X2X2X6XiXiXiXiX6XiXiXpXpXpXpXpXpXpXpXpXpXpXpXpXpXpXpXpXpXpXpXpXpXpXpXpXpXpXpXpXpXpXpXpXpXpXpXpXpXpXpXpXpXpXgXgXgXgXgXgXgXgXgXpXpXpXpXpXiXiXiXiXiX6XiXiXiXpXpXpXpXpXpXpXpXpXpXpXpXpXpXpXiXiXiXiXiXiXpXpXpXpXpXpXpXpXgXgXgXgXgXgXlXlXlXgXgXgXgXgXgXpXpXiXpXpXpXpXpXpXpXpXpXpXpXpXpXpXgXgXgXpXpXpXpXpXpXpXpXpXgXgXgXpXpXpXpXpXgXgXgXgXgXgXgXgXpXpXpXpXgXgXgXgXgXpX2X%X$X).).).).).~.~.Q.^.T.T.H.i.i.i.t.t.t.t.t.u.u.u.u.u.u.u.w.9.9.9.9.9.9.9.8.8.8.8.",
"lXlXlXlXgXgXgXgXgXgXgXgXgXlXlXlXlXlXlXlXlXlXlXlXlXlXlXlXlXlXlXgXgXgXgXgXgXgXgXgXgXgXgXgXpXpXpXpXpXpXpXgXgXgXgXgXgXpXpXiXiXiXiXiXiXpXpXpXpXpXgXgXgXgXgXgXpXpXiXiX2X2X2X2X6XiXiXiXiXiXiXiX6X6X6XiX6X6X6X6X2X2X6X6X6XpXpXpXpXpXpX6X6X6XpXpXpXpXpXgXgXpXpXpXiXiXiXpXpXpXpXpXpXpXpXpXgXgXgXgXgXgXpXpXpXpXpXpXpXiXiX6X6X6XiXiXiXiXiXiXpXpXpXpXpXpXpXpXpXpXpXpXpXiXiXiXiXiXiXiXpXpXpXpXpXpXpXpXgXgXgXgXgXlXlXlXlXlXgXgXgXgXgXgXpXpXpXpXpXpXpXpXpXpXpXpXpXpXgXgXgXgXgXgXgXgXgXgXgXgXgXgXgXgXgXgXpXpXpXgXgXgXgXlXlXlXgXgXgXgXgXgXgXgXgXgXgXiX&X$X).).).).).~.~.~.Q.^.^.T.H.H.i.i.i.t.t.t.t.t.u.u.u.u.u.u.w.w.9.9.9.9.9.9.9.9.9.9.",
"xXlXlXlXgXgXgXgXpXpXpXgXgXlXlXlXlXgXgXgXgXgXgXlXlXlXlXlXlXlXlXgXgXgXpXpXpXpXpXpXpXpXpXpXpXpXpXpXpXgXgXgXgXgXgXpXpXpXiXpXpXpXpXpXpXpXpXpXpXpXpXpXgXgXgXgXpXpXiXiX6X2X2X6XiXiXiXiXiXiXiX6X2X2X2X6X6X6X6X6X6X6X6X6XpXpXgXgXgXpXpXpXpXpXpXpXpXpXpXpXpXpXpXiXiXiXiXpXpXpXpXgXgXpXgXgXgXgXgXgXgXgXpXpXpXpXpXpXpXpXiX6X6X6XiXiXiXiXiXiXiXpXpXpXpXpXpXpXpXpXpXiXpXpXpXpXpXpXpXpXpXpXpXpXpXpXpXpXgXgXgXgXgXlXlXlXlXlXlXgXgXgXgXgXgXpXpXpXpXiXiXiXiXpXpXgXgXgXgXlXlXlXlXlXlXgXgXgXgXgXgXgXgXgXgXgXgXgXgXgXgXgXgXgXgXgXgXgXgXgXgXgXgXgXgXgXpXiX;X$X[.).).).).).).~.Q.Q.^.T.T.H.H.i.i.i.i.i.t.i.u.u.u.u.u.u.u.u.u.9.9.9.9.9.9.9.8.8.",
"xXlXlXlXgXgXgXgXpXpXpXpXgXgXgXgXgXgXgXgXlXlXlXlXlXgXgXgXgXgXgXgXgXpXpXpXpXpXpXpXpXpXgXgXpXpXgXgXgXgXgXgXgXgXgXgXpXpXpXpXpXpXgXgXaXgXgXgXgXgXgXaXgXgXgXgXpXpXpXiXiX6X6X6XiXiXiXiXiX6X6X2X2X2X2X6X6X6XiXiXiXpXpXpXgXgXgXgXgXpXpXpXpXpXpXpXpXpXpXpXiX6X6X6XiXpXpXpXgXgXgXgXgXgXgXgXgXgXgXgXgXgXpXpXpXpXpXpXpXpXiXiXiXiXiXiXiXiXiXiXiXiXiXiXiXiXiXiXiXiXiXiXpXpXpXpXpXpXpXpXpXpXpXpXpXpXgXgXgXgXgXgXgXlXlXlXlXlXkXlXgXgXgXgXgXpXpXiXiX6X6XiXiXpXpXgXgXlXlXlXlXlXlXgXgXgXpXpXpXpXpXpXpXpXpXpXpXgXgXgXgXgXgXgXgXgXgXgXgXgXgXgXgXgXgXlXgXpX2X%X$X).).).).).[.$X~.Q.Q.^.T.T.H.i.i.i.i.t.i.i.u.u.u.u.u.u.u.u.u.u.9.9.9.9.9.9.9.9.",
"lXlXlXlXgXgXgXgXgXgXgXgXgXgXgXpXpXpXgXgXgXlXlXlXgXgXgXgXpXpXpXpXpXpXpXpXpXpXpXpXgXgXgXgXgXpXgXgXgXgXlXlXlXlXlXgXgXgXgXgXgXgXgXgXgXgXgXgXgXgXgXgXgXgXgXgXgXgXgXpXpXpXiXiXiXiXiXiXiXiXiX6X2X2X2X6X6X6X6XiXiXiXpXpXpXpXpXpXpXpX6X6X6XpXpXpXpX6X6X6X2X2X2X6XpXpXgXgXgXlXlXlXlXgXgXgXgXgXgXgXgXgXgXgXgXpXpXpXpXpXpXpXpXiXiXiX6X2X2X6X2X2X6X6X6X6X6X6XiXiXiXiXiXiXiXiXiXiXiXiXiXpXpXpXpXpXpXpXpXgXgXgXgXgXlXlXlXlXlXlXgXgXgXgXpXiXiX6X2X2X2XiXiXpXgXgXlXlXlXlXgXgXgXgXpXpXpXpXpXpXpXpXpXpXaXaXpXpXpXpXpXpXpXpXpXpXpXpXpXaXgXgXgXgXgXlXlXpX2X%X$X).).).).[.$X$X`.~.Q.Q.T.T.T.H.i.i.i.i.i.u.u.u.u.u.u.u.u.9.9.9.9.9.9.9.9.9.9.9.",
"lXlXlXlXlXlXlXgXgXgXgXgXgXgXpXpXpXpXpXpXgXgXlXlXgXgXgXpXiXiXiXiXiXiXpXpXpXpXpXgXgXgXgXgXgXgXgXgXgXlXlXlXlXlXlXlXlXlXlXlXgXgXgXgXgXgXgXgXgXgXgXgXgXgXgXgXlXlXlXgXgXgXpXpXpXpXpXpXiXiXiXiXiX6XiXiXpXpXiX6X6X6X6X6X6X6X6X6X6X6X6X6X6XiXpXpX6X6X6X2X2X2X2X6XpXgXgXlXlXlXlXlXlXgXgXgXgXgXgXpXpXpXpXgXpXpXiX2X2X6XiXiXpXiXiX2X2X2X2X2X2X2X2X2X2X2X2X2X6X6XiXiXiXiXiXiXiXiXiXiXiXiXiXiXiXiXpXpXpXpXgXgXgXgXgXlXlXlXlXlXgXgXgXpXpXiX6X2X2X6XiXiXpXgXgXgXlXlXlXgXgXgXgXgXgXpXpXpXpXpXpXgXgXgXgXgXgXgXgXgXgXgXgXgXgXgXgXgXgXgXgXgXgXgXgXlXgXpX2X%X$X).).).[.[.$X$X$X~.Q.Q.^.T.T.H.H.i.i.i.i.i.i.u.u.u.u.u.u.u.q.9.w.w.9.9.9.9.9.9.",
"lXlXlXlXlXlXlXlXgXgXgXgXgXgXgXpXpXpXpXgXgXgXgXgXpXpXiXiX6XiXiXiXiXpXpXpXgXgXgXgXgXgXgXgXgXgXgXgXlXlXlXlXlXlXlXlXlXlXlXlXgXgXgXgXgXgXgXgXgXgXgXgXgXgXgXgXlXlXlXlXlXgXgXpXpXpXiXiXiXiXiXiXpXpXpXpXpXpXpXiX6X6X2X2X2X2X2X2X2X2X6X6X6X6XpXpXiX6X6X6X6X6X6XpXgXgXgXlXlXlXlXlXgXgXgXpXpXpXgXpXiXiXiXpXiX6X2X;X;X;X2X2X6X2X2X2X2X2X2X2X2X2X2X2X2X2X2X6X6XiXiXiXiXiXiXiXiXiXiXiXiXiXiXiXiXiXpXpXpXpXgXgXgXgXgXlXlXlXlXlXgXgXgXpXpXiXiXiXiXiXpXpXgXgXgXgXgXgXgXgXlXlXlXlXgXgXgXgXgXgXgXlXlXlXlXlXgXgXgXgXgXgXgXgXgXgXgXgXgXgXgXgXgXgXgXgXgXpX2X%X$X).).).$X$X$X$X`.~.Q.Q.^.T.T.H.H.z.i.i.i.i.i.i.u.u.u.u.u.u.9.9.9.9.9.9.9.9.9.9.",
"lXlXlXlXlXlXlXlXlXkXlXgXiXiXiXpXpXgXgXgXgXgXpXpXiX2X2X2XiXiXiXpXpXpXgXgXgXgXlXlXlXlXlXgXgXgXgXgXlXlXlXlXlXlXlXlXlXlXlXgXgXpXpXpXpXpXpXpXpXpXpXpXpXaXgXgXgXgXlXlXgXgXpXpXiX2X2X2X2X2X2X2X6X6XiXpXpXpXpXpX6X6X6X6X6X6X6X6X6X6X6X6X6XpXpXpXpXpXpXpXpXpXgXgXgXgXgXgXgXgXgXgXgXpXpXpXpXpXgXpXiXiXiX6X2X2X;X&X%X&X;X;X2X2X2X2X2X2X2X2X2X2X2X2X2X2XiXiXiXiXiXpXpXpXpXpXpXpXpXpXpXpXpXpXpXpXpXpXpXpXpXgXgXgXgXgXlXlXlXgXgXgXgXgXpXpXpXpXpXpXgXgXgXgXgXgXgXgXgXlXlXlXlXlXlXlXlXgXgXgXlXlXlXlXlXlXgXgXgXgXgXgXgXgXgXgXgXgXgXgXgXgXgXgXgXgXpXiX2X%X$X$X$X$X%X$X$X$X$X`.~.Q.Q.^.T.T.T.H.i.i.i.i.i.i.u.u.u.u.u.u.9.9.9.9.w.9.9.9.9.9.",
"lXlXlXlXlXgXgXgXgXgXgXpXpXpXpXgXgXgXgXpXiX6X2X3X2X2X2X6XpXpXpXpXgXgXlXlXlXlXlXlXlXlXgXgXgXgXgXkXlXlXlXlXlXlXlXgXgXgXgXpXpXpXpXpXpXpXpXpXpXpXpXpXpXpXpXpXpXpXpXpXpXiX6X2X;X&X%X%X%X%X%X%X&X;X2X2X6X6XiXiXiXiX6XpXpXpXpXpXpXpXpXpXpXpXpXpXpXpXgXgXgXaXgXgXgXgXgXgXgXgXpXpXpXpXpXpXpXpXgXpXpXiXiX2X2X3X;X;X;X;X&X;X;X2X2X6XiXiXiXiXiXiXiX6X6XiXiXiXpXpXpXpXpXpXpXpXpXpXiXpXpXiXiXiXiXiXiXiXiXpXpXgXgXgXgXgXgXgXgXgXgXgXgXgXgXgXgXgXgXgXgXgXgXgXgXgXgXgXgXlXlXxXxXlXlXlXgXgXgXgXgXgXgXgXgXgXpXpXpXpXpXpXpXpXpXpXpXpXpXpXpXpXpXgXgXgXpX6X;X%X%X%X%X&X&X%X&X%X$X$X~.~.Q.Q.^.T.T.H.i.i.i.i.i.u.u.u.u.u.u.u.u.w.9.9.9.9.9.9.9.9.",
"lXlXlXlXgXgXgXgXgXpXpXpXpXgXgXgXgXpXiX2X;X%X%X%X2XiXpXpXpXgXgXgXgXgXlXlXlXlXlXlXlXgXgXgXgXgXgXgXgXlXlXlXlXlXgXgXgXgXpXpXpXpXiXiXiXiXpXpXpXpXpXpXpXiXiXiXiXiXiX2X2X2X;X%X%X$X$X$X$X).[.%X&X2X2X6X6X6XpXpXpXpXpXpXpXpXaXpXaXpXpXpXpXpXpXgXgXgXgXgXgXpXpXpXpXpXpXpXpXpXpXpXpXpXpXpXpXgXgXgXpXpXiX2X2X3X;X;X;X;X;X;X2X2XiXpXpXpXpXpXpXpXpXpXpXpXpXpXpXpXpXpXpXiXiXiXiXiXiXiXiXiXiXiXiXiXiXiXpXpXgXgXgXgXgXgXlXlXlXlXlXlXgXgXlXlXlXlXgXgXgXgXgXpXpXpXpXgXgXgXlXlXlXlXgXgXgXgXgXpXpXpXpXpXpXpX6X6X6X6X6X6XiXiX6X6XiXiXiXiXpXpXpXgXgXpXpX6X;X%X%X&X&X2X;X;X&X&X%X$X`.~.Q.Q.^.T.T.H.H.i.i.i.i.i.u.u.u.u.u.u.u.w.9.9.9.9.9.9.9.9.",
"lXlXlXlXgXgXgXgXpXpXpXpXpXpXpXpXpXpXiXpXpXpXpXpXpXpXgXgXgXgXgXgXgXgXgXgXgXgXgXgXgXgXgXgXgXgXgXgXgXgXgXgXgXgXgXgXpXpXpXpXpXiXiX6X6XiXpXpXpXpXpXpXiXiXiXiXiX2X2X;X%X$X[.$X$X$X%X%X%X2X2X2X6X6X6XiXpXpXpXpXpXpXpXpXpXpXpX6XiXiXiXiX6XpXpXpXgXgXgXgXgXpXpXpXpXpXpXpXpXpXpXpXpXpXpXgXaXaXgXgXgXpXiX2X2X2X2X2X2X2X2X6XiXpXpXpXpXpXgXpXgXgXaXaXpXpXpXpXpXpXiXiXiXiXiXiXiXiXiXiXiXiXiXiXiXpXpXpXgXgXgXgXgXgXgXlXlXlXlXlXlXlXlXlXlXlXlXlXgXgXgXgXgXpXpXpXpXpXgXgXgXgXgXgXpXpXpXpXpXpXpXpXpXpXpXiX2X2X2X2X6XiXiXiXiXiXpXpXpXpXpXpXpXgXpX6X6X2X&X&X&X;X2X6X6X6X;X&X$X$X~.~.Q.^.T.T.H.H.H.i.i.i.i.i.i.u.u.u.u.u.u.u.u.u.u.9.w.w.w.9.",
"gXgXgXgXgXgXgXgXgXpXpXpXpXgXgXgXgXgXgXgXgXpXaXgXgXgXgXgXgXgXpXpXpXiXiXpXpXpXpXpXpXpXpXpXpXpXpXgXgXgXgXgXgXgXgXgXgXpXpXpXpXpXiX2X2XiXpXpXiXiXiX6X2X2X2X2X2X;X;X%X%X$X).[.%X%X&X;X2X2X6X6X6X6X6X6X6X6XpXpXpXpX6X6X6X2X2X&X&X&X2X2X2X6X6XpXpXgXgXgXgXgXgXpXpXpXpXpXpXpXpXgXgXgXgXgXgXgXgXgXgXpXpXiXiX6X6X6XiXiXiXpXpXpXgXgXpXgXaXgXgXgXgXgXgXgXpXpXpXpXiXiXiXiXpXiXiXiXpXpXpXpXpXpXpXpXpXpXpXgXgXgXgXgXgXgXgXgXlXlXlXlXlXlXlXlXlXgXgXgXgXgXgXgXgXgXgXgXgXgXgXpXpXpXpXpXpXpXpXiXpXiXiXiX6X2X2X2X2X2XiXiXpXpXpXpXgXgXgXlXgXgXpXpX6X;X&X&X&X;X2X6X6X6X6X6X;X&X$X~.~.Q.Q.Q.T.T.H.H.H.i.i.i.i.i.u.u.u.u.u.u.u.u.u.u.u.9.w.w.w.9.",
"pXpXgXgXgXgXgXgXgXgXgXgXgXgXgXgXlXlXlXgXgXgXgXgXgXgXlXgXgXpXpXiXiX2X6XiXiXpXpXpXpXpXpXpXaXgXgXgXgXgXgXgXgXgXgXpXpXpXpXpXpXiX2X2X2X2X2X2X2X;X;X;X;X;X&X&X%X%X&X;X;X&X%X&X;X;X2X2X2X2X6XiX6X6X2X2X2X2X2X2X2X2X2X;X&X%X%X%X%X%X&X2X2X6X6XpXpXgXgXgXgXgXgXgXpXpXpXpXpXpXpXpXgXgXgXgXgXgXgXgXgXgXgXpXpXpXpXpXpXpXpXgXgXgXgXgXaXgXgXgXgXgXgXgXgXgXgXpXpXpXpXpXpXpXgXpXpXpXpXpXpXpXpXpXpXpXpXpXpXgXgXgXgXgXgXgXgXgXlXlXlXlXlXlXlXlXlXlXlXlXlXlXlXlXlXlXlXlXkXgXgXgXgXgXgXgXgXgXgXgXgXgXpXpXpXpXpXpXpXgXgXgXlXgXgXlXxXlXnXnXlXgXiX2X&X[.[.%X&X6X6X6X6X6X6X2X&X$X[.~.~.Q.Q.Q.^.T.T.H.H.i.i.i.i.u.u.u.u.u.u.u.u.u.u.y.u.9.w.w.w.9.",
"pXgXgXgXlXlXlXlXlXlXlXgXpXpXgXgXgXlXgXgXgXgXpXgXgXgXgXgXgXgXpXiXiX6X6XiXiXpXpXpXgXgXgXgXgXgXgXgXgXgXgXgXgXpXpXpXpXpXpXiXiX6X2X2X2X2X3X;X;X&X%X%X%X%X%X%X%X%X3X2XiXiX6X2X2X6XiXiXiXiXiXiXpXpX6X2X2X;X;X2X2X2X2X&X&X&X%X&X&X2X2X6XpXpXpXgXgXgXgXgXgXgXgXgXpXpXpXpXpXpXpXpXpXpXgXgXgXgXgXgXgXgXgXgXgXgXgXgXgXgXgXpXpXpXpXpXpXpXgXgXgXgXgXgXgXgXgXgXpXpXpXpXpXgXgXgXgXgXgXgXgXaXpXpXpXaXaXgXgXgXgXgXgXgXgXgXlXlXlXlXlXlXlXlXxXnXnXnXnXlXxXxXlXlXlXlXlXlXlXlXlXlXgXgXgXlXlXlXlXlXxXlXlXlXlXlXgXlXlXlXlXlXxXlXlXxXnXxXxXnXlXpX;X%X[.).}.%X2X6X7X6X6X6X2X&X%X$X~.~.Q.Q.Q.W.T.T.T.H.Z.Z.i.i.i.u.u.u.u.u.u.u.u.u.u.y.u.9.w.w.w.9."
};
