/* XPM */
static char *a1cecd4696274717931b4aa1520e951fC80BaDZZ16Me7mc6[] = {
/* columns rows colors chars-per-pixel */
"300 300 256 2 ",
"   c #0D0E15",
".  c #0E1319",
"X  c #12151C",
"o  c #161719",
"O  c #12100D",
"+  c #24180F",
"@  c #141622",
"#  c #141A23",
"$  c #191A24",
"%  c #1A1C2B",
"&  c #17192A",
"*  c #11192A",
"=  c #261B2B",
"-  c #1C2229",
";  c #1D2435",
":  c #23272C",
">  c #252B33",
",  c #292D35",
"<  c #252B3C",
"1  c #2B2D3B",
"2  c #232537",
"3  c #2D333B",
"4  c #2C3438",
"5  c #32353D",
"6  c #333A3D",
"7  c #332F32",
"8  c #2A2717",
"9  c #565034",
"0  c #282D43",
"q  c #2C3343",
"w  c #2C3549",
"e  c #333642",
"r  c #353A43",
"t  c #3A3C45",
"y  c #353C4B",
"u  c #3A3E4A",
"i  c #363548",
"p  c #363D53",
"a  c #332E45",
"s  c #453C4C",
"d  c #3C424C",
"f  c #3B4447",
"g  c #3C4453",
"h  c #3B4559",
"j  c #3F4C61",
"k  c #41444D",
"l  c #43494B",
"z  c #424552",
"x  c #444A54",
"c  c #474C59",
"v  c #4C535C",
"b  c #4B5658",
"n  c #52595D",
"m  c #574C52",
"M  c #6E6F54",
"N  c #4C5565",
"B  c #545C64",
"V  c #545B68",
"C  c #4E546B",
"Z  c #5A6569",
"A  c #5C6676",
"S  c #4F6363",
"D  c #636B76",
"F  c #6C7C7E",
"G  c #677477",
"H  c #737B7C",
"J  c #666D6C",
"K  c #675563",
"L  c #413828",
"P  c #8F7245",
"I  c #7C8276",
"U  c #999B68",
"Y  c #919472",
"T  c #9DA378",
"R  c #9CA26C",
"E  c #A4A877",
"W  c #ABAB6F",
"Q  c #A09456",
"!  c #A68739",
"~  c #6B7686",
"^  c #727B86",
"/  c #6E758C",
"(  c #5F6B82",
")  c #97768A",
"_  c #7B8B8D",
"`  c #768587",
"'  c #7B8895",
"]  c #77898B",
"[  c #6C96B6",
"{  c #739DBC",
"}  c #789AB8",
"|  c #718FAB",
" . c #78A1BE",
".. c #7CA4C3",
"X. c #78A3C3",
"o. c #789FC1",
"O. c #828B8C",
"+. c #828C95",
"@. c #839295",
"#. c #84959A",
"$. c #8B9B9D",
"%. c #899798",
"&. c #939C9A",
"*. c #8E968A",
"=. c #99A49A",
"-. c #9FA781",
";. c #A4AB88",
":. c #AAB288",
">. c #A5AC97",
",. c #ABB39C",
"<. c #A9B195",
"1. c #B2B995",
"2. c #8C9DA2",
"3. c #8896AA",
"4. c #929DA4",
"5. c #8C9DB2",
"6. c #879CB4",
"7. c #939DB4",
"8. c #848DA4",
"9. c #8EA1A4",
"0. c #8FA1A8",
"q. c #92A2A5",
"w. c #93A5AB",
"e. c #99A6AB",
"r. c #96A9AD",
"t. c #9CABAD",
"y. c #9AA6A6",
"u. c #8AA2BA",
"i. c #9DADB2",
"p. c #94A5BB",
"a. c #9BAABD",
"s. c #97A6B7",
"d. c #9EB0B4",
"f. c #9FB3B8",
"g. c #A3AEAE",
"h. c #A5ADA4",
"j. c #A7B2A6",
"k. c #AAB3A4",
"l. c #A7B1AB",
"z. c #A9B3AC",
"x. c #AEB9AB",
"c. c #B2BBAC",
"v. c #B1B9A7",
"b. c #A1AEB2",
"n. c #A2ABBB",
"m. c #A5B2B2",
"M. c #AAB4B4",
"N. c #A4B3BA",
"B. c #AAB6BB",
"V. c #ABBABB",
"C. c #ADB9B3",
"Z. c #B3BDB4",
"A. c #B2BDBC",
"S. c #B8BFBD",
"D. c #A7899A",
"F. c #B6C2AD",
"G. c #B6C1B5",
"H. c #BBC6BB",
"J. c #BAC5B9",
"K. c #AFC0BC",
"L. c #C1CCBC",
"P. c #C4D0BE",
"I. c #82A5C4",
"U. c #83A9C6",
"Y. c #85ABC9",
"T. c #8BADCC",
"R. c #88A8C6",
"E. c #9BACC3",
"W. c #92ADCB",
"Q. c #97ABC6",
"!. c #8DB1CE",
"~. c #87B0CB",
"^. c #93B2CE",
"/. c #9CB3CD",
"(. c #9DB1C5",
"). c #8EB1D0",
"_. c #94B4D2",
"`. c #9BB5D3",
"'. c #9CB9D5",
"]. c #9DBAD9",
"[. c #97B8D5",
"{. c #8FAED0",
"}. c #A2ADC4",
"|. c #A3ACC7",
" X c #A3B2C6",
".X c #ADBBC2",
"XX c #A4B4CB",
"oX c #A9B6CC",
"OX c #A6B9CD",
"+X c #ABBACE",
"@X c #A9B5C5",
"#X c #B1BDC3",
"$X c #B2BECA",
"%X c #A3B6D2",
"&X c #A3BAD5",
"*X c #ACBCD4",
"=X c #A3BCDA",
"-X c #ABBEDB",
";X c #AAB6D1",
":X c #B1BDD5",
">X c #B3BED9",
",X c #B9BED8",
"<X c #839FC5",
"1X c #B4C1C4",
"2X c #B4C3CB",
"3X c #BBC7C8",
"4X c #AEC0D5",
"5X c #ACC1DD",
"6X c #A7C1DB",
"7X c #B3C2D6",
"8X c #BAC5D4",
"9X c #B5C4DC",
"0X c #B9C6DD",
"qX c #BAC9DE",
"wX c #B9C9D8",
"eX c #B1C3CC",
"rX c #ADC3E0",
"tX c #B3C5E1",
"yX c #BAC7E0",
"uX c #B5C9E2",
"iX c #BDCCE3",
"pX c #BECEE8",
"aX c #B6CDE8",
"sX c #BFD0E5",
"dX c #BDD2EA",
"fX c #C2CDC5",
"gX c #C2CDDC",
"hX c #C1CBD6",
"jX c #C6D3DA",
"kX c #C7D3CA",
"lX c #C2CDE6",
"zX c #C6CFE7",
"xX c #C2CEE5",
"cX c #C5CEE8",
"vX c #C4CFE8",
"bX c #C3C7E2",
"nX c #C6D1E7",
"mX c #C3D1E6",
"MX c #C9D4E6",
"NX c #C7D1E9",
"BX c #C6D2EA",
"VX c #C5D2EA",
"CX c #C9D3E9",
"ZX c #C8D2E8",
"AX c #C8D2EA",
"SX c #C9D3EB",
"DX c #CAD2EA",
"FX c #CAD4EA",
"GX c #CCD6EA",
"HX c #C9D4EA",
"JX c #CDD9ED",
"KX c #C5D8ED",
"LX c #CDD9F1",
"PX c #C8D8F1",
"IX c #D0DAF0",
"UX c #D1DAED",
/* pixels */
"GXGXFXFXFXGXFXFXFXCXCXCXCXFXFXGXGXGXGXGXGXFXFXCXCXCXnXnXnXCXCXCXCXCXnXCXCXCXCXCXCXCXCXCXnXnXzXnXnXnXnXnXnXnXnXnXnXnXnXnXnXnXnXnXnXZXZXZXZXCXCXCXCXFXFXGXFXCXCXCXCXCXCXCXCXCXCXCXCXCXCXCXCXCXSXSXSXSXSXCXCXnXnXnXnXCXCXCXCXCXCXCXCXCXCXCXCXCXCXCXCXCXCXCXCXCXCXCXCXCXCXCXCXBXBXzXzXzXzXzXzXBXBXBXBXBXBXCXCXCXCXCXCXBXBXBXBXBXBXBXCXCXCXBXBXzXzXBXBXBXBXCXBXzXzXzXzXzXxXzXzXzXzXzXzXvXvXxXxXlXbXlXlXbXbXxXvXzXCXDXHXHXCXCXCXCXFXFXBXBXBXBXBXmXmXBXBXBXBXBXBXHXHXHXHXBXBXBXBXBXBXBXBXCXCXCXCXBXBXCXCXCXBXCXBXBXBXCXCXCXCXCXBXBXBXSXSXSXSXSXSXBXBXBXBXBXBXBXBXFXFXHXHXHXHXBXBXBXBXBXBXFXFXFXFXBXBXBXBXCXCXCXCXCXCXCXCXCXCXCX",
"GXGXFXFXFXGXGXGXGXGXGXGXGXGXGXGXGXGXGXGXGXFXFXCXCXCXCXCXCXFXFXFXFXCXCXCXCXCXCXCXCXFXFXFXCXCXnXCXCXCXCXFXFXMXMXMXMXMXMXMXMXFXMXMXMXGXGXMXMXFXFXCXCXGXGXGXFXCXCXCXCXCXCXCXCXCXCXCXCXCXCXCXCXCXSXSXSXSXSXSXCXCXCXCXCXCXCXCXCXCXCXCXCXCXCXCXCXCXCXCXCXCXCXCXCXCXCXCXCXCXCXCXCXBXBXzXzXBXBXBXBXBXBXBXBXBXBXCXCXCXCXBXBXBXBXBXBXBXBXBXCXCXCXCXCXCXCXGXGXGXGXGXHXCXBXBXzXBXzXBXBXBXBXCXCXSXSXSXSXBXBXvXvXBXBXSXSXCXCXCXDXCXCXCXCXCXCXFXBXBXnXnXnXBXBXBXHXHXHXHXHXHXHXHXHXHXHXHXHXHXHXHXFXCXCXCXCXCXCXSXSXSXCXCXCXCXCXCXCXCXCXCXCXBXBXSXSXSXSXSXSXBXBXBXBXBXBXBXBXFXFXFXFXHXHXBXBXBXBXBXBXBXBXBXBXBXBXBXBXCXCXCXCXCXCXCXCXCXCXCX",
"GXGXGXGXGXGXGXGXGXGXGXGXGXGXGXGXGXGXFXFXFXFXFXFXFXGXGXGXGXGXGXGXGXGXFXFXCXCXCXFXFXGXGXGXGXFXFXGXGXGXGXGXGXGXGXGXGXGXGXGXGXGXGXGXGXGXGXGXGXGXGXGXGXGXGXGXFXCXCXCXCXCXCXCXCXCXCXCXCXCXCXCXCXCXCXHXHXHXHXHXSXGXGXGXGXFXFXFXFXFXFXFXFXCXCXCXCXCXCXCXCXCXCXCXCXCXCXCXCXCXCXnXnXBXBXzXzXzXzXzXzXzXzXzXzXBXBXBXCXCXBXCXCXBXBXBXBXBXBXBXCXCXCXCXCXCXCXGXGXGXGXGXHXCXCXCXCXCXCXCXCXCXCXCXCXSXSXSXSXCXBXBXBXBXBXBXBXCXCXCXCXCXCXCXCXCXCXCXCXCXCXCXCXCXCXCXBXBXBXBXBXFXFXFXHXHXHXHXFXCXCXCXCXCXCXCXCXCXCXSXCXCXSXCXCXCXCXCXCXCXCXCXSXSXSXSXSXSXSXSXSXBXBXBXBXBXBXBXBXFXFXFXFXHXHXBXBXBXBXBXBXBXBXBXBXBXBXBXBXCXCXCXCXCXCXCXCXCXCXCX",
"GXGXGXGXGXGXGXGXGXGXGXGXGXGXGXGXGXGXFXFXFXFXFXFXFXGXGXGXGXGXGXGXGXGXGXGXFXFXFXFXFXGXGXGXGXGXGXGXGXGXGXGXGXGXGXGXGXGXGXGXGXGXGXGXGXGXGXGXGXJXJXJXJXGXGXGXFXCXCXCXCXCXCXCXCXBXCXCXCXCXCXCXCXCXCXCXCXHXHXGXGXGXGXGXGXGXFXFXFXFXFXFXFXCXCXCXCXCXCXCXCXCXCXCXZXZXCXCXCXCXCXnXnXBXBXzXzXzXzXzXzXzXzXzXzXzXzXBXBXBXBXCXBXBXBXBXBXBXBXBXCXCXBXBXBXBXBXBXBXBXBXCXCXCXCXCXCXCXCXCXCXCXCXCXCXSXSXSXvXCXBXBXBXBXBXBXBXCXCXCXCXCXCXCXCXCXCXCXCXCXCXCXCXCXCXCXBXBXBXBXBXFXFXFXHXHXHXHXFXCXCXCXCXCXCXCXCXCXCXCXCXCXCXCXCXCXCXCXCXCXCXCXSXSXSXSXSXSXSXSXSXBXBXBXBXBXBXBXBXFXFXFXFXFXFXBXBXBXBXBXBXBXBXBXBXBXBXBXBXCXCXCXCXCXCXCXCXCXCXCX",
"GXGXGXGXGXGXGXGXGXGXGXGXGXGXGXGXFXFXFXFXFXFXFXGXGXGXGXGXGXGXGXGXGXGXGXGXGXGXGXGXGXGXGXGXGXGXGXGXGXGXGXGXGXGXGXGXGXGXGXGXGXGXGXGXGXFXFXGXGXGXJXJXJXGXGXFXCXCXCXCXCXCXCXCXCXCXCXCXCXCXCXCXCXCXCXBXBXBXBXSXSXCXCXHXHXHXHXHXHXCXCXCXCXCXCXCXCXCXCXCXCXnXnXnXnXnXnXnXnXBXBXzXzXzXzXzXzXvXvXvXvXvXvXvXvXvXvXvXvXvXvXCXSXCXCXCXCXBXBXBXvXvXvXvXBXzXzXzXvXvXzXCXCXCXBXBXBXCXCXCXCXCXCXCXCXCXCXCXCXBXBXnXnXCXCXCXCXCXCXFXFXGXGXGXGXGXGXFXMXMXMXMXMXMXMXMXMXMXMXMXMXMXMXMXMXCXCXCXCXCXCXCXCXCXCXCXCXCXCXCXCXCXCXCXCXCXCXCXCXCXCXCXCXCXCXCXCXCXCXCXCXBXBXBXBXBXBXBXBXCXCXCXCXCXCXCXCXCXCXCXCXCXCXCXCXBXBXBXBXBXBXBXBXBXBXBXBXBXBXBX",
"GXGXGXGXGXGXGXGXGXGXGXGXGXGXGXGXFXFXFXFXFXFXFXFXFXGXGXGXGXGXGXGXGXGXGXGXGXGXGXGXGXGXGXGXGXGXGXGXGXFXFXFXFXGXGXGXGXGXGXGXGXMXMXMXGXFXGXGXGXGXJXJXJXGXFXCXCXCXCXCXCXCXCXCXCXCXCXCXCXCXCXCXzXBXzXzXzXxXxXvXvXzXzXBXBXBXBXBXBXBXBXBXBXCXCXCXCXCXCXCXCXnXnXnXnXnXnXnXnXBXBXzXzXzXzXzXzXvXvXvXvXvXvXvXvXxXzXvXvXvXvXvXvXCXCXCXCXBXBXBXvXBXvXvXBXBXBXBXBXBXBXBXBXBXBXBXBXCXCXCXCXCXCXCXCXCXCXCXCXBXCXCXCXCXCXCXCXCXCXFXFXGXGXGXGXGXGXFXMXMXMXMXMXMXMXMXMXMXMXMXMXMXMXMXMXCXCXCXCXCXCXCXCXCXCXCXCXCXCXCXCXCXCXCXCXCXCXCXCXCXCXCXCXCXCXCXCXCXCXCXCXBXBXBXBXBXBXBXBXCXCXCXCXCXCXCXCXCXCXCXCXCXCXCXCXBXBXBXBXBXBXBXBXBXBXBXBXBXBXBX",
"GXGXGXGXGXGXGXGXGXGXGXGXGXGXGXGXFXFXMXMXMXFXFXFXFXGXGXGXGXFXFXFXFXGXGXGXGXGXGXGXGXGXGXGXGXGXGXGXGXFXFXFXFXGXGXGXGXGXGXGXGXMXMXMXFXFXGXGXGXGXJXJXGXGXFXCXCXCXCXCXCXCXCXCXCXBXCXBXBXBXBXBXzXBXzXzXxXvXxXxXlXlXlXxXxXzXzXzXzXzXzXzXzXBXBXCXCXnXnXnXnXnXnXnXnXnXnXnXnXzXzXzXzXzXzXxXxXxXzXzXzXxXxXxXxXxXxXxXvXvXvXvXvXvXvXvXvXvXvXvXvXBXBXBXBXBXBXBXBXBXBXBXBXBXBXBXBXCXCXCXCXCXCXCXCXCXCXCXCXCXCXCXCXCXCXCXCXFXFXFXFXGXGXFXFXFXFXFXFXFXFXFXFXCXCXCXCXCXCXCXCXCXCXCXCXCXCXCXCXCXCXCXCXCXCXCXCXCXCXCXCXCXCXCXCXCXCXCXCXCXCXCXCXCXCXCXCXCXCXCXCXCXCXCXCXCXCXCXCXCXCXCXCXCXCXCXCXCXCXCXCXCXCXCXCXBXBXBXBXBXBXBXBXBXBXBXBXBXBXBX",
"FXFXMXFXFXMXMXMXMXMXMXMXMXMXMXMXMXMXMXMXMXFXFXFXFXGXGXGXGXFXFXFXFXGXGXGXGXGXGXGXGXGXGXGXGXGXFXFXFXFXFXFXFXFXFXFXFXGXGXGXGXMXMXMXFXFXGXGXGXGXJXGXGXGXFXCXCXCXCXCXCXCXCXCXCXCXCXCXBXBXzXzXzXzXzXxXxXxXlXlXlXlXlXlXbXxXxXxXxXxXxXzXzXzXBXCXCXnXnXnXnXnXnXnXnXnXnXnXnXzXzXzXzXzXzXxXxXzXzXxXxXxXxXzXxXxXxXxXzXvXvXvXvXvXvXvXvXvXvXBXBXSXSXSXSXBXBXBXBXBXBXBXBXCXCXCXCXCXCXCXCXCXCXCXCXCXCXCXCXHXHXFXFXHXHXFXFXFXFXFXCXGXGXFXFXFXFXFXFXFXFXFXFXCXCXCXCXCXCXCXCXCXCXCXCXCXCXCXCXCXCXCXCXCXCXCXCXCXCXCXCXCXCXCXCXCXCXCXBXCXCXCXCXCXCXCXCXCXCXCXCXCXCXCXCXCXCXCXCXCXCXCXBXCXCXCXCXCXCXCXCXCXCXCXCXBXBXBXBXBXBXBXBXBXBXBXBXBXBXBX",
"CXCXCXCXCXCXCXZXCXCXCXCXCXCXCXCXCXCXCXCXCXFXFXGXGXGXGXGXGXGXGXGXGXGXGXGXFXFXFXFXFXGXGXGXFXFXFXFXFXFXFXFXFXFXFXFXFXFXFXFXFXFXFXFXFXFXGXGXGXJXJXJXJXGXHXHXHXHXHXGXSXCXCXCXCXCXCXCXBXvXvXvXvXvXvXvXxXlXlXlXlXlXlXlXlXlXlXbXbXbXbXxXxXzXzXzXzXBXBXBXBXBXBXBXBXBXBXBXBXBXBXzXzXvXvXvXvXvXvXvXvXvXvXvXvXvXvXvXvXvXvXvXvXcXSXSXSXBXBXBXBXSXSXCXCXCXBXzXzXBXBXCXCXCXCXCXCXCXCXCXCXCXCXCXCXCXCXCXCXCXCXFXFXFXFXFXFXCXCXCXCXCXCXCXCXCXCXCXCXCXCXCXCXCXCXCXCXCXCXCXCXCXCXCXCXCXCXCXCXCXCXCXCXCXCXCXCXFXFXFXFXFXFXFXFXCXCXCXSXSXCXCXCXSXSXSXSXCXCXCXCXCXCXCXCXCXCXCXCXCXCXCXCXCXCXCXCXCXCXSXSXSXSXSXCXCXCXCXCXCXCXCXCXCXCXCXCXCXCXCX",
"nXnXnXnXnXnXnXnXnXnXnXnXnXnXnXnXnXCXCXCXCXCXCXFXFXGXGXGXGXFXFXFXFXFXFXFXFXFXFXFXFXGXGXGXFXFXCXCXCXFXFXFXFXCXCXCXCXFXFXFXFXFXFXFXFXFXFXGXGXGXGXJXGXGXSXSXCXCXCXHXCXCXCXCXCXBXBXBXzXvXvXvXvXvXvXvXxXlXlXlXlXlXlXlXiXiXyXqXqXbXbXbXbXbXxXzXzXzXzXBXBXBXBXBXBXBXBXBXBXBXBXzXzXvXvXvXvXvXvXvXvXvXvXvXvXvXvXvXvXvXvXvXvXcXSXCXSXvXvXvXvXBXCXCXBXzXzXzXzXzXzXBXBXBXBXCXCXBXBXCXCXCXCXCXCXCXSXCXCXCXCXCXCXCXCXCXCXCXCXCXCXCXCXCXCXCXCXCXCXCXCXCXCXCXCXCXCXCXCXCXCXCXCXCXCXCXCXCXCXCXCXCXCXCXCXCXCXFXFXFXFXFXFXFXFXCXCXCXSXSXCXCXCXCXSXSXSXSXCXCXCXCXCXCXCXCXCXCXCXCXCXCXCXCXCXCXCXCXCXSXSXSXSXSXCXCXCXCXCXCXCXCXCXCXCXCXCXCXCXCX",
"nXnXnXnXnXnXnXnXnXCXCXCXnXnXnXnXnXCXCXCXCXCXCXCXCXCXCXCXCXCXCXCXCXCXCXCXCXFXFXFXFXGXGXGXFXFXCXCXCXFXFXFXFXCXCXCXCXFXFXFXFXFXFXFXFXFXFXFXFXFXFXFXFXHXHXHXFXFXBXBXBXFXBXBXBXBXzXzXzXvXvXvXvXvXvXvXxXxXlXlXlXlXlXlXyXyX0X0X0XqXqXqXqXiXbXbXxXzXzXzXBXBXBXBXBXBXBXBXBXBXBXzXzXvXvXvXvXvXvXvXvXvXvXvXvXvXvXvXvXvXvXvXvXcXBXCXvXvXvXvXvXvXvXvXvXzXzXBXBXBXBXBXBXzXBXBXBXzXzXBXBXCXCXCXSXSXSXSXCXCXCXCXCXCXCXCXCXCXCXCXCXCXCXCXCXCXCXCXCXCXCXCXCXCXCXCXCXCXCXCXCXCXCXCXCXCXCXCXCXCXCXCXCXCXCXCXCXFXFXFXFXFXFXFXFXCXSXSXSXCXCXCXSXSXSXSXSXSXSXSXCXCXSXSXCXCXSXSXCXCXCXCXCXCXCXCXCXCXCXCXCXCXSXCXCXCXCXCXCXCXCXCXCXCXCXCXCXCXCXCX",
"xXxXnXBXBXnXnXnXnXCXCXCXnXnXnXnXnXCXCXCXCXCXCXCXCXCXCXCXCXCXCXCXCXCXCXCXCXCXCXFXFXFXFXGXFXFXCXCXCXFXFXFXFXCXCXCXCXFXFXFXFXFXFXFXFXFXFXFXFXFXFXFXBXFXFXFXBXBXnXBXBXBXBXBXnXzXzXzXzXvXvXvXzXxXvXvXxXxXlXlXlXlXlXyXyX0X9X9X9X0X0XqX0XqXiXbXxXxXzXzXzXzXzXBXBXzXzXzXzXzXzXzXzXvXvXvXvXzXzXzXvXvXvXvXvXvXvXvXvXvXvXvXvXcXBXCXvXvXxXvXxXvXvXvXvXzXzXBXBXBXBXBXzXzXzXzXzXzXzXzXBXBXCXCXSXSXSXSXCXCXCXCXCXCXCXCXCXCXCXCXCXCXCXCXCXCXCXCXCXCXCXCXCXCXCXCXCXCXCXCXCXCXCXCXCXCXCXCXCXCXCXCXCXCXCXCXCXFXFXFXFXFXFXFXFXCXSXSXSXCXCXCXSXSXSXSXSXSXSXSXCXCXSXSXCXCXSXSXSXCXCXCXCXCXCXCXCXCXCXCXCXCXCXCXCXCXCXCXCXBXCXCXCXCXCXCXCXCXBXBX",
"iXxXnXFXFXZXZXZXCXCXCXCXCXnXnXnXnXnXnXCXCXCXCXCXCXCXCXCXCXCXCXCXCXBXBXBXBXFXFXFXFXFXFXFXFXFXFXFXFXFXFXnXxXqXxXnXnXxXxXxXiXiXqXiXiXiXxXxXxXxXxXxXxXxXBXBXBXnXnXBXBXBXBXBXBXBXzXzXzXzXzXxXxXxXxXxXbXlXlXyXbXbXbXyXyXqX0X0X0XyXyXqXqXqXqXqXbXxXxXiXiXxXxXBXnXnXxXnXnXzXzXzXzXvXvXxXzXzXzXxXxXvXvXvXBXBXBXBXBXvXvXvXvXvXvXvXvXzXzXzXzXzXzXBXBXBXBXBXBXBXBXBXBXBXzXzXzXzXzXBXBXCXCXCXCXCXCXCXCXCXCXCXCXCXCXCXCXCXCXCXCXCXCXCXCXCXCXCXCXCXCXCXCXCXCXCXCXCXCXCXCXCXCXCXCXCXCXCXCXCXCXCXCXCXCXCXCXFXFXFXFXFXFXFXFXSXSXSXSXSXSXSXSXCXCXCXCXCXCXSXSXCXCXCXCXCXCXCXCXCXCXCXBXBXCXCXCXCXCXCXCXCXCXCXCXCXCXCXCXCXCXCXCXCXCXCXBXBXBXBX",
"0XqXxXnXnXnXnXZXCXnXnXCXCXCXnXnXnXCXCXCXCXCXCXCXCXCXCXCXCXCXCXCXCXBXBXBXBXFXFXFXFXBXBXBXBXBXnXnXBXnXxXiX0X9X0XqXiXqX0X0X0X0X0X0X0X0X0X0X0X0X0X0XiXiXxXxXzXzXxXnXnXBXBXBXBXzXzXzXzXzXzXxXbXbXbXbXyXyXyXyXyXyXyXbXyXyXyXlXlXlXlXbXbXbXqXqXbXiXiX0X0XiXxXxXnXxXxXxXxXzXzXzXzXvXvXxXxXvXvXvXvXvXvXvXBXBXBXBXBXvXvXvXvXvXvXvXvXzXzXzXzXzXzXBXBXBXBXBXBXBXBXBXBXBXzXzXzXzXzXBXBXCXCXCXCXCXCXCXCXCXCXCXCXCXCXCXCXCXCXCXCXCXCXCXCXCXCXCXCXCXCXCXCXCXCXCXCXCXCXCXCXCXCXCXCXCXCXCXCXCXCXCXCXCXCXCXCXFXFXFXFXFXFXFXFXCXSXSXSXSXSXSXCXCXCXCXCXCXSXSXSXCXCXCXCXCXCXCXCXCXCXCXCXCXCXCXCXBXBXBXBXBXBXBXBXCXCXCXCXCXCXCXCXCXCXCXCXBXBXBX",
"7X9X0XiXxXxXxXnXnXnXCXCXCXCXCXCXCXCXCXCXCXCXCXFXFXCXCXCXCXFXFXCXCXFXFXFXFXFXFXFXFXBXBXBXnXnXxXxXxXiXqX0X7X+X+X:X7X:X*X*X+X+X+X+X+X*X*X*X*X*X*X7X9XqXiXiXxXxXiXxXxXxXxXnXnXxXxXxXzXzXzXxXbXiXqXqXqXyX0X0XqXqXqXqXqXyXyXlXlXlXlXbXbXbXiXiXbXiXqX0X0XqXiXxXxXxXxXzXxXzXzXzXzXvXvXvXvXvXvXBXCXCXDXBXBXBXBXBXBXvXvXvXvXvXvXvXvXzXzXzXzXBXBXBXBXCXCXCXCXBXBXCXCXCXCXCXCXCXCXCXCXCXCXCXCXCXCXCXCXCXCXCXCXCXCXCXCXCXCXCXCXCXCXCXCXCXCXCXCXCXCXCXCXCXCXCXCXCXCXCXCXCXCXCXCXCXCXCXCXCXCXCXCXCXCXCXCXFXFXFXFXFXFXFXFXCXCXCXCXCXSXSXSXCXCXCXCXCXCXSXSXCXCXCXCXCXCXCXCXCXSXSXSXCXCXCXCXCXCXBXBXBXBXBXBXCXCXCXCXCXCXCXCXCXCXCXCXHXSXCX",
"+X7X9XqXiXiXiXxXxXnXCXFXGXGXGXGXFXCXCXCXCXCXCXFXFXCXCXFXFXFXFXFXFXFXFXFXFXFXFXFXFXBXBXnXnXxXxXxXxX0X9X7X:X XoX+X+XoXoXoXoXa.a.a.a.oXoXoXXXoXoX*X7XqXiXiXiXiXiXiXiXxXxXxXxXxXxXxXxXzXzXxXbXqXqX0X0X9X9X9X9XqXqX9X9X9X9X0X0X0X0XqXqXqXiXbXxXxXxXiXiXiXiXiXxXxXxXxXxXzXzXzXzXvXvXvXvXvXvXSXCXCXDXBXBXBXBXBXBXvXvXvXvXvXvXvXvXzXzXzXzXBXBXBXBXCXCXCXCXBXBXCXCXCXCXCXCXCXCXCXCXCXCXCXCXCXCXCXCXCXCXCXCXCXCXCXCXCXCXCXCXCXCXCXCXCXCXCXCXCXCXCXCXCXCXCXCXCXCXCXCXCXCXCXCXCXCXCXCXCXCXCXCXCXCXCXCXFXFXFXFXFXFXFXFXCXCXCXCXCXSXSXSXCXCXCXCXCXCXSXSXCXCXCXCXCXCXCXCXCXSXSXSXSXCXCXCXCXCXBXBXBXBXBXBXCXCXCXBXCXCXCXCXCXCXHXHXGXGXGX",
"+X:X7X0X0XqXiXiXxXxXnXCXHXHXHXHXHXFXBXBXBXBXFXFXFXFXFXFXFXFXFXFXFXFXFXFXBXBXxXiXqX9X9X0X9X7X7X7X7X7X+XoX}.}.E.E.E.XXXXXXXXE.a.p.E.9X7X*X;XoX;X:X9XiXiXiXiXiXiXiXiXiXiXiXiXiXbXiXxXxXxXxXxXbXqX0X0X9X9X9X0XqX0X9X9X>X>X7X7X7X9X0XyXiXiXiXxXlXlXlXiXiXiXiXiXiXiXiXlXlXlXxXzXzXzXvXvXvXvXvXvXvXvXvXvXvXvXvXvXvXvXvXvXvXvXvXvXzXzXBXBXCXCXCXCXBXBXBXBXCXCXCXCXCXCXSXCXCXCXCXSXCXCXFXFXFXFXFXFXFXFXFXFXFXFXFXFXFXFXFXFXFXFXFXFXFXFXFXFXFXFXFXFXFXFXFXFXFXFXFXFXFXFXFXFXFXFXFXFXSXSXSXCXCXSXSXSXHXHXHXHXHXHXHXSXSXSXCXCXCXSXSXSXSXSXSXSXSXSXCXCXCXSXSXSXSXSXSXSXSXSXSXSXSXSXSXCXCXCXCXCXCXCXCXCXCXCXCXSXSXHXHXGXHXHXGXGXHXHXHX",
"*X7X7X7X0X0X0XqXiXxXxXzXBXBXBXBXBXnXxXnXnXnXnXBXFXFXFXFXFXFXFXFXFXFXFXnXnXxXiXiXqX>X>X>X>X:X:X>X:X:XoX X}.E.E.E.E.E.E.E.E.}.}.}. X9X7X7X*X*X*X7X7X0X0XiXiXiXiXiXiXyX0XyXyXiXiXiXiXbXbXbXbXbXiXqX9X9X9X9XyXqX0X9X>X:X:X:X:X>X9X0XqXiXiXqX0XyXyXyXyX0X0XyXtX9X0XyXiXyXyXyXlXlXlXvXvXvXvXxXxXlXlXlXlXxXvXvXvXvXvXvXvXvXvXvXvXzXzXBXBXCXCXCXCXBXBXBXBXCXCXCXCXCXCXSXCXCXCXCXSXCXCXFXFXFXFXFXFXFXFXFXFXFXFXFXFXFXFXFXFXFXFXFXFXFXFXFXFXFXFXFXFXFXFXFXFXFXFXFXFXFXFXFXFXFXFXFXFXSXSXSXCXSXSXSXSXHXHXHXHXHXHXHXSXSXSXSXCXCXSXSXSXSXSXSXSXSXSXCXCXCXSXSXSXSXSXSXSXSXCXSXSXSXSXSXCXCXCXCXSXSXSXSXCXHXHXHXSXSXHXGXGXGXGXGXGXHXHXLX",
"7X0X9X7X7X7X7X0XiXiXiXiXiXiXiXiXiXiXqXqXqXiXxXnXnXnXnXnXnXnXnXnXnXnXxXxXiXiX0X0X7XoXoX+X+X+X*X:X:X+XoX}.a.E.E.a.a.p.a.a.a. XE. XoX*X*X7X7X>X:X*X*X9X7XyXiXiXiXiXyXyX0X0XyXqXqXiXiXiXyXiXbXbXiXqX9X9X9XqXqXyX0X9X>X>X>X>X>X7X9X0X0XqX0X7X:X:X>X>X>X>X>X>X>X>X9XtXyXqX0X0XyXyXiXlXlXxXlXlXlXlXlXiXiXxXlXxXvXvXvXvXvXvXvXvXvXzXzXzXzXCXCXCXCXBXBXBXBXCXCXCXCXCXCXHXHXSXCXCXSXCXCXCXCXFXFXFXFXCXCXCXCXFXFXFXFXFXFXFXFXFXFXFXFXCXCXCXCXFXFXFXFXCXCXCXCXFXFXFXFXFXFXFXFXFXCXCXCXCXSXSXSXSXSXSXSXCXSXSXCXCXCXCXSXSXCXSXCXCXCXCXCXCXCXCXSXSXSXSXCXCXCXSXCXCXCXCXSXHXHXHXHXHXHXGXGXGXGXGXGXGXGXGXGXGXGXGXGXGXGXGXGXLXLXLXLXLXLXLX",
"qXqX0X7X:X>X7X0X0XiXqX0X7X0X0X0X0X7X7X7X7X0XqXiXxXxXxXxXiXiXqXqXqXiXiXqX0X0X7X:X:XXX X X X+X*X+X+XoX X}.a.a.a.a.a.p.p.p.p.p.p.E.E.}.XX;X7X7X7X>X>X0XyXiXiXiXiXiXiXiXiXiXiXiXiXiXqXqXqXqXqXbXiXqXqXyXyXqXqXyX0X9X9X9XyXyX0X9X9X0X0X0X7X*X+X;X*X*X*X:X:X:X:X>X>X,XtX9X9X9X9XqXyXiXlXlXlXlXlXlXlXiXiXiXlXxXvXvXvXvXvXvXvXvXvXvXzXzXzXBXCXzXCXBXBXBXBXCXCXCXCXCXCXHXHXSXCXCXCXCXCXCXCXFXFXFXFXCXCXCXCXFXFXFXFXFXFXFXFXFXFXFXFXCXCXCXCXFXFXFXFXCXCXCXCXFXFXFXFXFXFXFXFXFXCXCXCXCXSXSXCXSXCXSXCXCXSXCXSXCXCXCXSXSXCXSXCXCXSXCXCXCXCXCXSXSXSXSXCXCXCXCXCXCXCXCXSXHXHXSXSXSXHXGXGXGXGXLXLXLXLXLXLXLXLXLXLXLXLXLXLXLXLXLXLXLXLXLX",
"0XqXqXqXqX0X0X0X9X0X:X:X7X:X:X:X:XXXoX+X*X:X7X7X0XqX0X7X7X7X:X:X7X0X0X7X7X7X:X*XoX}.}. XoX:X:X*X+XXX XE.a.a.a.a.p.p.u.5.5.5.p.E.}. XoX7X0XiXiXyXyXyXiXxXxXiXiXiXiXlXiXlXiXiXqXqXqX0X0X0X0XqXqXqXiXqXqX0X0X0X0X9X7X9X9X7X7X7X7X7X7X:X*X*X*X9X;XXXXX;X;X;X;X;X>X,X9X9X9XqX0XqXyXiXbX9X9X9X9X9XyXzXCXyXbXvXSXyXbXlXxXvXvXvXvXvXvXzXzXxXiXxXHXnXnXnXnXBXBXBXBXBXBXFXHXSXSXSXCXCXCXCXCXCXCXCXCXCXCXCXCXCXCXHXHXHXHXHXHXHXSXCXCXCXCXCXCXCXSXSXCXCXCXCXSXSXCXCXCXHXHXHXCXCXCXCXCXCXCXSXCXCXCXCXCXCXCXSXSXSXCXCXCXSXSXSXSXSXSXSXSXSXSXSXSXSXSXSXHXSXCXCXzXCXCXCXCXSXSXHXHXHXHXHXHXLXLXPXLXLXLXLXLXLXLXLXLXLXLXLXLXLXLXLXLXLXLXLX",
"7X7X7X9X9X9X9X9X7X:XoX XXX}.}.E.}.p.p.a.}.oXoX*X:X7X:X:X:X*XoXoX*X7X7X7X:X:X*XoXoXoXXXoX:X7X7X:X*XXX Xa.s.p.p.p.p.p.5.5.5.p.}.;X*X:X7XiXxXvXvXBXvXiXvXvXxXxXiXiXiXyXyX0X0X0X0X7X9X9X7X7X7X0X0X0X0XqXqX0X0X9X9X9X7X7X>X:X*X*XoX+X+X;X;X;X;XoX XoX*XuX>X*X;XXX-XtXiXyXqXqXqX0XqXyXyX:X}.7.8.3.7.|.:XqXyXbXbXcX0X,XyXlXvXvXvXvXvXzXzXxXFXnX0XnXnXnXnXBXBXBXBXBXBXFXHXSXSXSXCXSXCXCXCXCXCXCXCXCXCXCXCXCXCXCXCXCXCXCXSXSXCXCXCXCXCXCXCXCXCXSXCXCXCXCXSXSXCXCXCXHXHXHXCXCXCXCXCXCXCXCXCXCXSXCXCXCXCXSXSXSXSXSXSXSXSXSXSXSXSXSXSXSXSXSXSXSXSXSXSXSXCXCXBXCXBXCXCXSXSXHXHXHXHXLXLXLXLXLXLXLXLXLXLXLXLXLXLXLXLXLXLXLXLXLXLXLXLXLX",
"*X*X*X:X:X:X:X:X:XXXa.7.7.7.5.5.7.3.8.5.a. XXXoX+X:X:X:X:X*XoXoX*X7X7X7X9X7X:X:X:X:X:X:X7X0X0X7X>X+XXX Xa.a.a.a.p.p.a.E. X*X7XqXqXiXxXnXzXvXBXBXvXxXvXvXvXxXxXxXiXyXyXyXyXqXqXqXqX0X0X0X0X0X0X0X0X0X0X9X7X9X9X9X7X>X*XoX X}.E.E.E.&X&X;X&X;X XE. X*X;XXXE.;X>X>X9X9X7X:XoXoX7./ A h h h p i p p h c C A ( 7.oXbXzXyXlXxXxXxXxXzXzXxXHXmX0XnXnXnXnXBXBXBXBXBXBXFXFXCXSXSXSXCXCXCXCXCXCXCXCXCXCXCXCXSXSXCXCXCXCXCXCXCXCXSXCXCXCXCXCXCXSXSXCXCXCXCXCXSXSXSXCXHXHXHXSXCXCXCXCXCXSXSXSXSXSXSXCXCXCXCXCXCXCXCXCXSXSXSXSXSXSXBXBXBXSXSXSXSXSXSXSXBXCXHXHXHXHXGXGXGXGXGXGXLXLXLXLXLXLXLXLXLXLXLXLXLXLXLXLXLXLXLXLXLXLXLXLXPXPXPX",
"oXoX+X;X;X*X*X*X*Xa.5.8.' 3.3.3.3.8.' 3.a. XXXoX+X*X:X:X:X:X*X*X:X7X9X0XqX0X0X7X7X7X7X0XqXqX0X0X7X7X:X+XoXXX X X}. X+X7XqXiXiXxXxXxXxXxXxXlXlXxXxXxXxXvXvXvXvXvXxXlXlXlXxXxXxXxXxXxXxXxXiXiXiXiXqXqX0X9X7X7X7X7X7X:XoX}.E.p.p.p.p.oXoXoXoXQ.E.(.*X-X-X-X-X(.;X>X0X|.3.( C p y w q i q 0 < < < < < 2 0 i p 0 0 C 3.:XyXlXxXxXxXzXzXxXiXiXHXnXnXnXnXBXBXBXBXBXBXFXFXCXCXSXSXBXBXBXBXCXCXCXCXCXCXCXCXSXSXCXCXBXBXBXBXCXCXSXCXCXCXCXCXCXSXSXSXCXCXCXCXSXSXSXSXHXHXHXSXCXCXCXCXCXCXCXCXCXCXSXCXCXCXCXCXCXCXCXCXSXSXSXBXBXvXvXvXvXvXvXBXBXBXBXBXvXBXGXGXGXGXGXGXLXLXLXLXLXLXLXLXLXLXLXLXLXLXLXLXLXLXLXLXLXLXLXLXLXLXLXLXPXHXHX",
"XXXXoX*X:X*X;XoXoXp.3.' ' 5.5.5.5.5.| 8.p. XXXoX;X*X*X*X*X:X:X7X7X7X0X0X0X0X0X0X9X9X9XqXqX0X9X9X7X7X:X7X:X:X*X*X*X:X0XiXmXmXmXnXBXBXxXxXxXlXlXxXxXxXxXzXvXvXvXvXvXvXSXSXSXBXBXHXBXBXnXnXxXnXxXiXiXqX0X0X0X7X9X9X9X>X+X}.a.3.3.3.3.E.E.E.E.p.E. X;X*X-X;X(.>X;X|.8.A g q w y q < < < < 2 2 2 2 2 2 2 2 2 2 < i i < C 7.lXBXqX9XqXCXzXzXqXFXxXxXxXxXxXxXnXnXnXnXBXBXzXzXxXxXxXzXzXzXvXvXzXzXzXzXzXvXBXBXBXBXBXBXBXBXBXBXCXCXCXBXBXBXBXBXBXBXzXzXzXzXBXBXBXBXCXCXCXCXCXBXBXBXBXBXSXSXSXSXSXSXvXBXBXBXBXCXCXBXBXBXBXBXBXvXvXxXvXvXvXvXvXBXSXSXSXSXGXGXGXGXLXLXLXLXLXLXLXLXLXLXLXLXLXLXLXLXLXLXLXLXLXLXLXLXLXLXLXLXLXLXKXKXKX",
"*X*X:X:X:X*X+XoXXXp.5.3.5.p.p.p.7.3.8.3.p.}.XXoXoXoXoX+X+X+X+X;X*X:X7X7X:X>X7X0X9X9X0X0X0X7X7X:X:X:X7X9X0X0X0X0XqXiXxXnXnXmXmXxXnXnXxXxXiXlXlXxXxXxXxXvXvXvXvXCXvXSXSXSXSXHXHXHXBXBXnXBXBXBXBXnXxXiXiXqXqX0XqX0X0X0X>XoX}.p.p.p.p.XXXXXXXXp.E.|.XX;X*X-X;X;X7./ C p a < a < < < 2 2 ; % % 2 2 % % % % 2 2 2 2 < 0 0 p / 7XzXbX0X0XxXxX0XBXxXiXiXiXxXxXxXxXxXxXxXxXxXbXbXbXbXbXbXbXlXlXbXbXlXxXxXxXxXxXxXxXzXzXzXzXzXzXBXzXzXzXzXzXvXvXvXvXxXxXxXxXzXzXzXzXzXzXzXvXBXBXBXBXvXvXvXvXBXBXBXvXvXvXvXvXvXvXvXvXvXvXvXvXvXlXxXxXxXxXxXvXvXSXHXLXGXLXGXLXLXLXLXLXLXLXLXLXLXLXLXLXLXLXLXLXLXLXLXLXLXLXLXLXLXLXLXLXLXLXLXGXKXHXHX",
"*X:X:X:X*XXX X}.E.p.5.5.7.5.5.5.5.3.3.3.p.E.}.XXXX X X X X X X XXX*X7X7X*X*X:X:X7X9XyXqX0X7X>X7X7X7X7X0XiXzXzXzXzXzXzXnXnXxXxXxXnXnXxXxXiXxXxXxXzXzXxXvXvXvXCXSXSXSXSXSXSXBXBXBXnXxXxXxXnXBXBXnXxXiXbXiXiXiXiXqXiXiXqX7X:X*X*X*X*X4X7X7X7X;X;X;X;X7XyXuX>X|./ g 2 a 1 2 2 % 2 ; % % % & & & & % % % % % & 1 % & ; 2 < c / oXbXqX:XiXiX7XxXqXqXqXqXiXiXiXiXiXiXiXiXiXiXiXiXbXbXbXbXlXlXbXbXxXxXxXxXxXxXxXxXxXxXxXxXxXzXzXzXzXzXzXzXvXvXvXxXxXxXxXxXxXxXxXxXzXzXzXvXzXzXBXBXzXzXzXzXzXzXzXzXzXzXzXzXxXzXzXxXxXxXxXxXzXxXzXzXzXzXCXCXCXHXLXLXLXIXLXLXLXLXLXLXLXLXLXLXLXLXLXLXLXLXLXLXLXLXLXLXLXLXLXLXLXLXLXHXKXKXKXHXKXKXHX",
"*X*XoXXX}.E.a.p.p.5.3.5.5.3.3.3.3.3.3.5.5.a.E. X X}.}.}.}.}.}. X XXX:X7X:X:X:X:X:X9X0X0X9X7X9X0X0X0X0XiXxXzXzXzXzXzXzXnXnXxXxXxXnXnXxXxXiXxXxXxXxXxXxXvXvXcXSXHXSXSXSXSXBXBXxXxXxXxXiXxXxXxXxXxXiXiXiXxXxXiXiXiXxXxXxXiXiXiXiXiXiXiXiXbXbXbXyXyX0XqXoX8.~ h u a 2 2 2 %   # $ & & $ $ $ $ & @ @ @ @ @ % % % % % 2 2 0 < 0 ~ oXgX>XyXyX>XiXyXqX0X0X0X0X0X0XiXiXiXiXiXiXiXiXbXbXbXbXlXlXbXbXxXxXxXxXxXxXxXxXxXxXxXxXxXxXxXxXxXxXxXxXxXvXxXlXxXxXbXbXxXxXxXxXxXxXzXzXzXzXzXzXzXzXzXxXxXxXxXxXxXxXxXxXlXxXxXxXxXxXxXxXzXzXBXCXSXGXGXGXGXGXLXLXLXLXLXLXLXLXLXLXLXLXLXLXLXLXLXLXLXLXLXLXLXLXLXLXLXLXLXLXLXHXHXHXKXKXKXHXHXHXHX",
"XXa.a.a.p.p.7.7.p.7.5.7.5.5.5.5.5.p.a.E.(. XXXoXoXoXoXoXoXoXoXoXoX*X7X0X0X7X7X7X7X0X0XyXyXiXiXiXiXiXxXxXxXzXzXzXzXzXzXzXzXzXzXnXnXxXxXxXxXxXzXvXvXxXxXvXvXvXSXSXSXSXSXBXvXnXxXxXxXxXxXxXxXxXbXbXbXbXbXxXxXiXzXzXiXCXGXBX0XiXxXzXxXbXgXbXzXDX,X|.8.D p < i 1 2 @ & # $ # # @ @ @ @ @ @ @ @ @ @ # & & # & & $ & % % % 2 < < 0 C oX9X9XyX9XiXiXiXqX0XqX0X0X0XiXiXiXiXxXxXxXxXlXlXlXlXxXxXxXxXxXzXzXxXxXxXxXxXxXxXxXxXxXxXxXxXvXzXxXxXxXxXxXxXxXxXbXbXxXxXxXxXxXxXxXxXxXxXxXxXxXxXxXxXxXxXxXxXxXxXxXxXxXxXzXzXxXxXBXBXBXHXHXHXJXJXLXLXJXJXJXJXIXLXLXLXIXIXLXIXLXLXIXLXLXLXLXLXLXLXLXLXLXLXLXPXPXPXPXPXKXKXJXJXKXKXKXKXHXGXKX",
":XoXoXXXXXXXXXXXXXXX}.XXXXoXoXoXoX;X*X7X7X9X9X0X0X0X0X0X0X0X0X0X0XqXiXxXxXxXxXxXxXiXiXxXxXxXxXxXzXxXzXnXxXzXzXzXzXzXzXzXzXzXzXnXnXxXxXxXxXxXxXvXvXxXxXvXvXBXCXSXSXSXSXBXBXBXBXnXnXnXnXBXBXBXzXzXxXxXxXxXxXzXiXiXzXzX>X:X0X7X7X0XqXgXhX,X$X4./ c i a 2 % @ % % % $ # # # # # @ @ @ @ @ @ @ @ @ # # # # $ $ & $ % % % % % 2 2 y N bXzX9XSX*XiXiXiXiXiXiXiXiXiXxXxXxXvXvXxXxXlXlXlXlXxXxXxXxXzXzXzXxXzXzXzXzXzXzXzXzXvXvXvXvXvXzXzXxXvXvXvXvXzXzXzXxXxXxXxXxXzXzXzXzXxXxXxXxXxXxXxXxXxXxXzXzXzXzXzXzXzXzXBXBXBXHXHXHXHXHXLXLXLXLXLXLXJXJXJXJXLXIXLXIXLXLXIXLXLXLXIXLXLXLXLXLXLXLXLXLXLXLXLXPXPXKXKXKXFXFXFXHXHXFXFXHXFXHXKX",
"iXqX0X0X0XiXiXiXiXiX0XiXiXiXxXxXxXxXxXBXBXBXBXBXmXxXxXxXxXxXxXmXxXnXnXBXnXBXBXnXnXBXBXBXBXBXBXBXnXnXxXxXxXnXnXnXnXzXzXzXzXzXzXnXmXxXxXxXxXBXBXBXBXvXvXvXvXvXvXSXBXBXvXvXvXnXnXnXnXnXnXBXBXBXzXzXxXxXxXxXxXzXiXiXzXqXBXzX7XHX0X}.7.8.+.~ A z i 0 a 2 2 % $   . @ $ X X X X @ X @ @ @ @ @ # # # # # # # $ $ & & % % % % % % < % 0 A 9X9XiXiXiXiXbXbXbXbXxXxXxXxXxXxXvXvXxXxXvXmXxXxXvXvXvXvXvXvXzXzXzXzXzXzXBXBXBXBXBXBXvXvXvXvXSXSXBXBXBXvXBXBXCXzXBXBXBXBXBXBXCXCXzXzXzXzXzXzXnXnXnXnXnXnXCXCXCXCXCXCXGXGXFXFXJXJXJXJXIXLXLXJXJXJXJXJXJXJXIXJXJXJXLXIXIXLXLXLXLXLXLXLXLXLXLXLXLXLXLXLXLXPXPXKXKXKXHXHXHXHXHXHXHXHXHXHXHX",
"HXHXFXBXBXBXHXHXHXBXmXBXBXnXnXnXxXxXmXHXFXBXBXBXmXnXnXnXnXnXnXnXnXBXBXFXFXFXCXBXBXBXBXBXBXBXBXBXBXnXxXxXxXxXnXnXnXnXzXzXzXzXnXmXmXxXxXxXxXvXvXvXvXxXxXxXxXvXvXvXvXxXxXxXxXiXiXxXiXiXiXxXxXxXbXbXiXbXbXxXxXiXzXzXiXiXqX}.' C C c h p i i a 2 2 = = % X X : = $ X   . . . X X # @ @ @ @ # # # # # # # # $ $ & & % % & & % % 2 2 < ; ( qX7XBXiXbXbXbXxXzXxXxXxXxXmXmXBXvXvXvXvXvXvXvXvXvXvXvXvXvXzXzXzXzXBXBXCXCXCXCXSXSXSXSXSXSXSXSXSXSXSXSXCXCXCXBXCXCXCXCXCXCXCXCXCXCXCXCXCXCXCXCXCXCXCXCXFXFXGXGXGXJXJXJXJXJXLXLXLXLXIXLXJXJXJXJXJXJXLXLXIXJXJXJXIXLXLXLXLXLXLXLXLXLXLXLXLXLXLXLXLXLXLXLXPXKXKXKXHXHXHXHXHXBXBXBXmXmXmX",
"HXFXBXFXFXFXFXFXBXBXnXxXxXnXnXnXnXBXBXnXnXmXmXxXxXmXBXnXBXBXBXBXBXBXBXBXFXHXFXBXxXxXvXBXBXBXBXBXBXmXmXmXmXxXxXxXxXxXxXxXxXxXxXxXiXxXiXiXiXiXlXlXiXlXxXxXxXxXxXzXlXlXlXlXlXiXiXxXxXxXxXxXxXxXbXbXiXlXlXxXxXHXiXnXiX|./ A h w p p i a a 1 = a 1 2 = = = $ o O   o - o X X X X X X X o @ # # # # # # # # $ # # & & & & & $ $ $ 2 2 < q ' CXlXCXlXzXzXxXxXxXxXxXzXxXmXBXBXBXBXBXBXBXBXBXBXBXBXBXBXBXBXBXBXCXCXCXCXCXCXSXSXSXSXCXCXCXCXCXCXCXCXCXCXCXCXCXCXCXCXCXCXSXCXHXHXHXHXFXFXFXFXFXFXGXGXGXGXJXJXIXIXIXIXIXIXLXLXLXIXIXIXUXUXUXJXJXJXJXJXJXJXJXJXLXLXLXLXLXLXLXLXLXLXLXLXLXLXLXLXPXPXPXPXPXHXHXHXBXmXmXmXvXpXpXiXiXpXpX",
"FXFXBXBXBXBXBXBXBXnXxXxXxXnXnXnXzXBXBXBXBXnXmXnXmXBXBXFXFXFXBXBXBXnXnXnXnXnXxXiXiXyXiXiXxXBXvXnXnXmXmXiXiXxXxXxXxXxXxXiXiXiXqXqXqX0X0X0X0X0X0XyXiXiXlXlXxXxXxXzXlXlXlXlXlXxXzXBXBXBXBXFXFXCXBXzXzXvXvXvXvXxXBX0Xp.A j w w w 0 0 a z c m m m m m K K m s 7 = + o $ o o o o o X X X o @ # # # # # # # # $ # # # # & $ $ $ $ $ @ 2 % 2 i n.CXlXlXzXzXzXzXxXxXxXxXxXmXBXBXBXBXBXBXBXBXBXBXBXBXvXvXBXBXBXBXCXCXCXCXCXCXSXSXSXSXCXCXCXCXCXCXCXCXCXCXCXCXCXCXCXCXCXCXCXCXHXHXGXGXGXGXGXGXGXGXGXGXGXGXJXIXIXIXIXIXIXIXLXLXLXIXLXIXUXJXUXJXJXJXJXLXJXJXJXIXLXIXLXLXLXLXLXLXLXLXLXLXLXLXLXPXPXHXHXHXBXBXmXmXiXiXiXiXpXpXpXyXyXyXyX",
"BXBXBXBXBXnXnXxXxXxXxXnXnXzXzXBXBXCXCXBXBXBXBXBXBXFXFXFXFXFXBXBXBXnXnXnXnXxXxXqX0XyXiXiXxXvXxXxXxXxXxXiXiXxXxXxXxXxXxXiXiXqX9X9X9X9X9X0X0X0X0X0XyXiXiXlXlXxXvXvXvXvXvXvXlXzXzXBXBXBXBXFXFXHXSXBXvXvXvXvXBXHX0X3.A w p p h c c c c C K K K ) ) ) ) ) ) ) ) ) K s 7 = = $ o o X X X @ @ # # # # # # # # # # # # $ $ $ $ $ $ @ % @ % & q x n.qXbXzXzXvXvXxXxXxXxXxXmXxXxXxXxXvXvXvXvXvXvXvXvXvXvXzXzXzXzXBXBXBXBXBXBXBXBXBXSXzXBXBXBXBXBXBXBXBXBXCXCXCXCXFXFXHXHXGXGXGXGXGXGXGXGXJXJXJXJXJXJXJXJXJXJXJXIXIXIXIXLXIXLXLXLXLXLXJXJXJXJXJXLXLXLXLXLXLXIXIXIXLXLXLXLXLXLXLXLXPXPXPXPXHXHXHXBXBXmXmXxXiXiXiXyX9X9XuXuXtX9XtXtXtX",
"nXBXBXBXBXxXxXxXxXxXxXnXnXzXzXBXBXCXCXCXCXFXFXHXHXHXFXFXFXFXBXBXBXnXnXnXnXnXxXxXiXiXxXBXBXvXxXxXxXxXxXiXiXxXxXxXmXxXxXiXiXiXqXiXiXiXiXiXiXiXiXiXiXiXiXlXxXxXvXvXvXvXvXvXlXxXxXxXxXiXiXxXxXvXvXxXxXxXxXxXxXiX7.C h C ( ( / / / ^ / ( C c m m K K K ) ) ) ) ) D.D.) J m = = o X X X @ @ # # # # # # # # $ $ # # # $ $ $ $ $ $ @ $ @ : X 2 v 0XbXzXvXvXvXxXxXxXxXiXiXxXiXiXiXxXxXxXlXvXvXxXxXxXxXxXxXxXxXzXzXzXzXBXBXBXBXBXBXzXzXvXzXzXzXzXzXzXzXBXBXCXCXFXFXHXHXGXGXGXGXGXGXGXGXJXJXIXJXIXJXJXJXJXJXJXIXIXIXIXIXLXLXLXLXLXLXJXJXJXJXJXJXLXLXIXIXLXIXIXIXLXLXHXHXLXLXPXPXPXKXHXHXHXBXBXmXmXvXiXiXyX0X9X9X9X9X7X9X9X9X-X-X>X",
"nXnXnXnXnXxXxXxXxXzXzXzXzXBXBXBXBXFXFXHXHXHXHXHXHXFXBXBXBXBXBXmXnXBXnXnXnXBXvXvXvXvXBXBXBXnXxXxXxXxXxXxXxXxXxXxXxXxXxXxXiXiXiXxXxXxXxXxXxXxXiXxXiXiXiXiXiXiXiXiXiXiXiXiXiXiXiXqX0X0X0XqXqXiXiXiXiXiXiXiXiX*X' / 5.*X+X>X8X0X0X0X0X,X@X8.A a 1 2 7 s s m m K K H ) ) ) J m : $ X X $ X X   X X X X # # X X o o $ $ $ $ $ $ $ o $ $ o + : = C bXDX,XzX7XLXxXiXiXiXiXiXiXiXiXxXxXxXvXvXxXxXxXxXxXxXxXxXxXxXxXxXxXnXBXBXBXBXnXvXzXzXzXnXnXnXnXBXBXBXCXCXFXGXGXFXFXGXGXGXGXJXJXGXGXJXJXJXIXIXIXIXJXJXJXIXIXIXIXJXJXJXJXJXJXJXJXJXJXJXJXJXJXJXLXLXJXJXLXIXLXLXHXHXHXHXKXPXHXHXHXBXBXBXmXxXiXiXiXyX0X0X9X9XtXtX7X-X-X-X5X5X5X5X",
"nXBXBXBXnXzXzXzXzXzXzXzXzXBXBXBXBXBXBXFXFXBXBXBXBXBXnXmXmXmXmXmXmXnXnXnXnXvXxXBXBXBXBXBXBXnXBXBXBXnXnXnXnXxXxXxXxXxXxXxXxXxXxXxXxXxXxXxXxXxXxXxXxXlXlXiXiXiXiXyXyX0X0XiXiXiXqX0X0X0X0X0X0X0X0XqXqXiXiXiXiXiX0X7X7X7X7X9X0X9X8X7X>XqXzXbX,X7.C a = = $ $ 7 = = = = = = 7 7 x 5 $     . # $ X X X X X X X o X X o $ $ $ $ $ O O O 8 8 + + + a ( ,XbXCXqXBX0XiXiXiXiXiXiXiXiXxXxXvXvXvXxXvXvXzXxXxXxXxXxXxXxXxXxXnXBXBXBXBXBXBXvXvXzXnXCXCXCXCXCXCXCXCXFXGXGXFXFXGXGXGXGXJXJXGXGXJXJXJXIXIXIXIXJXJXJXIXIXIXIXUXJXJXJXJXJXJXJXJXUXUXJXJXJXJXLXJXJXJXLXLXLXHXHXHXHXHXHXBXBXBXmXmXvXvXiXiXiXiXyXyX0X0XuXuXtX9X9X7X9X9X9X5XrXtX",
"FXBXBXBXBXBXBXBXCXBXBXBXBXBXBXBXBXmXBXBXBXnXnXmXmXxXxXxXxXxXxXmXmXxXxXnXmXmXBXBXBXBXBXBXBXBXBXBXBXnXnXnXnXmXnXxXxXxXxXnXnXnXnXBXBXBXBXBXBXBXBXBXBXBXBXnXxXxXxXxXxXxXxXxXxXxXiXiXiXiXiXiXiXiXiXxXxXxXxXxXxXiXFXFXqX0XqX0X0X0XqX0XqX0XbXzXzX,XgX8.p 2 = = X $ $ = = $ o   o $ $ @ X X X X X X X X X X X X X X X o o # $ $ o o 8 L 9 9 9 L 8 o < +.gXZXzXxXiXiXiXiXiXiXiXxXiXxXxXvXvXBXBXvXBXzXzXxXlXlXxXxXxXxXxXxXBXFXCXFXFXCXCXCXCXCXFXCXCXCXCXCXCXFXGXGXGXGXGXGXGXGXGXJXJXLXLXIXJXIXIXIXIXIXJXJXJXIXIXIXIXJXJXJXJXJXJXJXUXUXUXUXJXJXJXJXLXLXLXJXJXLXHXFXBXHXHXHXBXBXmXmXvXiXiXiXyXyXyXyXyX9X9X9XuXtXtX9X9X7X7X7X9XtXrXtX",
"FXFXBXBXBXCXCXCXCXCXBXBXBXCXBXBXxXxXxXxXxXxXxXiXiXxXiXiXiXiXiXiXiXxXxXmXmXmXBXBXBXBXBXBXBXBXBXBXBXBXBXnXnXmXnXxXxXxXxXnXnXBXBXBXBXBXBXBXBXBXBXBXBXBXBXBXBXBXBXBXBXBXBXBXBXBXBXzXxXxXxXnXnXnXnXBXBXnXnXzXnXnXiX0X9XBXFXxX7XnXnXnXnXzXbXbXbXDXbXbX|.A i 1 @ @ @ X X X o o o o o X X X X X X X X X X X . X X o X o @ # # $ o + L M Q W Q Q M 7 : e e.hXzXxXxXiXiXiXiXiXiXxXxXvXvXBXvXBXvXvXBXzXzXxXlXxXxXxXxXxXxXxXBXHXHXHXHXHXHXHXHXFXFXCXCXCXCXCXCXCXFXGXGXGXGXGXGXGXGXJXJXLXIXIXJXIXIXIXIXJXJXJXJXJXJXIXIXJXJXJXJXJXJXUXUXUXUXUXLXJXJXJXLXLXJXJXLXHXFXBXBXBXHXBXmXmXvXiXiXiXyXyXyXyXuXyXuX9X9X9XuXtXtX9X9X9X9X9X9XtX5XrX",
"BXBXBXBXBXCXCXHXCXCXCXHXHXFXBXnXxXiXiXiXiXiXiXiXiXiXiXiXiXiXiXiXiXiXmXmXBXBXBXBXBXBXBXFXFXBXBXBXBXBXBXnXnXBXBXzXzXnXnXnXnXBXBXCXCXCXCXCXCXBXBXBXBXBXBXFXFXFXFXHXFXFXFXFXFXFXFXFXFXBXBXBXBXBXBXBXBXBXBXBXBXnXnXnXnXnXxXnXLXBXnXxXiXbXbXiXiXiX9X9XbX:X^ p % & & @     # $ X # o o X X X X X X X X X X . X X X X X X o o o + 8 9 P Q Q W W E Y l : n MX8XgXgXxXiXxXxXxXxXxXxXBXBXBXvXvXxXvXxXzXxXxXxXxXzXzXzXnXBXBXFXHXHXHXHXGXGXGXGXGXFXCXCXCXCXCXZXZXMXGXGXGXGXGXGXJXJXJXIXIXIXIXIXJXJXIXIXJXJXJXJXJXJXJXIXIXLXLXIXIXLXLXLXLXLXLXLXLXLXLXLXLXLXHXHXHXBXmXiXiXiXiXiXpXpXyXuXuXuXuXuXuXuXuXtX9X9XuX9XtXtXtXtX5X9X9X9XtXrX5X",
"nXHXBXBXBXCXCXCXCXCXCXFXFXBXnXxXiXiXiXiXiXiXiXiXiXiXiXiXiXiXiXiXiXiXiXmXBXBXBXBXBXSXSXFXFXBXBXBXBXBXBXBXBXCXCXCXCXBXBXBXBXFXFXCXCXCXCXCXCXBXBXBXBXBXBXFXFXFXFXFXFXFXFXFXFXFXFXFXFXFXHXFXFXFXFXFXCXCXFXBXBXBXBXnXnXiXxXiX9XiXxXnXBX0X0X0XiXiXyXyXlX>X0X3.q & & % $ X X         X X X X X X X X X X X X X X o X @ X X X o + L P ! ! ! Q W E :.*.J 7 @.jXgXZXxXxXzXxXnXxXnXnXBXBXBXvXvXxXvXvXzXzXzXzXzXBXBXCXFXHXHXHXHXHXLXHXGXGXGXGXFXFXFXFXGXGXGXMXZXZXMXGXGXGXGXGXJXJXJXJXJXJXJXJXJXJXJXJXGXGXJXJXJXJXJXIXLXLXLXIXIXLXLXLXJXJXJXLXPXHXHXHXHXHXHXFXBXxXiXiXiXiXyXpXuXuX9X5X5X9X9X9X5X5X5X5X5X5X5X5X5X5X5X5X5X5X5X5XrXrX5X",
"FXFXFXFXFXFXFXFXBXBXBXBXBXmXxXiXiXiXiXiXiXiXiXiXqXqXqXyXqXiXiXiXiXiXiXiXmXBXFXFXHXHXHXHXHXFXFXFXFXBXBXFXFXCXCXFXHXHXHXFXFXGXGXGXGXFXFXFXFXHXHXHXHXHXHXFXFXFXFXMXFXFXFXFXMXFXFXFXHXHXHXHXFXFXFXFXCXFXFXBXBXBXBXnXnXFXKXFXiXiXxXnXnXzXxXxXxXiX7X7X0XiXGX@X' y - & . X X # - $ # o X X X X X X X X X X X X X X o @ @ @ X o + 8 P ! ! ! Q W W T 1.>.J b hXMXCXBXBXBXBXBXBXBXBXnXnXnXnXBXBXBXBXBXBXCXCXCXCXCXCXFXHXHXHXHXHXHXHXFXCXCXCXFXFXFXFXGXGXGXMXMXZXGXGXGXGXGXGXJXJXJXJXJXJXJXJXJXJXJXJXJXJXJXJXJXJXJXJXIXLXLXIXIXIXIXJXJXKXKXKXHXHXHXFXFXBXBXBXmXiXiXyXyXyXyXyXuXtX5X6X6X6X6X6X5X5X5X5X6X6X6X6X=X=X-X-X6X6X6X5XrXrX5X",
"FXFXFXFXFXHXFXFXnXnXmXsXxXiXiXyXqXyXyXyXyXqXqXqX0X0X9X0XqXqXiXiXiXiXiXiXxXBXFXFXHXHXHXFXFXHXHXFXFXBXBXFXFXHXFXGXHXHXCXFXFXGXGXGXGXGXFXFXFXHXHXHXHXHXHXFXFXFXFXMXFXFXFXFXMXFXFXFXHXHXHXHXFXFXFXFXCXCXFXBXBXBXBXnXnXBXxXnXLXBXnXxXqXqXqXqXyXPXpXpXHXiXiXZXoXA q & . # .   X . . X X X X X X X X X X X . X X o X @ * @ X O + 9 P ! ! ! Q W W :.:.:.>.Z 4.jXzXBXBXBXBXBXBXBXBXBXnXBXBXBXBXBXBXCXCXCXCXCXCXBXBXBXBXBXnXnXnXBXBXCXCXCXCXCXCXCXCXZXZXZXnXZXZXGXGXGXGXGXGXGXGXGXJXGXGXJXGXJXKXJXJXJXJXJXJXJXJXLXLXIXLXLXIXIXIXJXJXFXFXFXHXHXHXHXBXnXxXxXmXiXyXyXuXuXuXuXtXtX5X5X6X-X6X6X6X6X=X=X6X6X6X6X=X=X=X=X=X=X=X*X6X5X5X-X",
"FXFXFXHXHXFXBXmXmXvXxXiXiXiXyXyXyX0X0X0X0X0X0X0X0X9X9X9XqXqXqXqXqXqXqXqXiXxXBXBXHXHXFXFXFXBXBXBXBXBXBXFXFXCXCXFXFXCXZXCXCXGXGXGXGXGXGXGXGXFXFXFXFXFXFXFXFXFXMXMXMXFXMXMXMXMXFXFXMXFXFXFXFXFXMXMXZXZXMXMXZXBXBXBXBXCXCXCXnXnXnXzXzXxXbXxXxXpXpXiXiXiXiXqXgXn.p 2 . & . X X X X X X X X X X X X X X . . . . o o . * # X O + 9 P ! ! Q W W E :.E 1.<.=.J hXZXBXBXBXBXHXxXxXFXnXnXnXnXnXnXnXzXBXBXBXBXBXnXnXnXBXzXzXxXxXzXnXCXCXCXCXCXCXZXZXCXnXnXnXZXZXMXGXJXJXGXGXGXFXFXFXFXFXFXFXFXJXJXJXJXJXKXJXJXJXLXIXLXLXLXLXLXLXLXHXFXHXHXHXHXHXVXmXxXiXiXyX9XuXuXuXyXtXtXtXrX5X5X5X=X=X=X5XrX&X&X'.'.'.'././.`.%X%X%X%X%X&X=X-X-X-X",
"HXnXnXnXnXmXxXiXiXiXiXiXiXiXyXyXyXyXyXyXyX0X0X0X9X9X7X9X9X9X9X0X0X0X0X0XqXiXxXxXBXBXBXBXBXnXnXnXnXnXnXnXnXCXZXZXZXnXnXZXCXCXCXZXZXZXZXZXZXCXCXCXCXCXCXMXMXMXMXMXMXMXMXMXMXMXFXFXMXFXFXFXFXMXZXZXnXnXnXnXnXnXnXnXnXnXnXnXnXnXnXnXzXxXbXxXxXxXvXxXiXiXqXqXgX0XA < ; & @ @ X X X X X . . . . X . . . . . . . . . . . . . O + 9 P ! Q W W W E E E 1.<.=.O.b.UXvXvXBXBXxXFXFXxXxXxXxXxXxXxXxXxXvXvXvXvXxXxXxXxXzXzXzXzXnXnXCXFXCXCXCXCXCXZXZXCXnXnXZXMXMXGXGXJXJXGXFXFXFXFXFXFXFXFXFXFXJXJXKXJXJXKXJXJXLXLXLXLXJXKXKXKXHXFXBXmXmXmXmXmXmXiXiXyXyX9X9X5X5X5X5X5X5X5X5X6X6X=X=X=X6X=X=X&X&X=X&X&X&X&X&X%X%X%X%X/././.%X%X&X&X&X",
"nXmXiXxXiXiXiXiXiXiXiXiXiXiXiXiXiXiXiXyXyXqXqX0X9X7X7X7X7X9X7X9X9X9X9X9X9X0XqXiXxXBXBXBXBXnXnXnXnXnXxXxXxXnXnXnXnXnXnXnXnXZXZXZXMXZXZXZXZXZXZXZXZXCXCXZXZXZXZXZXZXZXMXMXZXZXZXZXZXnXZXCXCXZXnXnXnXnXnXnXnXnXnXnXnXnXCXCXZXnXnXnXnXzXxXxXxXxXvXxXlXbXgXgXgXzX+.q & & @ $ X X X X X . . . . . . . .   . . . . . . . . X O 8 P ! Q Q W W W E :.:.:.<.>.&._ GXzXBXBXBXqXnXnXiXiXiXiXxXiXiXiXiXlXlXlXxXxXiXxXxXxXxXBXBXCXCXFXFXCXCXCXCXCXZXZXCXnXnXZXFXJXJXJXJXGXFXMXZXFXFXFXGXFXFXFXFXKXKXKXKXKXKXKXKXKXKXKXKXFXFXHXHXHXmXiXiXiXiXsXsXiXyX0X9X9X5X4X*X*X=X=X=X=X6X6X=X&X].].&X=X&X&X`.rXrXrX5XtXtXtXtX*X*X*X*X*X&X%X%X%X;X&X",
"xXiXiXiXiXiXiXiXiXiXiXiXyXiXiXiXiXiXiXiXiXiXiXqX9X7X7X7X7X7X7X7X7X7X7X7X7X7X9X0XqXxXnXnXBXBXBXBXnXnXxXxXxXzXzXnXnXnXnXnXnXzXzXnXnXzXzXzXzXnXnXnXnXnXnXnXnXnXnXnXnXnXnXnXnXnXnXnXnXnXnXnXnXnXnXnXnXnXnXnXnXnXnXnXnXnXCXCXCXnXnXnXnXzXxXxXxXxXxXxXlXbXgXgXgXhX4.y 2 & & @ X o X X X X X X X X X X X . . . . . . . . . o + 8 P Q Q W W W W :.:.:.:.<.>.h.` N.nXBXBXnXxXqXqXiXqXiXiXiXiXiXiXiXiXiXiXiXiXiXiXiXbXxXzXBXCXCXCXCXCXCXCXCXCXZXZXnXCXZXMXGXJXJXGXGXFXMXZXZXMXFXFXGXFXFXKXKXKXKXKXKXKXKXKXFXHXHXHXHXHXHXHXHXmXiXyXyXyXiXiXuXyX9X5X4X4X*X&X%X&X&X&X&X&X&X&X].].].].`.`.'.&X=XdXdXdXdXKXKXKXKXyXyXyXyXuX9X9X5X5X-X-X",
"iXyXyXyXyXyXyXyXyXyXyX9X9XyXyXiXiXiXiXiXiXiXiXiXyXqX9X9X9X9X9X0XqX0X9X7X7X:X7X7X0XqXiXxXnXnXBXHXmXnXnXHXBXnXnXCXCXCXCXMXMXZXZXZXMXZXZXZXZXMXMXMXMXCXCXMXMXMXMXMXMXMXMXMXMXMXMXMXMXCXCXCXCXMXMXMXMXMXMXMXMXCXCXCXCXCXCXCXCXnXnXnXnXnXzXzXzXxXxXxXxXxXgXgXhXUX7.u % @ . . o o o o . . . . o o X o X X . . O . o .   O O O L Q Q Q W W W :.:.:.:.:.<.>.h.@.+.:XGX0X>XCXDX,X9XiXiXlXxXiXiXiXiXiXiXiXiXiXiXxXxXxXxXzXzXCXCXBXBXCXCXCXCXCXCXCXCXCXCXGXJXJXJXGXFXFXCXCXCXFXFXJXKXKXKXKXJXLXJXKXKXFXFXHXnXBXBXBXmXmXmXmXmXiXuXyXtXtXyXtXtX5X5X6X6X=X%XOX/./.'.'.'.].].`.`.].].].'./.'.5XdXPXPXPXKXKXHXHXKXKXmXmXmXmXiXiXiXiXiXyX",
"0X0XyX0XuX9X9X9X9X9X7X5X4X7X9XyXiXiXiXiXiXiXiXiXiXiXiXiXiXiXiXiXxXiXqX9X7X:X7X7X7X9X0XqXiXxXxXmXmXnXHXHXFXGXGXGXGXGXGXGXGXGXGXGXGXGXGXGXGXGXGXGXGXGXGXGXGXGXGXGXGXGXGXGXGXGXGXGXGXGXGXGXGXGXGXGXGXGXGXGXGXGXGXGXFXFXCXCXCXnXnXnXnXnXzXzXzXxXxXxXxXxXgXgXhXMX.XG 2 o $ @ X o o o O O O O O o . O O O O O     X X o O O 8 9 Q R U W W W :.:.:.:.:.<.>.=.&.^ +.8XCXqXqXlXbXzXlXlXvXxXxXiXiXiXiXiXiXiXiXiXxXxXxXxXzXzXCXBXzXzXzXBXCXCXCXCXCXBXCXCXFXJXJXGXFXCXCXFXFXFXFXFXFXFXFXFXFXKXKXKXHXHXHXnXmXiXiXiXiXiXiXiXiXiXyXtX5X5X5X5X5X6X6X6X=X&X&X/././././.`.`.`.`.`.'.^.^.^.`.'.5XpXPXPXPXPXKXKXHXHXKXKXmXKXKXKXmXmXmXBXHXBX",
"9X9X9X9X9X7X5X5X-X-X*X*X5X5X7XyXyXiXyXyXyXyXyXiXiXiXiXxXsXmXmXmXmXmXxXiX0X9X9X7X9X9X0XqXiXxXxXmXmXmXmXHXFXGXGXGXGXGXGXGXGXGXGXGXGXGXGXGXGXGXGXGXGXGXGXGXGXGXGXGXGXGXGXGXGXFXMXGXGXGXGXGXGXGXGXGXGXGXGXGXGXGXGXGXFXFXCXCXCXCXCXCXnXnXnXzXzXzXzXzXxXxXxXgXhXhXhXb.x : $ $ o o o o o o o o O o o o o O O . . X X o o + + L M U E R E :.:.:.:.:.:.:.<.>.&.*.D A 8.8XGX0XqXcXvXxXlXiXiXiXiXxXxXiXxXxXxXxXxXnXnXzXvXBXCXCXBXzXzXzXzXBXBXBXBXCXBXCXCXCXJXJXGXFXCXCXFXGXGXFXFXFXFXFXFXFXFXGXGXHXnXmXiXiXqX9X9X0X0X9X0XyX9XtX5X6X6X6X6X6X6X&X'.'.'.'././.^.^.^./._.[.`.'.'.T.^._.].4XpXPXPXPXPXPXGXGXHXHXHXmXVXVXnXBXmXmXBXmXmXHX",
"-X-X*X*X*X;X;X;X;X;X;X*X5X5X7XyXiXiXyXyXyXyXyXyXyXiXiXiXiXiXiXiXmXmXmXxXiXiXiXqXqXqXiXxXnXHXFXHXHXHXHXHXHXFXCXFXFXFXCXCXFXZXZXZXMXMXZXZXZXMXMXMXMXFXFXMXMXMXMXZXZXZXZXZXZXMXMXMXFXFXFXFXFXMXMXMXMXMXMXMXMXFXFXFXFXCXCXCXCXCXCXCXnXnXzXzXzXvXzXzXxXlXgXgXhX8XjXkXO.l : o 8 + O + o o o o + 8 7 6 f 9 L 7 : 7 : 8 8 L m M T T E T :.:.:.:.:.:.:.:.<.>.*.G H v C 3.zXbX0XDXlXlXyX0X7X7XqXiXxXxXvXBXBXnXnXBXBXCXCXCXCXBXzXzXzXzXzXzXzXzXzXBXzXCXCXCXGXGXGXFXCXCXFXFXFXFXFXFXFXFXBXBXHXHXHXnXmXiXiXqX9X7X4X4X7X5X5X5X4X4X6X&X&X%X&X&X&X'./.^.^././.^.Q.^.^.^.^._.`.`.`.^.'.6XtXpXKXPXLXPXPXKXKXHXmXmXmXmXmXVXmXmXmXmXmXmXmXHX",
"uXyXyXyXyXuXuXuXuXyXyXyXyXmXmXmXiXiXyXyXyXqX0XqX0X0X0XqXqXqXiXiXxXmXnXnXnXxXnXxXnXBXBXHXHXKXKXHXHXHXmXmXmXxXBXBXFXCXzXnXnXZXZXZXnXzXzXzXzXnXnXnXnXnXnXnXnXZXzXzXzXzXzXnXnXnXnXnXnXnXnXnXnXnXnXZXCXCXCXCXCXMXMXMXMXZXZXMXMXCXCXCXnXnXnXnXzXzXvXzXxXlXgXgXhXhXfXG.k.Y M m 9 7 7 L 9 m M M M M Y Y Y Y Y Y Y Y Y Y Y Y Y -.-.-.T -.*.-.<.;.;.1.<.>.;.>.*.I J N x c 7.0XlX:XSXlXlXqXqX0XiXiXxXBXBXSXSXBXBXBXBXSXSXBXvXxXiXiXiXxXxXnXnXnXnXnXzXzXzXBXBXBXBXCXCXCXCXHXHXHXCXCXCXBXBXBXHXHXHXBXBXxXxXiX0X7X*X*X*X&X&X*X*X=X&X'./././.'.'./.^.^././././.^.^.^.^.^./.'.'.&X6XrXuXdXHXHXHXKXPXKXHXBXxXxXmXmXmXmXBXmXnXnXnXmXmXmXHX",
"VXVXVXmXvXmXpXpXpXvXmXmXmXHXBXmXiXiXiXyXyXqXqX0X0X9X9X9X9X0XqXiXiXxXnXnXBXBXBXBXFXFXFXHXHXHXHXBXmXsXiXiXiXiXxXnXnXzXbXbXbXbXbXgXgXgXgXgXgXqXqXqXqXbXbXbXbXxXxXxXxXxXxXzXzXnXnXxXbXbXbXbXbXxXzXnXCXCXCXCXCXZXZXZXZXnXnXZXZXCXCXCXnXnXnXnXnXzXzXvXvXzXxXgXjXhXfXF.,.T Y M M M M I Y Y Y Y Y U U U U U R R R R R R R T E T Y I M m m M H Y 1.<.<.>.>.&.O.H Z V c c g }.9XGXyXxXxXxXbXiXiXxXxXvXBXBXBXBXBXBXBXBXBXvXiX0X0X0XqXiXxXxXxXxXxXxXxXzXzXzXxXxXxXzXBXCXCXCXCXBXzXBXBXBXBXBXHXHXHXHXBXBXBXBXxXyX5X;X&XOXOXXXXX/./././.^.^././.`.'.'.&X&X&X&X&X&X=X&X&X=X5XuXuXdXpXVXVXHXHXHXFXHXFXmXxXiXiXiXiXmXmXBXBXBXnXnXBXBXmXBX",
"PXPXPXPXPXmXmXmXmXmXmXBXBXHXBXmXiXiXyXyXyXqXqX0X9X9X9X9X9X9X0XqXiXxXnXnXBXBXBXBXFXBXBXBXBXmXiXiXqX0X0X9X9X0XqXiXiXqX0X0X0X0X0XqX0X0X0X0X0X0X0X0XqXqXqXbXbXxXxXnXzXzXzXzXzXzXzXgXqX0X0X0X0XqXbXzXnXnXnXnXnXnXnXnXnXnXnXnXnXzXzXCXnXCXCXnXnXnXBXvXvXBXnXjXjXhXfXF.,.;.T T T Y Y Y Y Y Y Y T R R R R E E E E E E E E E E Y M 7 o O o O 8 9 Y ,.,.>.>.*.I G B B N y x p a.:XzXlXlXxXxXxXxXxXxXvXBXBXBXBXBXBXBXBXvXiX0X7X7X7X0XxXxXxXxXxXxXxXxXxXxXzXxXxXxXzXBXBXBXBXzXzXzXzXzXnXBXBXBXBXBXBXBXBXBXBXmXiXyX7X*XOXXXXXXX/./.%X%X%X&X6X6X6X5XtXuXuXuXuXuXuXuXuXuXiXiXVXVXHXHXHXBXHXHXHXHXHXHXnXxXxXxXmXmXHXHXHXHXHXBXBXBXBXBXBX",
"PXPXLXLXLXmXmXmXmXmXmXVXBXHXBXmXxXyXyXyXyXiXqX0X9X9X7X7X4X4X9X9XqXxXnXnXBXBXBXBXBXBXBXBXmXiXqX9X7X9X7X7X7X7X9XqXiXqX0X9X8X9X0X0X0X0X8X0X0X0X0XqXqXqXbXxXzXzXxXzXzXzXzXxXzXnXxXbXqX0X9X9X0XqXqXbXxXxXzXnXnXzXnXnXnXzXzXnXzXxXxXnXCXCXCXCXCXnXnXBXBXCXZXjXjXhXfXF.,.<.;.T T T T Y Y T T T T T E E E E E E E E E W E R Y M 7 o o o o   O o M &.,.=.*.*.H J n c c g x p 0 oX9XyXbXlXxXxXxXxXxXxXxXvXBXBXBXBXBXxXiX0X9X7X7X7X0XiXxXxXxXxXxXxXxXxXxXxXxXxXxXzXBXzXzXzXzXxXxXxXzXmXBXBXBXBXBXBXBXBXBXBXBXmXiXyX9X*X*X*X*X*X-X5X5XyXuXdXdXdXpXKXKXKXKXKXKXKXHXHXVXmXmXHXHXBXBXBXSXHXHXHXHXGXGXHXBXBXBXHXHXHXHXHXHXBXBXBXBXBXBXBX",
"PXHXBXmXmXBXmXvXiXmXmXmXmXmXmXmXxXyX9XyXyXqX0X9X9X5X4X*X4X*X4X9XqXxXxXnXnXzXzXBXBXmXxXmXiXqX9X7X7X7X7X>X*X7X7X9XqXbXiX0X0X0XqXgXbXbXbXbXbXbXbXbXbXxXzXzXzXzXxXnXnXzXzXzXxXzXxXxXxXbXqXqXqXbXbXxXxXxXxXnXnXnXnXnXnXnXnXnXnXnXnXnXCXCXCXCXMXZXMXZXZXZXnXjXjXkXfXF.,.<.;.;.;.;.E T T ;.;.;.;.E E E E E E E E E E R R R Y 9 + O O O   $ . O 6 O.&.*.O.H J Z v c d g r y g w 7.bXCXbX9XxXiX0X0XiXxXxXBXBXvXxXiXyX9X>X7X7X9XyXiXlXlXxXxXxXxXxXxXxXxXvXxXvXvXvXvXvXvXvXxXxXxXzXvXzXnXnXBXBXBXBXBXBXBXBXnXxXxXxXiXqXqXqXqXyXiXiXiXVXHXPXPXPXPXPXPXPXPXPXPXKXKXKXHXHXFXFXHXCXBXCXCXHXCXFXFXGXGXHXHXHXBXBXBXBXBXBXBXBXBXBXBXBXBXBX",
"HXHXBXmXxXmXxXiXyXyXyXiXiXiXiXiXiX9X9X9X9X9X9X4X4X&X&XOX*X*X7X9X0XiXxXxXxXxXxXxXxXxXiXiXiX0X7X7X4X>X>X*X;X*X7XqXiXxXxXbXgXbXxXnXnXZXzXzXzXnXnXnXnXnXZXnXnXnXzXnXnXzXzXBXzXnXzXnXCXCXnXnXzXzXnXnXnXnXnXCXCXCXCXCXCXZXZXnXCXCXCXnXCXCXCXCXMXZXZXZXZXnXjXjXjXkXfXF.,.<.:.;.;.;.;.;.;.;.;.;.;.E E E E E E E E E R R U U Y 9 + O O O   @ X   : H %.O.H H J B v l b q u g y q c }.qXzX>XbXiXqXiXiXxXvXvXvXiXyX0X9X>X:X7X9XyXlXxXlXiXxXxXxXxXxXxXxXxXxXlXxXxXvXvXzXvXvXvXvXvXvXvXnXnXBXBXBXBXBXBXBXnXnXnXnXnXBXBXBXBXHXFXSXSXHXHXPXPXPXKXKXHXHXHXHXJXKXFXFXFXFXFXFXFXFXFXSXSXSXCXCXCXFXFXHXHXHXFXBXBXBXmXmXmXBXBXBXBXBXBXBXBXBX",
"BXmXmXxXxXiXiXyX9X>X>X>X>XiXiXyXiX7X4X4X4X4X4X*XOXOXXXOX&X4X9X0XqXiXiXiXiXiXiXxXxXiXiXiXiXqX9X9X7X7X7X:X*X:X7XqXiXxXxXxXxXxXnXFXCXCXCXCXCXCXCXZXCXCXCXCXnXnXnXnXnXBXBXFXHXCXCXCXCXCXCXGXCXnXnXnXnXnXCXCXCXCXCXCXFXCXCXZXZXZXCXCXCXCXCXCXMXZXZXZXZXnXjXjXkXkXfXF.1.<.<.:.;.;.;.;.;.;.;.;.;.E E E E E E E E R R U U U Y 9 + O O O .     X : v ` O.G G Z n v c d d r d q p 0 ~ }.bX8XqXqXiXiXxXxXvXxXiXyX9X7X>X:X:X7X0XiXxXlXxXlXxXxXxXxXxXxXlXlXlXlXlXlXxXlXlXxXvXvXvXvXBXBXBXBXBXBXBXBXHXBXBXBXBXBXCXCXHXHXGXFXFXGXGXGXGXGXGXHXHXHXHXGXGXGXJXGXGXGXGXFXFXFXFXMXMXFXHXBXBXBXFXFXFXFXHXHXHXFXBXBXBXmXmXBXBXBXBXBXBXBXBXBXBX",
"iXiXiXiXiXiXyX0X9X;X;X;X;XyXyXqX0X4X4X4X4X&XOXOX/./.XXOX*X4X0X0XyXqX0XiXiXiXiXxXmXmXBXHXBXmXxXiXiXiXiXyX9X7X9XqXiXxXxXxXxXnXnXFXFXCXCXCXCXCXFXZXCXCXCXCXnXnXnXnXnXBXCXGXGXFXFXFXFXCXCXFXFXFXCXCXCXnXnXCXCXCXCXCXFXCXCXZXZXCXCXCXZXZXZXZXZXZXZXZXMXnXjXjXkXkXL.F.1.,.<.<.:.;.;.;.;.;.;.;.;.E E E E E E E E R U U U U Q 9 O O O O .   . X @ r D H D D B n b c d d r 3 y q p 0 +.:XbX9X0XiXxXxXiXiXiXyX9X>X>X:X:X:X9XiXiXiXiXiXiXxXxXxXxXxXiXlXlXlXlXlXlXlXlXlXlXxXvXvXvXvXvXBXBXBXBXBXBXHXBXBXBXBXFXHXHXHXHXFXFXFXCXCXFXCXHXHXSXHXHXGXGXGXGXJXJXGXGXGXGXFXMXMXnXmXmXBXBXBXBXBXBXFXHXCXCXHXFXBXBXBXmXvXvXBXBXnXnXBXBXBXBXBX",
"iXiXiXiXiXiXyXyX7X*X*X*X*X7XqXqX9X*X&XOXXX/./././.(.(.XX*X9X0XqXiX0XqXiXmXmXmXmXmXHXHXHXHXVXVXVXmXmXmXmXiXiXiXiXiXxXmXBXBXBXBXFXFXCXCXCXCXBXBXBXnXBXBXBXBXBXBXBXBXBXBXBXFXFXFXFXFXFXFXFXFXFXBXBXnXnXxXnXnXCXCXCXHXFXCXCXCXCXCXCXZXZXnXnXnXnXnXnXnXnXjXjXkXP.L.F.F.1.,.<.<.<.<.<.;.;.;.;.;.;.E E E E E E E U U Q Q Q Q M O O O O X X . @ & 1 c D G V B N v c x d r u u u u y g 7.gX9XxXBXiXiXyX9X:X*X;XXXoX*X:X7X0XiXiXiXiXiXiXxXxXxXxXxXxXlXlXlXlXlXyXlXyXyXlXlXxXvXvXvXvXnXnXBXBXHXHXHXHXHXBXHXHXHXLXLXLXFXFXFXFXHXBXHXFXFXFXFXFXGXGXGXGXGXGXGXFXZXZXCXnXnXnXnXnXmXmXmXmXnXnXHXFXFXFXFXBXBXBXBXnXvXvXvXBXnXBXBXBXBXBXBX",
"iXiXiXiXiXiXyXyX9X7X9X9X9X9XiXiX9X;XOXXX(.Q.Q.Q.Q.E.E.(.&X5X9XqXiXiXiXmXBXHXHXHXHXHXHXHXVXVXmXmXmXmXmXVXVXKXKXKXKXHXHXHXHXFXFXFXFXCXBXBXnXnXnXnXnXBXBXBXBXBXnXnXnXnXnXBXBXBXBXBXBXBXBXBXBXBXnXnXxXxXxXnXBXzXzXCXCXHXCXCXnXBXBXCXnXnXnXnXnXnXnXnXnXnXjXjXkXL.J.F.F.v.,.,.<.<.<.<.<.;.;.;.;.;.;.E E E E E U U U Q Q Q Q M L O O O . X .   @ % e v V V V B v c x d d u u u u q g V oXqX0X0XiX9X*XoX|.oX;X;X*X:X7X0XiXiXiXiXiXiXiXiXiXxXxXxXxXlXlXlXlXlXyXyXiXiXlXlXxXxXxXvXvXnXnXBXBXHXHXHXHXHXHXHXHXHXKXKXKXFXFXFXFXFXHXHXFXFXFXFXFXGXGXGXGXGXGXFXCXnXnXnXnXnXnXmXmXmXmXmXmXmXmXnXnXBXBXBXBXBXBXBXnXBXvXBXBXBXBXBXBXBXBXBX",
"iXiXiXiXiXiXyX0X9X7X9X9X9X9XqX0X9XOXXX(.E.Q.Q.E.p.p.E.XX*X9XyXiXsXmXBXHXHXHXHXHXVXVXVXVXmXmXpXpXiXiXpXVXHXKXKXKXKXKXKXKXHXHXHXHXFXFXBXBXnXnXnXnXnXBXBXBXBXxXxXxXxXxXxXxXxXxXxXnXnXnXnXnXnXnXxXxXxXxXxXnXBXzXzXCXHXCXBXnXnXzXzXnXnXnXnXnXnXnXnXnXnXjXjXkXkXL.J.F.F.c.k.,.,.<.<.<.<.:.;.;.;.;.;.E E E E R U U U U U Q U Y M 8 O O O X X     $ : u c V V V v c c x d u u u u u y w ' 8X9X7X9X*XoX|.}.*X:X:X:X7X9XyXiXiXiXiXiXiXiXxXxXxXxXxXxXxXxXlXbXlXyXlXlXlXlXxXvXBXBXBXBXBXBXFXHXHXHXHXHXHXHXHXHXHXHXHXHXHXHXHXHXHXHXHXHXHXHXHXFXFXFXFXFXFXFXnXnXxXxXxXxXxXxXnXxXxXxXmXxXmXmXnXmXnXxXmXnXBXnXBXBXBXBXBXBXBXBXBXFXBXBXBX",
"iXiXiXiXiXiXyX9X7X*X*X*X*X;X7X4X+XXX/.Q.Q.p.u.u.p.E. X*XyXiXmXBXHXKXHXHXBXmXmXmXpXpXpXpXpXiXiXiXiXiXpXVXHXHXKXKXKXBXBXBXBXHXHXHXHXFXFXFXHXHXFXFXFXFXFXBXBXxXxXxXxXiXiXxXxXxXxXnXnXnXxXxXxXxXxXxXxXxXxXxXnXzXBXBXCXBXzXzXzXzXzXzXzXnXnXnXnXZXnXnXnXjXjXkXkXL.J.G.F.F.v.k.,.,.,.,.<.<.:.:.;.;.;.E E E T R U U U U U U U U Y M 7 o O X X X X % : 1 t c V V v v c x g u u u u y < w y s.gXqX*X*X;XoXXX7X7X7X>X9X9XyXyXiXiXiXiXiXiXxXxXxXxXxXxXxXxXlXbXbXlXlXxXxXxXvXvXSXSXSXSXBXBXFXHXHXHXHXHXHXHXHXHXHXHXBXBXHXHXmXmXHXHXHXHXHXHXHXHXFXFXFXFXFXnXnXxXxXiXxXxXxXxXxXxXxXxXxXxXmXmXnXmXxXxXxXxXnXnXBXBXBXBXBXBXBXBXBXFXFXFXFX",
"iXiXiXiXiXiX0X9X>X*X>X*X4X9X*X+X;XXXE.p.u.u.E.(./.&X9XiXBXHXHXPXHXHXHXmXmXiXpXsXiXpXiXiXiXiXiXpXpXpXpXpXpXpXpXpXiXpXpXmXmXVXVXVXHXHXHXHXHXHXHXHXHXHXHXHXBXVXpXiXiXiXiXiXiXiXxXxXnXxXxXxXxXxXxXxXxXxXxXxXnXvXvXBXBXBXzXnXzXzXzXnXnXnXnXnXnXnXnXnXMXjXjXjXkXP.J.G.F.F.c.v.k.k.,.,.,.<.:.:.;.;.;.E E T T T T R U U U U U U T Y M t o     X $ o % 2 5 z v N v v c c x g d u u q y q y V +XiX:X>X>X>X7X0XyXyXyX0X0XyXyXiXiXiXiXiXiXxXxXxXxXxXxXxXxXxXxXxXxXvXvXvXvXBXcXBXcXSXSXBXBXHXHXHXHXHXHXHXHXHXHXBXBXBXmXmXmXVXVXmXmXHXHXHXHXHXHXBXBXBXBXnXnXnXxXxXxXiXxXxXxXxXiXiXxXxXxXmXmXmXmXmXmXBXmXmXBXBXBXBXBXBXBXBXBXBXFXHXHXHX",
"iXiXiXiXiXiXiXyX9X9X9X9X9X4X*X+XoX(.(.XXOX4X9XyXiXvXVXHXHXHXHXVXVXVXmXiXiXiXiXiXiXiXiXiXiXiXiXiXuXpXpXpXpXiXiXiXiXiXiXsXpXpXmXmXmXBXBXHXHXBXBXHXHXHXHXPXHXHXVXpXiXiXiXiXiXiXxXxXxXxXxXxXxXiXxXxXxXxXxXnXnXvXvXzXzXzXzXnXzXzXzXnXnXnXnXnXnXnXnXnXMXjXjXjXkXP.H.G.F.F.c.v.k.k.,.,.,.<.<.<.;.;.;.E T T T T T T T T T R R E T ;.-.H f o X o X X $ : , u x v v v v c x x d u r q r q w g / xX0X9X9X0XyXyXiXiXiXyXyXiXiXiXiXxXxXxXiXxXxXxXxXxXxXxXxXzXzXvXvXBXvXSXSXSXSXSXSXSXSXBXBXSXFXHXHXHXHXHXHXBXBXBXBXBXHXVXVXHXHXHXmXHXHXmXmXmXnXnXnXnXnXnXnXnXnXxXxXxXxXnXxXxXqXqXqXqXxXxXxXmXmXBXBXBXBXmXmXmXBXmXBXBXBXBXBXBXBXHXFXBX",
"iXiXiXiXiXiXiXiXyXyXyXyXyX9X7X7X4X4X7X9XiXVXVXPXHXBXBXmXBXBXBXVXmXmXiXpXyXyXyXuXuXuXuXiXpXpXyXyXyXuXuXuXuXuXuXuXyXiXiXiXiXiXiXpXpXmXmXmXVXmXmXmXmXBXHXPXPXPXHXVXvXiXiXvXiXiXiXiXiXqXqXqXqXiXxXxXxXxXxXnXnXBXBXBXBXBXBXnXnXnXnXnXnXnXnXnXnXnXnXnXjXjXjXkXkXfXH.J.G.Z.c.k.k.k.k.,.,.<.<.<.;.;.;.E T T T T T -.T T T E E E ;.;.,.&.J l : o   o o % 2 e d c N v v v c g g u r q r q w p c }.iXyXyXyXiXiXiXiXiXiXiXiXiXxXxXxXxXxXxXxXxXxXnXBXBXBXCXCXCXBXBXBXvXvXSXSXSXSXSXSXSXBXBXBXBXFXFXHXFXBXBXHXBXmXmXBXBXHXHXHXHXHXHXHXHXHXmXmXHXnXnXnXmXnXnXnXnXnXnXnXnXnXxXxXqXqXiXxXxXxXxXmXmXBXBXBXBXmXBXBXmXBXmXBXBXBXBXBXBXBXxXiX",
"iXiXiXiXyXiXxXxXiXiXiXiXsXmXmXmXmXKXKXHXVXVXpXmXpXvXvXmXmXmXpXpXiXiXpXyXyXyXyXyXyXuXuXuXyXyXyXyXyXyXyXyXyXyXyXyXyXyXyXyXyXiXiXiXiXiXpXpXmXiXiXiXxXmXmXHXHXHXHXHXBXmXvXiXiXxXiXiXiX0X0XqXiXiXxXxXxXnXnXBXBXBXBXBXBXBXBXnXnXnXnXZXZXZXnXnXnXnXMXnXjXjXjXkXkXfXH.J.G.Z.c.k.k.k.k.,.,.<.<.<.<.;.-.;.T T T T T -.-.T T :.:.:.:.<.<.>.&.H l o O . X $ : 1 u z c v v v c x g d u q r q w ; h / 0X0X0XyXyXiXyXiXiXiXiXxXxXxXxXxXxXxXxXxXxXxXnXBXBXCXCXCXCXBXvXvXvXBXSXSXSXSXSXSXSXBXBXxXxXBXBXBXBXBXBXHXBXBXmXBXBXHXHXHXHXHXHXHXHXHXHXHXHXnXnXnXmXnXnXnXnXBXBXBXBXnXxXxXxXnXnXnXnXmXmXmXmXBXBXBXBXmXBXBXBXBXBXBXBXBXBXBXnXxXiXiX",
"iXiXiXyXqXiXxXmXmXvXmXVXHXPXPXPXPXPXPXHXVXmXpXpXpXpXpXpXpXpXpXiXpXuXyXyXyXuXuXuXyXuXuXuXuXuXuXuXuXuXuXuXyXyXyXyXuXyXyXyXyXyXyXiXiXiXiXiXiXiXiXiXiXiXxXmXmXBXBXBXBXVXVXVXvXmXpXiXiXiXxXxXxXxXxXxXnXzXBXBXBXBXBXBXBXBXBXnXnXnXBXMXFXCXCXCXZXZXMXMXjXjXjXkXkXP.L.J.G.c.c.k.k.k.k.,.,.<.<.<.;.;.-.-.-.-.;.;.;.;.;.;.;.;.;.:.<.<.,.,.>.=.Y l o O X # X > 5 d x c v v c x x d d g r q w q 0 N 9XyXlX9XlXiX9XiXiXiXiXxXxXxXxXxXxXxXxXxXxXvXBXBXBXBXBXBXBXBXvXvXvXvXBXBXBXBXBXBXBXnXxXxXxXxXnXBXnXBXBXBXBXBXBXHXHXHXHXHXHXHXHXHXHXHXHXHXBXBXBXBXBXFXFXFXFXFXFXBXBXBXBXnXnXBXBXmXmXiXiXiXiXiXiXiXiXiXiXxXmXmXmXmXBXBXmXiXiXiXqX0X",
"iXiXiXyXqXiXxXmXBXHXHXPXPXPXHXKXHXVXmXiXiXpXpXpXiXiXiXiXiXpXpXyXyXuXtXtXuXuXuXuXtXtXuXuXuXuXuXuXuXtXtXtXtXtXtXtXuX9XyXyXyXyXyXyXyXiXiXiXyXyXiXiXiXiXiXiXiXiXiXvXmXvXvXBXBXVXVXmXmXBXBXBXBXFXnXnXnXBXCXCXCXBXBXBXBXBXBXnXnXxXxXnXnXCXZXZXnXzXgXjXjXjXkXkXfXL.L.J.G.c.c.k.k.k.k.,.,.<.<.<.;.;.;.;.;.;.;.;.;.;.;.;.<.<.<.<.<.<.,.,.,.,.=.J 7 o   . . : 1 r z c c c c c c x d g q w q w 0 p 3.lX9XyX>XyXyXmXyXiXxXmXmXxXxXxXxXxXxXxXnXBXBXvXvXBXvXxXxXxXxXvXvXvXxXBXBXnXnXnXxXxXxXxXxXxXnXBXBXBXBXBXBXHXHXBXHXHXHXBXBXHXHXHXHXHXHXHXBXFXFXHXHXHXHXHXHXFXFXBXnXBXFXBXBXiXqXqX0X9X9X9X7X7X7X7X7X7X7X9X0XyXqXqXiXiXqX9X7X7X7X7X",
"xXxXxXxXxXmXmXHXHXHXHXHXBXmXmXmXsXsXsXiXiXiXiXiXpXpXpXpXpXpXyXyX9XuXuXuXuX9X9X9XtXtXtXtXtXtXtXtXtXtXtXtXtXtX9X9X9X9X9X9XyXyXyXyXyXyXyXyXyXyXyXyXyXiXiXiXiXiXiXiXiXpXvXVXBXBXVXBXBXBXBXBXBXBXnXnXnXzXzXzXzXxXxXxXxXxXxXxXxXxXiXxXnXnXZXZXnXzXgXjXjXjXkXkXL.L.J.G.F.c.c.k.k.k.k.,.,.<.<.<.<.;.;.;.;.;.<.<.<.<.<.<.<.<.<.<.,.,.,.,.,.k.k.*.B > X   X @ 2 e d x c v v v c c x g q w q q 0 0 A >X:X9X:XyXyXmXiXiXmXmXmXnXxXxXxXvXBXnXnXvXvXxXlXlXiXiXiXxXxXxXxXxXxXxXxXxXxXxXiXiXiXxXxXxXxXnXnXBXBXBXBXBXBXBXBXBXmXiXiXiXmXmXmXmXmXBXBXBXBXBXBXFXFXFXBXBXxXxXiXxXxXxXxXqX9X7X7X7X7X*X;XoXoXoXoXoX+X*X*X7X7X7X7X7X7X:X:X7X*X*X",
"BXBXHXHXHXHXHXHXHXBXmXxXiXiXvXsXiXiXiXiXiXpXpXpXuXyXyXyXyXyXuXuXuXuXuXuXuX9XtXtXtXtXtXtXtXtXtXtXtXtXtXtXtXtX9X9X9X9X9XuXuXuXuXyXyXyXyXyXyXyXyXyXyXyXyXiXiXiXiXiXiXiXiXvXpXmXVXHXBXBXBXBXBXnXxXxXxXxXxXxXxXxXxXiXiXiXiXxXxXxXxXnXnXCXZXZXZXMXjXjXjXjXkXfXH.J.J.G.F.c.c.k.k.k.k.,.<.<.<.<.<.<.;.;.;.<.<.<.<.<.,.,.,.,.,.,.,.,.,.k.k.v.Z.>.*.b : X o X - 1 r g c v v v v c c g q w q < 0 0 h |.:X:XyXlX9XiXiXxXxXmXmXnXnXBXnXBXBXnXxXvXxXiXiXiXiXiXiXiXiXiXiXiXiXiXiXiXiXxXiXqXiXxXxXxXxXnXnXnXnXBXBXFXFXBXBXmXxXqX0XqXqXyXyXiXxXxXxXxXiXiXxXiXiXiXxXiXiX0X0X7X0X0X0XqX0X9X9X9X7X*XXX}.}. X X X XXXoX+X+X+X;X*X*X*X:X:X*X+X",
"SXHXHXPXPXHXHXBXmXmXvXiXiXiXiXiXiXiXpXuXiXiXiXiXyXuXuXuXtXtXtXtXtXtXtXtXtXtXtXtXtXtXtXtXtXtXtXtXtXtXtXtXtXtXtXtXtXtXtXtXuXuXuXuXuXuXuXuXuXuXuXuXuXyXyXpXpXpXpXpXpXpXyXpXpXxXBXBXHXBXBXBXBXxXxXxXxXzXxXxXxXxXxXiXiXiXxXxXxXxXnXnXnXCXCXCXZXMXjXjXjXkXkXL.H.H.J.G.F.c.c.v.k.k.k.,.,.<.<.<.<.<.;.<.:.:.<.,.,.,.,.,.,.,.,.,.,.k.c.c.k.h.h.l.h.H 4   $   $ 1 e u x x x c c v c x u r q < 0 q w ' zX;XlXBXiXiXmXxXiXxXxXxXxXBXnXvXxXxXlXlXiXiXiXiXiXiXyXiXiXiXiXiXiXiXiXiXiXiXiXiXiXxXxXnXnXnXnXnXnXBXBXBXBXxXxXiXqX7X7X7X9X9X9X0XqXiXiX0X7X:X*X:X7X7X7X7X7X7X:X:X7X7X7X0X0X0X9X9X*XoX}.E.E.E.(. X(.(.XXoXXXXXOX*X*X7X7X7X*XOX",
"BXBXBXBXBXmXmXiXiXiXiXiXiXiXiXiXiXpXyXtXyXyXyXyXtXtXtXtXtXtXtXtXtXtXtXtXtXrXrXrXtXtXrXtXtXtXtXrXtXtXtXtXtXtXtXtXtXtXtXtXtXtXtXtXtXuXuXuXuXuXuXuXuXuXuXyXyXyXyXpXpXyXyXyXyXiXxXBXBXBXBXBXBXBXBXBXBXzXzXxXxXxXxXxXxXxXxXnXnXnXBXnXnXnXnXnXnXMXjXjXjXkXfXH.H.J.G.F.F.c.c.v.k.k.,.,.,.,.<.<.<.<.:.:.:.<.<.,.,.,.,.,.k.,.,.,.k.c.k.k.x.z.l.h.h.%.k X   . # : 3 u g x x x x c c x d r q < 0 q q C gX>X9XyXiXxXiXiXiXiXiXiXxXxXxXiXiXiXiXiXyXyXyXyX0XyX0XyXyXiXiXiXiXiXiXiXiXiXiXiXxXxXnXnXnXnXnXnXxXxXxXxXqX0X7X7X7X*X*X*X7X7X7X0XqXiXiX0X7X+XXXoX+X*X*X:X*X:X*X:X7X7X0X9X9X9X7X*XoX}.E.a.E.E. XXX X XoXOXXXXX+X*X7X7X9X7X7X*X",
"xXxXiXiXxXiXiXiXyXiXiXiXiXiXyXyXyXyXtXtXtXtXtXtXtXrXrXrXrXrXrXrXrXtXtXtXtXrXtXrXrXrXrXrXrXrXrXrXrXrXrXrXrXtXtXtXrXtXtXtXtXtX9XtXtXtXtXuXuXuXuXuXuXuXuXuXuXyXyXyXyXuXyXpXyXyXpXiXBXBXBXBXBXBXBXBXBXBXBXmXvXxXxXxXxXnXBXHXBXBXBXnXnXnXnXnXnXjXjXjXkXkXH.H.J.J.F.F.c.c.c.v.k.,.,.,.,.,.<.<.<.<.<.<.<.,.,.,.,.k.k.k.k.k.k.k.k.c.k.k.x.x.z.l.h.&.v $ X X . $ 3 y g x c x x x x c x u q q q 0 0 y 5.bXqX9XiXiXyXqXqX0X0XqXqXiXiXiXiXiXiXiXiXiXyXyXyXyXyXyXyXiXiXiXiXiXiXxXxXxXxXxXxXnXnXnXnXxXxXiXiXiXiX0X7X7X:X:X7X7X9X9X9XqXqXiXiXiXiXiX0X7X:X7X7X7X7X7X7X9X7X0X0XqXiXiX0X7X7X;XoXXXoXXXoX+X*X*X;X;X4X4X*X*X4X7X7X9XqX0X9X9X",
"iXiXiXiXiXiXiXiXiXiXiXiXiXyXyXyXtXtXtXtXtXtXtX5X5XrXrXrXrXrXrXrXrXtXtXtXtXrXrXrXrXrXrXrXrXrXrXrXrXrXrXrXrXrX5X5X5XrXrXrXtX9X5X9X9XtXtXuXuXuXuXuXuXuXuXuXuXuXuXuXtXuXuXyXyXyXyXpXiXmXBXHXBXFXFXHXHXHXBXmXvXxXxXnXnXnXBXHXBXBXBXnXnXnXnXnXnXjXjXjXkXfXH.H.G.F.F.F.c.c.c.v.k.,.,.,.,.,.,.,.,.<.,.,.,.,.,.,.k.k.k.k.k.k.k.k.k.k.c.c.k.z.z.l.h.&.Z > X X . # > r d g x x x x x c x d r q q 0 < p A zX:XqX7X9XyXiXqX0X0X0X0X0XqXiXiXiXiXiXiXiXiXiXiXlXiXiXiXiXiXiXiXiXxXxXxXxXxXxXxXnXnXxXxXxXxXiXiXiXiXqX0X0X7X9XqXiXmXmXmXmXmXxXxXxXxXxXxXxXBXxXxXxXiXiXiXxXxXxXxXxXxXmXiXqX7X7X*X7X7X7X9X9XqX0X9X9XqX9X9X9X9X9X9XqXqXqXqXqX",
"0XyXyXiXiXiXiXiXiXpXiXiXiXuXyXuX5XtXrXrXrXrXrXrXrXrX5X5X5X5X5X5X5X5X5X5X5X5X5X5X5XrXrXrXrXrXrXrXrXrXrXrXrXrXrXrXrXtXtXtX5X5X5X5X5X9XtXtXtXtXtXuXuXtXtXtXtXtXtXtXtX9X9X9XuXuXyXpXiXiXmXBXBXBXHXKXHXHXHXBXBXmXmXBXmXBXBXFXHXHXHXFXFXZXMXMXjXjXjXkXkXP.L.J.G.F.F.F.c.v.c.v.k.k.k.k.,.,.,.,.,.,.,.,.,.,.,.k.k.k.k.k.k.k.k.k.k.k.k.k.k.z.z.h.h.>.Y f o X . # - r u d x c c c v c c g y r q q 0 0 p @XgXbX>X9XyXyX0XyXyXyXyXiXiXiXiXiXiXiXiXxXxXxXxXxXxXxXiXiXiXiXiXxXxXxXxXxXxXxXxXxXxXnXxXnXxXxXxXxXxXxXxXxXxXiXmXBXBXHXHXBXBXmXmXmXmXmXmXBXmXBXBXBXnXzXxXnXBXBXBXBXnXmXiXiXiXqXqXiXiXiXiXmXmXsXiXiXiXiXiXiXiXiXiXiXiXiXiXiX",
"0X0X0XyXyXyXyXyXyXpXpXuXuXuXyXtX5XrXrXrXrXrXrX5X5X5X5X5X5X5X5X5X5X5X5X5X5X5X5X5X5XrXrXrXrXrXrXrXrXrXrXrXrX5X5X5X5X5X5X5X5X5X5X5X5X5X5X9X9XtXtXtXtXtXtXtXtXtXtXtXtX9X9X9X9XuXyXyXpXyXiXmXmXBXBXHXHXHXHXKXHXHXHXHXHXHXHXFXHXHXHXFXCXZXMXMXjXjXjXkXfXP.L.J.J.G.F.F.c.v.v.v.k.k.k.k.,.k.,.,.,.,.k.k.k.,.,.k.k.k.k.k.k.k.k.k.k.k.k.k.k.z.z.h.h.>.*.m $ o . X - q g x c v v v v v v x u r i q q q y ' 0X9XqXiXyX0XyXiXiXiXiXxXxXxXlXlXxXvXvXBXBXnXnXBXzXzXxXxXxXxXxXxXxXxXxXxXxXxXxXnXnXnXxXBXnXBXBXBXBXBXBXBXBXBXBXBXmXBXBXBXBXmXmXmXmXmXmXmXmXBXBXBXBXnXnXnXnXBXBXBXnXmXxXxXxXiXxXxXxXsXmXmXKXKXmXmXmXmXsXmXmXmXmXmXmXmXmXmX",
"9X0X9X9XuXyXyXyXyXyXyXyXyXuXtXtX5XrXrXrXrXrXrX5X5X5X5X5X5X5X5X5X5X5X5X5X5XrX5X5X5XrXrXrXrXrXrXrXrXrXrXrXrX5X5X5X5X5X5X5X5X5X5X5X5X5X5X5X5XtXtXtXtX9X9XtXtXrXtXrXtX9X9X9XtX9XuXyXyXyXiXiXmXmXmXmXmXmXBXHXHXHXHXHXHXHXHXHXHXHXFXFXCXZXMXjXjXjXkXkXfXP.L.J.J.G.F.F.F.c.c.c.v.v.v.v.v.v.v.v.v.k.k.k.k.k.k.k.k.k.k.k.k.k.k.k.k.k.k.k.k.k.k.h.h.>.>.J : o . X - 3 x v v v v v v N v c d r i q q q w N 0X8XbXlXyXyXiXiXiXxXxXvXvXvXvXvXBXBXBXBXBXBXBXFXBXBXBXBXBXBXBXBXBXBXBXBXBXBXBXBXBXBXBXBXBXBXBXBXBXBXBXBXBXBXmXmXmXmXBXBXBXBXmXmXmXmXmXmXmXBXBXBXBXBXBXBXBXBXBXBXBXmXmXmXmXBXBXmXBXmXmXmXKXKXKXmXmXmXmXmXmXBXBXBXBXBXBXBX",
"9X9X9X9XuX9X9X9XuXuXtXtXtXtXtXrX5X5XrXrXrX5X5X5X5X5X5X5X5X5X5X5X5X5X5X5X5X5X5X5X5XrXrXrXrXrXrXrXrXrXrXrXrX5X5X5X5X5X5X5X5X5X5X5X5X5X5X5X5X5X5X5X5X5X5X5X5X5X5XtXrXtX9X9XtXuXuXuXuXyXyXiXiXiXiXvXiXiXmXmXHXBXHXPXHXHXHXHXHXHXBXBXnXZXMXMXjXhXfXfXP.P.L.J.J.G.F.F.F.F.c.c.c.c.c.c.c.v.v.v.v.k.k.k.k.k.k.k.k.k.k.k.k.k.k.k.k.k.k.k.k.k.k.h.h.=.>.H 6 o . X % 1 c V N N v v v B v c g r r q 1 < q q n.bXqXyXiXiXiXxXxXxXxXvXvXvXvXvXBXBXBXSXSXFXFXHXFXFXFXFXFXFXBXBXBXBXBXBXBXFXFXFXBXBXBXBXBXBXBXBXBXBXBXBXBXmXmXBXBXBXBXBXBXBXmXmXmXmXmXBXmXnXnXBXBXBXBXBXBXBXBXBXBXBXBXBXBXBXBXBXBXmXmXmXKXKXmXmXmXmXmXmXmXBXBXBXBXBXBXBX",
"9XuX9X9XuXuXuXuXtXtXtXtXuXuXuXrX5XrXrXrXrXrXrX5X5X5XrXrXrXrXrXrXrX5X5X5X5X5X5X5X5XrXrXrXrXrXrXrXrXrXrXrXrXrXrXrXrX5X5X5X5X5X5X5X5X5X5X5XrX5X5X5X5X5X5X5X5XrXrXrXrXtXtXtXtXtXtXtXuXuXuXyXyXyXpXiXiXiXiXiXiXmXHXHXHXHXHXHXBXBXmXmXnXZXGXMXjXfXfXfXL.L.L.H.J.G.G.G.F.F.c.c.c.c.c.c.c.c.c.v.k.k.k.k.k.k.k.k.k.k.k.k.k.k.k.k.k.k.k.k.k.k.k.h.h.=.=.I f o o X . : u v N N B B Z V V N c d i 3 1 2 < q ~ CX>XvXvXmXmXvXvXvXvXBXBXBXmXBXBXBXBXBXBXHXHXHXHXHXFXHXFXFXFXFXFXBXBXBXHXHXHXHXBXFXFXFXHXBXBXBXBXBXBXBXBXBXBXBXBXBXBXHXBXBXBXBXBXBXBXmXmXmXmXmXmXmXBXBXBXBXmXmXmXmXmXBXHXHXBXHXHXVXVXVXVXVXVXVXmXmXVXVXVXHXBXBXHXHXHXHX",
"9XuXuX9XuXuXuXuXtXtXtXtXuXuXtXrX5X5X5X5XrXrX5X5X5X5X5X5X5X5X5X5X5X6X5X5X5X5X5X5X5X6X6X6X6XrX6X-X-X-X-X5XrXrXrX6XrX6X6X6X6X5X5X5X5X5X5X5XrX5X5X5X5X5X5X5X5XrXrXrXrX5X5X5X9XtXtXtXtX9XuXuXuXyXpXyXiXiXiXiXiXiXpXmXBXHXHXBXvXmXxXxXxXnXGXjXhX3XfXfXL.L.L.H.J.G.G.G.G.G.G.Z.c.c.c.c.c.c.c.v.k.k.k.k.k.k.k.k.k.k.k.k.k.k.k.k.k.k.k.k.k.k.h.h.>.=.=.Y l # X . X - q g N N B B Z Z A Z V x u e 3 1 1 < c >XbXvXiXiXmXBXmXvXvXBXBXBXBXBXBXBXBXBXBXHXHXHXFXHXFXFXBXBXFXBXBXBXBXBXHXHXHXBXnXBXBXBXBXBXBXBXBXnXnXnXnXmXmXBXBXBXBXBXBXBXHXHXHXHXHXBXHXBXBXBXBXBXBXBXBXBXmXmXBXmXmXmXBXBXBXBXmXVXVXVXVXVXVXVXmXmXVXVXVXHXHXBXBXBXHXHX",
"9XtX9X9XtXuXuXuXuXuXuXtXuXuXtXrX5X5X5X5XrXrXrX5X5X5X5X5X5X5X5X5X5X5X5X5X5X5X5X5X5XrX6X6X6XrXrX5X-X-XrXrXrXrX5X6XrX6X6X6X6X5X5X5X5XrX5X5XrX5X5X5X5X5X5X5X5X5X5XrX5X9X5X9X9XtXtXtXtX9X9X9XuXuXuXyXyXyXyXyXyXyXiXiXpXmXmXpXiXiXiXiXqXgXjXjX3X3XfXfXL.L.H.H.J.J.H.H.G.G.G.G.Z.Z.Z.c.c.c.c.v.k.k.k.k.k.k.k.k.k.k.k.k.k.k.k.k.k.k.k.k.k.k.h.h.j.>.>.*.b - . O # @ 2 y v N B B Z Z D D D B z r e 1 1 < 0 8.DXvXiXmXmXmXmXmXmXBXBXBXBXBXBXBXBXBXBXHXHXHXFXBXBXBXBXBXBXBXBXBXBXBXHXBXxXxXiXxXxXxXxXxXxXxXiXiXiXiXiXiXiXiXiXiXiXmXmXmXmXBXBXBXBXmXmXmXmXmXmXBXBXBXBXBXBXBXBXBXmXmXBXmXmXmXmXVXVXVXVXVXVXmXmXVXVXVXVXBXHXHXHXBXBXBX",
"9XtXtXtXtXtXuXuXuXuXuXtXtXtXtXrX5X5X5X5XrX5X5X5X5X5X5X5X5X5X5X5X5X5X5X5X5X5X5X5X5XrXrXrXrXrXrXrXrX6X5X5X5XrXrXrXrX5X5X5X5X5X5X5X5XrX5X5X5X5X5X5X5X5X5X5X5X5X5XrX5X5X5X5X5X9XtXtXtX9X9X9X9XuXuX9X9XyXyXyXyXyXyXyXiXiXiXiXiXiXiXyXqXqXjXjX3X3X3X3XL.L.H.H.J.J.H.H.G.G.G.G.G.Z.Z.c.c.c.v.k.k.k.k.k.k.k.k.k.k.k.k.k.k.k.k.k.k.k.k.k.k.k.h.h.j.,.>.=.n - O   # @ ; q g N B B B Z D D D D c d r < < 0 q C bXxXBXmXmXmXmXmXmXBXBXBXBXBXBXBXBXBXBXHXHXHXFXBXBXBXBXBXBXBXBXBXBXBXBXmXxXxXiXiXiXiXiXiXiXiXiXiXqX0XqXqXqXiXiXiXiXiXiXiXiXiXiXiXiXiXiXqXyXiXiXiXiXiXxXxXmXmXmXmXmXmXmXmXmXmXmXmXmXVXVXVXVXmXVXKXVXVXVXmXmXHXBXBXBXBX",
"tXuXtXtXrXrXtXtXtXtXtXtXtXrXrXrXrX5X5X5X5XrXrXrXrXrXrXrX6X6X6XrXrX-X-X-X-X6X6X6XrXrXrXrXrXrX6XrXrXrXrXrX5X6X6X5X6X6X6X6X5X5X5XrXrXrXrXrXrX-X-X-X-X-X-X5X5X5X5X5X5X5XrXrXrX9X9XtXtXtXtX9X9XtXtXuXuXyXyXyXyXyXyXpXpXpXyXpXyXpXyXyXqXqXhXhX3XfXfXfXL.L.L.H.H.H.H.H.J.G.G.G.Z.Z.c.c.Z.c.z.k.k.k.k.k.k.k.k.k.k.k.k.k.k.k.k.k.k.j.j.j.j.k.h.j.k.>.>.=.I , O o X X @ 2 u N N V V Z Z A D D N d r r < < 0 h 3.xXxXiXiXmXmXmXmXmXmXmXmXmXBXBXBXBXBXHXHXHXBXBXBXBXBXBXBXBXHXBXBXFXHXmXmXmXmXmXmXmXmXmXmXmXxXiXiXiXqXqXqXqXqXqXqXiXyXiXiXiXiXiXyXyX9X9X9X9X9XyX0XyXyXyXyXiXiXiXiXiXiXiXiXiXiXiXiXpXmXmXmXmXVXVXVXVXVXBXBXmXBXBXBXBX",
"tXtXtXrX5X5X5XtXtXtXtXtXtXrXrXrX5X5X5X-X-X-X-X-X-X-X-X-X-X-X-X-X-X-X-X-X-X-X-X-X-X-X-X-X-XrX6X6XrX-X-X-X-X6X6X6X6X6X6X6X5X5X5XrXrXrXrXrXrX-X-X-X-X-X-X5X5X5X5X5X5X5X5X5X-X5X5X5X9X9X9X9X9X9X9XuXtXuXuXuXuXuXuXyXuXuXyXyXyXyXpXiXiXqXhXhX3XfXfXfXL.L.L.H.H.H.H.H.J.G.G.G.Z.Z.Z.Z.Z.c.z.k.k.k.k.k.k.k.k.k.k.k.k.k.k.k.k.k.k.j.j.j.j.k.h.j.k.>.h.>.*.l $ o X X @ 2 p N N V B B Z Z A D V x u y q < 0 p ( 9X7XxXvXmXmXmXmXmXmXmXmXBXBXBXBXBXBXHXHXHXFXBXBXBXBXBXBXBXHXHXBXFXHXBXHXHXHXHXHXHXHXHXHXHXHXHXBXxXiXiXiXiXiXiXiXiXiXiXiXiXiXiXyX9X9X9X9X9X9X9X9X9X7X7X>X7X7X7X9XuXyXyXyXyXiXiXiXiXiXiXiXmXVXVXVXVXVXBXBXmXBXBXBXBX",
"tXtXrXrX-X6X5X5X5X5X5XrXrXrXrXrXrX5X5X-X-X-X-X-X-X-X-X-X-X-X-X-X-X=X=X=X=X-X-X-X-X-X-X-X-X=X=X=X=X=X=X=X-X=X=X-X-X-X-X6X6X-X-X5X-XrXrXrXrX-X-X-X-X-X-X-X-X-X-X-X-X5X5X5X-X-X-X-X5X5X5X5X5X9X9X9X9X9X9X9XtXtXuX9XtXtXtXuXuXuXyXyXqXgXhX3X3X3XfXfXH.L.H.H.H.H.H.H.J.G.G.G.G.Z.Z.Z.Z.c.c.k.k.k.k.k.k.k.k.k.k.k.k.k.k.j.j.j.h.j.j.j.j.k.k.k.k.j.h.h.=.G 6 - . X @ ; u N N V B V B V Z D A v g y q < 0 0 h XXiXxXvXmXmXmXmXmXmXBXBXBXBXBXBXBXBXHXHXHXFXBXBXBXBXFXBXHXHXFXFXFXHXHXHXHXHXHXHXHXHXHXHXHXHXHXBXmXiXiXiXiXiXiXiXiXiXxXxXmXxXvXiXiXyXiXiXiXiXiXyXyX0X9X9X7X7X5X5X5X7X7X7X7X9X9XyXiXyXyXyXiXiXpXsXmXmXmXmXmXmXBXBXBX",
"5XrX5X-X-X=X=X5X5X-X5X5X5X5X5X5X5X5X5X5X-X=X=X=X=X=X=X=X=X=X=X=X=X=X=X=X=X=X=X=X=X=X=X=X=X=X=X=X=X=X=X=X=X=X=X=X=X=X=X=X=X-X-X-X-X-X-X-X-X-X-X-X-X-X-X-X-X-X-X-X-X-X-X-X-X-X-X-X-X-X-X5X5X-X-X5X5X9X9X9X5X9X9X9X9X9X9X9X9X9XuX9XqXwX8X3X3X3X3XfXH.L.H.H.H.H.H.H.J.G.G.G.G.Z.Z.Z.c.c.c.k.k.k.k.k.k.k.k.k.k.k.k.k.k.k.j.j.h.j.j.j.j.k.k.k.k.j.j.h.>.*.n , o . @ ; u N N B B B B V V D A V c y q q q ; w ' 9XxXvXmXxXmXmXmXmXBXBXBXBXBXBXBXBXBXBXHXFXBXBXBXBXFXFXHXHXFXFXFXHXHXHXHXHXHXHXHXHXHXHXHXHXBXmXxXiXiXiXxXxXmXmXmXmXmXmXBXBXBXBXBXBXBXBXHXBXBXmXmXxXxXiXiXqX9X7X*X*X4X5X5X5X5X7XuXyXyXuXuXyXyXyXiXiXiXiXiXmXmXmXmX",
"5X5X-X=X=X=X=X-X-X-X-XrXrXrXrXrX-X-X-X=X=X=X=X=X=X=X=X=X=X=X=X=X=X=X=X=X=X=X=X=X=X=X=X=X=X=X=X=X=X=X=X=X=X=X=X=X=X=X=X=X=X=X=X=X=X-X-X-X-X-X-X-X-X-X-X-X-X-X-X-X-X-X-X-X-X-X-X-X-X-X-X-X6X5X5X5X5X9X9X9X9X9X9X9X9X9X9XtXtXtX9X9XwX8X3X3X3X3X3XH.H.L.H.H.H.H.H.H.H.J.G.G.G.Z.Z.Z.Z.c.z.k.z.z.z.z.z.z.z.k.k.k.k.k.h.h.k.k.k.j.j.j.j.j.j.j.j.j.j.j.h.=.` n o . X - q v V Z B n v N B Z D Z v g y w 0 0 0 C yXiXmXmXiXxXxXxXmXHXHXBXBXBXnXBXBXBXBXFXFXBXBXFXHXHXHXHXHXHXBXFXFXHXBXBXmXBXmXmXmXmXmXBXHXBXmXiXiXiXiXmXmXBXmXBXBXBXBXHXHXHXHXHXBXHXHXHXBXBXVXBXBXVXmXiXiXyXyX0X0X9X9X9X7X9X9XpXpXpXyXpXiXyXyXyXyXyXyXiXiXxXxXxX",
"5X5X-X=X=X=X=X=X=X-X-X-X-X-XrXrX-X=X=X=X=X=X=X=X=X=X=X=X=X=X=X=X=X=X=X=X=X].=X=X=X=X=X=X=X=X=X=X=X=X=X=X=X=X=X=X&X=X=X=X=X=X=X=X=X=X-X-X=X=X=X=X-X-X-X-X-X-X-X-X-X-X-X-X-X-X-X-X-X-X-X-X-X6X5X5X5X5X9X5X5X9X9X5X9X9X9X5X5X5X5X7X7X2X2X3X3X3X3XH.H.L.H.H.H.H.H.H.H.J.G.G.G.Z.Z.Z.Z.c.z.k.z.z.k.k.z.k.z.k.k.k.k.k.h.k.k.k.k.j.j.j.j.j.j.j.j.j.j.j.h.h.&.H 4 . X - 3 x B Z Z n v N B V D A N x y y q 0 w p 7.9XiXmXiXxXxXxXmXmXmXBXmXnXxXnXnXBXBXBXBXBXBXFXHXHXHXFXFXBXBXBXBXBXBXxXiXiXqX9X7X0XqXiXiXiXiXiXiXiXxXmXBXBXBXBXBXHXHXHXHXBXBXBXBXBXBXBXVXVXVXmXBXmXmXiXiXxXmXxXxXvXpXiXiXiXiXvXpXvXvXVXVXVXmXmXxXxXiXiXiXxXxXxX",
"5X5X6X=X=X=X=X=X=X=X=X=X=X-X-X-X=X=X=X=X=X=X=X=X=X].].].=X].=X=X=X=X=X=X=X=X=X=X=X=X=X=X=X].=X=X].].].].].=X=X=X=X=X=X=X=X=X=X=X=X-X-X-X-X-X-X-X-X-X-X-X-X-X-X-X-X-X-X-X-X=X=X=X=X=X=X-X-X-X-X5X5X5X5X5X5X5X5X5X9X5X5X5X5X5X-X5X7X2X2X3X3X3XH.H.H.L.H.H.H.H.H.H.H.J.G.G.G.Z.Z.c.c.c.k.k.k.k.k.k.k.k.z.k.k.k.k.k.h.k.k.k.k.l.j.j.j.j.j.j.j.j.j.j.j.j.l.*.l o X - > d v B Z n v N B V D D B c g y w 0 0 0 A >XqXzXiXxXxXxXxXmXmXxXxXxXxXxXxXmXmXBXBXBXBXBXBXBXBXBXBXmXxXxXnXmXmXiXqX0X7X7X:X7X9X0XqXiXiXiXiXiXxXmXBXBXBXBXBXHXHXHXBXHXHXBXBXBXBXBXBXBXBXBXBXBXmXiXiXmXBXBXBXBXmXmXmXxXiXmXpXvXmXmXBXBXHXVXBXBXBXmXmXBXBXBX",
"5X5X6X=X=X&X&X&X=X=X=X=X=X=X=X=X=X=X&X=X=X=X=X=X=X].].].=X].=X=X=X=X=X=X].].=X=X=X=X].].].].=X=X].].].].].=X=X=X=X=X=X=X=X=X=X=X=X=X-X-X-X=X=X=X=X-X-X-X-X=X=X-X-X-X-X-X-X=X=X=X=X=X=X=X=X-X-X-X6X5X5X5X5X5X5X5X5X9X5X5X5X-X-X*X4X2X2X3X3X3XH.H.H.H.H.H.H.H.H.H.H.J.G.G.G.Z.c.c.c.c.k.k.k.k.k.k.k.k.k.k.k.k.k.k.h.h.k.k.k.l.j.j.j.j.j.j.j.j.j.j.j.=.j.=.n $ o - > r v B Z n v N B B A D V c g y w q ; w p +X0XxXxXxXxXxXxXiXiXxXxXxXxXxXxXxXxXmXnXBXBXBXBXBXBXBXxXxXxXxXxXxXiXiXiXyXqX9X9X9X0XqXiXiXiXiXiXiXiXmXBXBXBXBXmXHXmXHXBXBXBXBXBXBXBXBXBXBXBXBXBXmXmXsXiXiXmXmXmXmXmXmXmXmXmXiXiXiXiXiXmXmXmXHXBXHXHXHXBXBXBXBX",
"6X5X-X=X&X&X&X=X=X=X=X=X=X=X=X=X=X=X=X=X=X=X].].].].].].].].].].].=X=X=X].].].].].].].].].].].].].].].].].=X=X=X=X=X=X=X=X=X=X=X=X=X=X=X=X=X=X=X=X=X=X=X=X=X=X=X-X-X-X-X-X-X-X=X=X=X=X=X=X=X=X=X-X6X5X5X5X5X5XtX5X9X5XrX5X5X-X*X+X2X2X3X3X3XH.H.H.H.H.H.H.H.H.H.J.G.G.G.Z.Z.Z.c.c.C.k.k.k.z.z.z.z.z.z.k.k.j.j.j.j.l.l.l.j.j.j.j.j.j.j.j.j.j.j.j.j.z.z.=.G , - - > r c B B B v N v B V A Z N x u q < < 0 q ' zXGXqXxXxXxXxXiXiXxXxXxXxXnXnXnXnXBXBXBXBXBXBXBXnXnXxXxXxXxXxXiXxXxXxXiXiXiXiXiXiXxXxXxXxXxXnXxXxXmXBXBXBXBXBXBXBXBXBXBXBXHXHXHXHXHXBXBXBXBXmXmXmXmXmXiXmXmXmXmXmXmXmXmXmXmXmXiXiXmXmXBXmXBXHXHXHXHXFXBXBXBX",
"=X=X=X&X&X&X&X&X&X=X=X=X=X=X=X=X=X=X=X=X=X].].].].].].].].].].].].].].].].].].].].].].].].].].].].].].].].=X=X=X=X].].].].=X=X=X].=X=X=X=X=X=X=X=X=X=X=X=X=X=X=X=X-X-X-X=X-X=X=X=X=X=X=X=X=X=X=X=X-X6X5X5X5X5X5X5X5X-X-X5X6X6X*X+X2X1X3X3X3XH.H.H.H.H.H.H.H.H.J.G.G.G.Z.Z.Z.c.C.x.z.z.k.k.z.z.z.z.z.k.k.k.j.j.j.j.l.j.j.j.j.j.j.j.j.j.j.j.j.j.j.j.z.z.=.O.f - - > 5 x v B B v v v N V Z A N x g y 0 q q q C 8X,XCXxXxXxXxXxXxXxXxXxXxXnXnXnXnXBXBXBXBXBXBXBXnXnXmXmXmXmXnXmXmXmXmXmXmXmXmXnXnXBXBXBXBXBXBXBXBXBXBXBXBXBXBXBXBXBXBXBXBXHXHXHXHXHXBXBXBXBXHXHXmXmXmXmXmXmXBXBXBXBXmXmXmXmXmXmXmXBXHXHXHXHXHXHXHXHXFXBXBXBX",
"&X&X].].].].&X=X=X=X=X=X=X&X=X=X=X].].].].].].].].].].].].].].].].].].].].].].].].].].].].].].].].].].].].].].].].].].].].=X=X=X=X=X=X=X=X=X=X=X=X=X=X=X=X=X=X=X=X-X-X-X=X=X=X=X=X&X&X&X&X&X&X=X=X-X6X5X5X5X5X5X5X5X-X-X5X5X6X*X+X1X1X3X3X3XH.H.H.H.H.H.H.H.J.G.G.G.Z.Z.Z.c.c.C.k.k.k.k.z.z.z.z.z.z.k.k.k.j.j.j.j.j.j.j.j.j.j.j.j.z.z.z.z.j.j.j.j.h.z.y.%.n , $ > 3 x v v V N v v v V V A N c x d q q q q 0 7.gXGXxXxXxXxXxXxXxXxXxXxXnXnXnXnXBXBXBXBXBXBXBXnXBXBXBXBXHXBXBXBXBXBXBXBXBXBXBXBXFXFXFXFXFXFXFXFXHXBXBXBXBXHXHXHXHXHXHXHXHXHXHXHXHXHXHXHXHXHXHXHXHXHXHXHXHXHXHXHXHXHXHXHXHXHXHXHXHXHXHXHXHXHXFXFXFXFXFXFXFX",
"].].].`.`.`.`.].].].].=X=X&X].].].].].].].].].].].].].].].].].'.'.].].].].].].].].].].].].].].].].].].].].].].].].].].].].].].=X=X=X=X=X=X=X=X=X=X=X=X=X=X=X=X=X=X-X-X-X=X=X=X=X&X&X&X&X&X&X&X=X=X-X-X6X6X-X-X-X=X-X-X-X-X-X*X*X+X1X1X1X3XH.H.H.H.H.H.H.H.H.G.G.G.Z.c.c.Z.c.C.x.z.z.k.z.z.z.z.z.z.k.k.k.k.j.j.j.j.j.j.j.j.j.j.j.j.z.z.z.z.j.l.l.l.h.z.l.&.J 3 $ - 3 g v v V v v v c N V Z N c c g y y i q w D gX0XnXxXxXxXxXxXxXxXxXxXnXnXnXnXBXBXBXBXBXBXBXnXBXBXBXBXFXFXHXHXHXHXHXHXHXHXFXFXHXHXHXHXHXHXFXFXHXBXBXBXBXHXHXHXHXHXHXHXHXHXHXHXHXHXHXHXHXHXHXHXHXHXHXHXHXHXHXHXHXHXHXHXHXHXKXHXHXHXHXHXHXHXFXFXFXFXFXFXFX",
"`.`.`.`.`.`.`.'.'.'.].].].].].].].].].].].].].].].].`.'.'.].].'.'.].].].].].].].].].].'.'.].].'.'.'.'.'.'.].].].].'.'.].].].].].].=X=X=X=X=X=X=X=X=X=X=X=X=X=X=X=X=X=X=X=X=X=X=X=X=X=X=X&X&X&X=X=X=X6X=X=X=X=X=X=X=X=X=X=X*X*X*X+X1X1X1XH.3XH.H.H.H.H.H.J.J.G.G.Z.Z.c.c.c.C.C.C.C.z.z.C.z.z.z.z.z.z.z.k.k.j.j.j.j.l.l.l.l.l.l.z.z.z.z.z.z.z.z.z.z.z.z.l.=.H r $ : r x d x v v v c c c c N N c x v x d w q u y n.8XxXiXxXiXxXvXvXpXmXmXmXmXmXmXmXmXBXBXBXBXBXmXBXBXBXBXBXBXHXHXHXHXHXHXHXHXHXHXHXHXHXHXHXHXHXHXHXHXHXHXHXHXHXHXHXHXHXHXHXHXHXHXHXHXHXHXHXHXHXHXHXHXHXHXHXHXFXFXFXFXFXFXFXFXHXHXHXHXHXHXHXHXGXGXFXFXCXCXCX",
"`._.`.`.`._._.[._.`.`.`.`.'.'.'.'.`.`.`.`.`.`.`.`.`.[.[.[.[.[.'.'.].].].].].].].].].].'.`.].].'.'.'.'.'.'.'.'.'.'.'.'.'.'.'.'.].].].].=X=X&X&X=X=X=X=X=X=X=X=X=X=X=X=X=X=X=X=X&X&X=X=X=X&X].].&X=X=X=X=X=X=X=X=X=X=X=X=X=X=X&X;X+X1X1X1X3XH.H.H.H.H.H.H.J.J.G.Z.Z.c.c.c.k.C.C.z.C.z.z.C.z.z.z.z.z.z.z.k.k.j.j.j.j.l.l.l.l.l.l.z.z.z.z.z.z.z.z.z.l.z.l.l.y._ d - > r x d d c v v c x x c c v x x c x d i q i w D hXCXqXHXiXiXxXvXpXmXmXmXmXmXmXmXmXBXBXBXBXmXmXBXBXBXBXBXBXHXHXHXHXHXHXHXHXHXHXHXHXHXHXHXHXHXHXHXHXHXHXHXHXHXHXHXHXHXHXHXHXHXHXHXHXHXHXHXFXHXHXHXHXHXHXHXHXFXFXFXFXFXFXFXFXHXHXHXHXHXHXHXHXGXGXFXFXCXCXCX",
"^._._._._._._._._.[.[.[.[.'.'.'.'.`.`.`.`.`.`.`.`.`.[.[.[.[.[._._.'.'.'.`.'.'.'.'.[.[.'.'.].].'.'.'.'.'.'.'.'.'.'.'.'.'.'.'.'.].].].].=X].&X=X=X=X=X=X=X=X&X&X&X=X=X=X=X].&X&X].].].].].].`.].&X=X=X&X=X=X=X=X=X=X=X=X=X=X=X&X;X+X1X1X1X3XH.H.H.H.H.H.J.G.G.Z.Z.Z.c.c.k.k.C.z.z.C.z.z.z.z.z.z.z.z.z.z.k.k.j.j.j.j.l.l.l.l.l.l.z.z.z.z.z.z.z.z.z.z.C.l.l.g.%.x > > r l f r g v v c z x x c c z z c x z u i 2 y h n.gX0XiXqXiXvXvXpXmXmXmXmXmXmXmXmXBXvXvXvXvXvXBXBXBXBXBXBXHXHXHXHXHXHXHXHXHXHXHXHXHXHXHXHXFXHXHXHXHXHXHXHXHXHXHXHXHXHXHXHXHXHXHXHXHXHXHXFXHXHXHXHXHXHXHXHXFXFXFXFXFXFXFXFXHXHXHXHXHXHXHXHXGXGXGXGXFXFXFX",
"^._._._._._._._._.[.[.[.[._._.'.'.`.`.`.`.`.`.`.`.`.[.[.[.[.[._._.'.'.'.'.'.'.'.'.[.[.'.'.].].'.'.'.'.'.'.'.'.'.'.'.'.'.'.'.'.].].].=X=X].=X=X=X=X].].].].].].&X&X&X].&X].].].].`.].].`.`.`.`.&X&X&X&X&X&X&X&X&X=X=X=X=X=X=X&X;X+X1X1X1X3XH.H.H.H.H.H.J.G.G.Z.Z.Z.c.c.k.z.z.z.z.z.z.z.z.z.z.z.z.z.z.z.k.k.j.j.j.j.l.l.l.l.l.l.z.z.z.z.z.z.z.z.z.z.C.z.g.g.%.c - > r d r 5 f c v v x z z x c z z c c x u y a i g ~ +X0XXX7XiXvXvXpXmXmXmXmXmXmXmXmXBXvXvXvXvXvXBXBXBXBXSXBXHXHXHXHXHXHXHXHXHXHXHXHXHXHXHXHXFXHXHXHXHXHXHXHXHXHXHXHXHXHXHXHXHXHXHXHXHXHXHXFXHXHXHXHXHXHXHXHXFXFXFXFXFXFXFXFXHXHXHXHXHXHXHXHXGXGXGXGXFXFXFX",
"^.^._._._._._._._._._._._.[.[.[.[.[.[.[.'.`.`.`._.[.[._._.[.[.[.[.[.[.[.[.'.'.'.'.[.[.[.[.[.[.[.].].'.[.[.'.'._._.`.`.'.'.'.`.].].].].].].].].].].].].].].`.`.].].].].].].`.`.].`.`.`.`.`.`.].&X=X=X=X].=X&X&X&X&X&X&X=X=X=X=X+X+X$X1X1X1XH.H.H.J.J.G.G.G.G.Z.Z.Z.Z.C.C.z.z.z.z.z.z.z.z.z.z.z.z.z.z.z.z.z.l.l.l.l.l.l.l.l.z.z.z.z.z.z.z.z.z.z.z.z.M.M.l.g.y.Z : 3 r 6 5 3 u x c c x x k d k u u z c x z u i q q c n.:X:X;X9XyXmXHXVXmXmXmXmXmXmXxXxXmXmXvXvXvXvXxXHXSXBXBXHXHXHXHXBXBXHXHXHXHXHXHXHXHXHXHXHXHXHXHXHXHXHXHXHXHXHXHXHXHXHXHXHXHXFXHXHXHXHXHXHXHXHXHXHXHXHXFXFXFXFXHXHXHXFXFXHXHXHXHXHXHXHXHXHXHXHXHXHXHXHX",
"^._._._._.^.^.^.^._._._._.[.[.[.[.[.[.[.'.`.`.`._.[.[._._.[.[.[.[.[.[.[.[.'.'.'.'.[.[.[.[.[.[.[.[.].'.[.[.'.'._._.`.`.'.'.`.`.].].].].].].].].].].].].].].`.`.].].].].].].`.`.].`.`.`.`.`.`.`.&X&X&X&X&X&X].&X&X&X&X&X=X=X=X&X*X+X$X1X1X1XH.J.J.J.G.G.G.G.Z.Z.Z.c.C.C.C.z.z.z.z.z.z.z.z.z.z.z.z.z.z.z.z.z.l.l.l.l.l.l.l.l.z.z.z.z.z.z.z.z.z.z.z.z.M.M.z.g.g.G 4 > 3 > , 5 r d x x x x d d k u u z c z u y i a q p ' oX;X*X7X7X9XyXiXmXBXmXmXvXiXiXiXmXmXvXvXvXvXxXvXBXBXBXmXmXmXmXBXBXHXHXHXHXHXHXHXHXHXHXHXHXHXHXHXHXHXHXHXHXHXHXHXHXHXHXHXHXFXHXHXHXHXHXHXHXHXHXHXHXHXFXFXFXFXFXFXFXHXFXHXHXHXHXHXHXHXHXHXHXHXHXHXHXHX",
"^.^.^.^.^.^.^.^.^.^.^._._.[.[.[.[.`.`.`.`._._._._.[.[._._._._.[.[.[.[.[.[.[.[.[.[.[.[.[.[.[.[.[.[.[.[.[.[._._._._.`.`.`.`.`.`.`.`.].].].].].].].].].].].].].`.].].].].].].`.].].`.`.`.`._.`.`.].&X].].].].`.`.&X&X&X&X=X=X=X&X*X+X$X1X1X1XH.J.J.G.G.G.G.G.Z.C.C.C.C.C.k.k.z.z.z.z.z.z.z.z.z.z.z.z.z.z.z.z.l.l.l.l.l.l.z.l.z.z.z.z.z.z.z.z.z.z.z.z.M.M.M.g.g.O.d - > - - 3 r d x x x x d d k u u z x z u i i a 0 w C }.*XoX*X*X>X7X9XiXxXmXiXiXiXiXiXiXpXvXiXiXvXxXxXvXvXvXmXmXmXmXmXmXBXBXBXHXHXBXBXBXBXBXBXBXHXHXHXHXHXHXHXHXHXHXHXHXHXFXFXFXFXHXHXHXHXFXHXHXHXHXHXHXHXHXHXFXFXFXFXHXHXFXHXHXHXHXHXHXHXHXHXHXHXHXHXHXHX",
"^.^.^.^.!.^.^.^.^.^.^._._._._._._.[.[.`.`._._._._.[.[._._._._._._.[.[.[.[.[.[.[.[._._.[.[.[.[.[.[.[.[.[.[._._._._._._.`.`.`.`.`.`.`.`.].].].].].].&X].].].].`.].].]._.`.`.`.`.].`.`.`._._._.`.].&X].].].].`.`.&X].].&X=X=X&X&X*X+X$X1XK.H.H.J.G.G.G.G.G.Z.Z.C.C.C.C.C.k.z.z.z.z.z.z.z.z.z.z.z.z.z.z.l.l.l.l.l.l.l.l.l.z.l.z.z.z.z.z.z.z.z.z.z.z.M.M.M.M.M.g.4.Z 4 - $ - > 5 d d d x x d d k t u z x d u e q q 0 w p 3.XX X;X*X:X>X>X9XuXpXiXiXiXiXpXiXiXiXiXiXiXiXxXxXxXxXiXiXmXmXmXmXmXmXmXmXmXmXmXmXmXmXBXBXHXHXHXHXHXHXHXHXHXHXHXHXFXFXBXBXBXBXBXBXBXBXBXBXHXHXHXHXHXHXHXFXFXFXFXHXBXBXFXHXHXHXHXHXHXHXHXHXHXHXHXHXHX",
"_.!.!._._._._._._.^.^.^.^._._._._._._.`.`._._._._.[._._._._._._._._._._.[.[.[.[.[._._._._.[.[.[.[.[.[._._._._._._.[.[.[.[.[.[.[.[.`.`.`.`.'.'.'.].].].].`.`.`.`.`.`._.`.`.`.`.].`.`.`._._.`.`.`.].].].`._.`.`.].].].].].&X&X&X*X+X$X1XH.H.G.J.G.G.Z.Z.Z.Z.Z.C.z.z.z.z.z.z.z.z.z.z.z.z.z.z.l.l.z.l.l.l.l.l.l.l.z.z.z.z.z.l.z.l.z.z.z.M.M.M.M.M.M.M.M.M.M.M.g.g.G 6 - X . > 3 r d d x x k d t t t u d d u r 1 e 2 0 0 C p.XX;X*X-X-X-X&X*XuXyXpXpXpXiXiXiXiXiXiXiXiXiXiXxXxXiXiXvXvXmXmXmXmXmXmXmXmXmXmXmXBXBXBXBXBXBXBXFXFXFXFXHXFXFXBXBXBXBXBXBXBXBXBXBXBXBXBXBXBXBXBXBXBXHXHXHXHXFXBXBXnXBXBXFXHXHXHXHXFXHXHXHXHXHXHXHX",
"!.!.!.!.!.!.!.!.!.^.^.^.^._._._._._._._._._._._._.[._._._._._._.)._._._._._._.[._._._._._._._.[.[.[.[._._._._._._._._.[.[.[.[.[.[.`.`.`.`.'.`.`.`.`.`.].`.`._._.`._._._._.`.`.].`.`._._./._.`.`.`.].`.`._.^.^.`.].].'.].&X&X%X+X+X2X1XK.K.J.J.G.Z.Z.Z.Z.Z.Z.C.z.z.z.z.z.z.z.z.z.z.z.z.z.z.z.l.l.l.l.j.j.l.l.l.z.z.z.z.z.z.z.l.z.z.z.M.M.M.M.M.M.M.M.M.M.M.C.g._ l : $ . - 3 r f d x x z d t r r u d d u t 5 e < < < p 3.:X;X*X-X-X-X;X;X-X9XtXyXyXtXtXuXyXyXyXiXyXyXyXiXiXiXiXiXvXxXxXxXmXxXxXmXiXiXmXmXBXBXBXBXBXBXBXBXBXFXFXFXFXBXBXBXBXBXBXnXnXnXnXBXBXBXBXBXBXBXBXBXBXHXHXHXHXFXBXnXxXxXxXBXBXBXBXHXFXHXHXHXHXHXHXHX",
"~.~.~.~.~.T.~.!.!.!.!.^.^._._._._._._._._._._._._.[._._._._._._._.).).).)._._.[._._._._._._._._._._._.[._._._._._._._.[.[.[.[.[.[.`.`.`.`._._._.`.`.`.`.`._._._._.^.W.W.^._.].].`.`.`._._./._._._._.^.^._././.`.`.].].].].`./.OX+X2X1XH.G.G.G.G.Z.Z.Z.Z.Z.Z.z.z.z.z.z.z.z.z.z.z.l.l.z.z.z.z.z.z.l.l.j.l.l.l.l.z.z.z.z.z.z.z.l.z.z.z.z.M.M.M.M.M.M.M.M.M.M.A.b.&.Z 3 - . - 3 6 f k z x z d u t r u d d u t e 5 q < q q A  X;X*X-X-X&XXX/.&X-X-X9XtXtXtXyXyXyXyXiXpXyXyXyXiXiXiXiXiXxXxXxXxXxXiXiXxXmXmXBXBXBXBXBXBXBXBXBXFXBXBXBXBXFXFXBXBXBXBXnXnXnXBXBXBXBXBXHXBXBXBXBXBXHXHXHXHXHXBXBXxXxXxXBXBXBXBXHXHXHXHXHXHXHXHXHX",
"~.Y.Y.Y.Y.T.T.~.T.T.!.!.!.^.^._._._._._._._._._._.[._._._._._._.).).).).)._._._._._._._._._._._._._._.[._._._._._._._._._._._._._._._.`.[._._._._._.`.`._._.^.W.W.W.W.W.W.^._.`.`.`.`./._./._._.^.W.W.^._.^.^.^.`.`.`.].`././.OX+X2X1XH.G.G.G.Z.Z.Z.Z.Z.Z.C.z.z.z.z.z.z.z.z.z.z.z.z.z.z.z.z.z.z.l.l.j.l.l.l.l.l.z.z.z.z.z.z.l.z.z.z.z.M.M.M.M.M.M.M.M.M.M.M.g.y.^ d > X - 3 6 r d z z z k u t r t d d u t r 3 r < < q q 8.+X*X*X-X;X/./.%X&X*X-X-XiXiXyXyXiXiXiXiXiXiXiXiXiXpXpXiXxXxXxXxXiXiXmXmXmXmXBXBXBXBXBXBXBXBXBXBXBXBXBXBXBXBXBXBXBXBXnXnXnXBXBXBXBXBXHXBXBXBXBXBXFXHXHXHXHXBXBXnXnXBXBXHXHXHXHXHXCXCXCXCXCXCXHX",
"Y.Y.Y.Y.Y.~.~.~.T.T.T.!.!.!.!._._._._._._._._.[._.[.[._._._.).).).).).).)._._._._._._._._.!.!.)._._._._._._._._._._._._._._._._.[._.[.[._._._._._._._.`._._.^.W.W.W.^._.^.^.^.`.`.`.`._._._._.^.W.W.W.W././././.`.`.`.`.`././.&X4X2X3XK.Z.G.G.Z.Z.Z.Z.Z.Z.C.z.z.z.z.z.z.z.l.l.l.l.l.l.l.l.z.z.z.z.l.l.l.l.z.z.z.z.z.z.z.z.z.z.M.M.M.M.C.C.C.M.M.C.C.C.C.C.M.g.g.%.B 4 -   r 5 3 t k z x z u r r r e k x t r 3 3 < q 0 q C :X>X*X-XXX/.`.%X*X&X;X-XuXuXuXuXpXpXVXVXmXpXiXvXvXiXmXmXmXxXxXiXmXmXmXmXmXBXBXBXHXHXHXHXHXFXFXBXBXBXBXBXBXBXBXBXBXBXBXBXBXBXFXFXFXFXFXFXFXFXFXHXHXHXHXHXHXHXBXBXBXBXBXFXFXFXFXHXHXHXHXFXFXFXFX",
"Y.Y.Y.Y.Y.Y.Y.~.T.T.T.T.T.!.!.!.!.^.^._._._._._._.[._._.^.).).).).).~.).).)._._.)._._._._.!.!.!.!.)._._.)._._._._._._._._._._._._._._._._._.^.^.^.^._._._._._._._._._._._.^.^.`.`.`._.`._._._._.^./././._./.`.`.`.`.`.`.`././.&X4X2X3XH.Z.Z.Z.Z.Z.Z.Z.Z.C.z.z.z.z.z.l.l.l.l.l.l.l.l.l.l.l.z.z.z.z.l.l.l.l.z.z.z.z.z.z.z.z.z.z.M.M.M.M.C.C.C.C.M.C.C.C.C.C.M.M.g.4.D r - $ 3 5 3 r d z x z u r r r r k x d r 5 3 > < < 0 y 7.*X:X;X/./.`.%X/.XX;X*XtXtXtXuXuXpXpXmXBXmXmXvXmXmXmXmXmXmXmXmXmXmXmXmXmXBXBXBXHXHXHXHXHXHXFXBXBXBXBXBXBXBXFXFXHXHXHXHXHXHXHXFXFXFXFXFXFXBXFXFXHXFXHXFXHXFXBXBXBXBXBXBXFXFXFXHXBXBXHXFXFXFXHX",
"Y.Y.Y.Y.Y.Y.Y.Y.Y.T.T.T.T.!.!.!.!.!.!.!.!.!._._._._._.^.!.).).).).).~.~.~.T.T.).).)._._._.!.!.!.!.).).).)._._._._._._._._._._._._._._.^._._.^.!.^.W.W.^._._._._.`.`._._._.^.^._._._._._._.`.`.`.`.].`.`.`./.`.`.`.`./.`._./.(.XX+X2X1XK.Z.Z.Z.Z.Z.Z.Z.Z.C.z.z.z.z.z.l.l.l.l.l.l.l.l.l.l.l.z.z.z.z.l.l.l.l.z.z.z.z.z.z.z.z.m.z.M.M.M.M.C.C.C.M.M.C.C.C.C.C.C.M.b.g._ v > - 4 r 3 3 u k x x d t r r t d k k r 6 3 > 2 ; < w D oX7X XQ.Q.W.Q.;X;X*X-X-X-X-X-X9XtXuXyXiXmXmXmXmXmXVXmXBXBXBXBXmXmXmXmXmXBXBXBXHXHXHXHXHXFXFXFXFXFXFXFXFXFXFXFXHXHXHXHXHXHXHXHXHXHXHXFXFXBXBXBXFXFXFXBXBXBXBXBXBXBXBXBXFXFXFXFXBXBXBXBXBXBXBX",
"U.Y.Y.Y.Y.Y.Y.Y.Y.T.T.T.T.!.!.!.!.!.!.!.!.!.!.^.^._.!.!.!.!.!.).!.).!.!.~.T.T.T.T.T.).).).!.!.!.!.).).).)._._._._._._._.^._._._._.!.^.^.^.!.!.!.!.^.W.^.^.W.W._.`.`._.W.W.W.^.^.^.^._._._.`.'.'.'.].].`._.^././.^./.^._._./././.+X2X1XK.Z.Z.Z.Z.Z.Z.C.C.C.z.z.z.z.z.l.l.l.l.l.l.l.l.l.l.l.l.l.l.l.l.l.l.l.z.z.z.l.z.z.M.M.l.z.M.M.M.M.C.C.C.M.M.C.C.C.C.C.M.C.M.g.4.` x > > 6 3 > r d z z d t t r u u d k r 6 3 > : - 2 0 h p.:XE.Q.Q.Q.Q.-X-X9X-X-X-X-X-X-X-X7X9X9XyXiXmXmXBXVXmXmXBXBXBXmXiXmXmXmXmXBXBXBXBXHXHXHXFXFXFXFXFXFXFXFXBXBXBXBXnXBXBXBXHXHXHXHXHXHXFXHXFXBXBXBXBXFXFXBXBXBXBXBXBXBXBXBXBXBXBXBXBXBXmXxXxXxX",
"U.U.U.Y.Y.Y.Y.Y.Y.Y.Y.T.T.T.!.!.!.T.T.T.T.!.!.!.!.T.).!.!.!.!.~.~.T.T.T.T.T.T.).T.T.T.).).!.!.!.!.).).).)._._._._._._._._._.).!.!.!.^.!.!.!.!.!.T.W.W.^.^.^.^._.[.`._.W.W.T.T.T.T._._._._._.`.`.`.`.`._._._._._.^.^.^._._./././.+X2X1XG.Z.Z.Z.Z.Z.C.C.C.C.z.z.z.z.l.l.l.l.l.l.l.l.j.j.l.l.l.l.l.l.l.l.l.l.l.l.z.z.z.M.M.M.b.b.M.M.C.C.C.C.M.M.M.M.M.M.M.M.m.V.V.m.b.%.Z : - 6 3 3 r u d k d d u u u u r r d 6 3 > : < 2 < < 3.oX|.XX%X=X-X-X-X5X-X-X-X-X-X-X-X-X-X5X9XyXpXmXmXmXmXmXmXKXmXmXsXsXsXsXmXmXBXBXBXFXFXFXFXFXFXFXFXFXBXBXBXnXxXxXxXxXxXnXBXBXBXBXBXBXBXBXBXnXxXxXBXBXBXBXnXBXmXmXxXmXnXBXBXBXBXBXBXBXnXxXxXxX",
"Y.U.U.U.U.Y.Y.Y.Y.Y.Y.T.T.T.T.T.T.T.T.T.T.!.!.!.!.T.T.T.T.T.T.T.T.Y.Y.T.T.T.T.).T.T.T.T.T.T.T.T.T.!.!.).).).)._._.).).).)._._.!.!.!.!.!.!.!.!.T.T.T.T.T.T.T.^.^._.`._.W.W.T.T.T.T._.[._.^.W.W.^._._._._._.^.^.^.^.^.^._._./.Q.XX+X2X1XG.Z.Z.Z.Z.C.C.C.C.C.z.z.z.z.l.l.l.l.l.l.l.l.j.j.l.l.l.l.l.l.l.l.l.l.l.l.M.z.M.b.m.b.g.g.M.M.C.C.C.C.M.M.M.M.M.M.M.M.M.M.M.M.m.q.F f - 3 3 3 r t d d d k u u d u r r t 6 3 > , < 2 2 % ( }.oX%X;X-X-X-X-X-X-X-X-X-X-X-X-X-X-XuXyXuXiXiXiXiXiXiXsXmXKXKXKXKXKXKXKXKXHXBXBXBXBXBXBXBXBXBXBXBXBXBXBXnXnXxXxXxXxXxXxXxXxXxXxXxXxXxXxXiXqXqXiXiXiXiXiXiXiXiXiXxXxXxXnXBXBXBXBXBXBXnXxXxX",
"Y.Y.U.U.U.Y.Y.Y.Y.Y.Y.T.T.R.T.T.T.T.T.T.T.!.!.!.T.T.T.T.T.Y.Y.Y.Y.Y.Y.Y.Y.T.T.T.T.T.T.T.T.T.T.T.T.~.T.!.!.).)._._.).).).).).).!.!.!.T.!.T.T.T.T.T.T.T.T.T.T.T.^._._._._.^.^.T.T.T._.`._.T.T.T.T.T.T.^._._._.^._.^./.^.^.W.W.Q.OXeX2X1XG.J.Z.Z.Z.C.C.C.C.C.z.z.z.z.l.l.l.l.l.l.l.l.g.l.j.l.l.l.l.l.l.l.l.l.l.M.M.z.M.m.M.M.l.M.M.C.M.M.M.M.M.M.M.M.M.M.M.M.M.M.M.M.M.t.@.B - 4 3 6 r t d k z k d u d u r r 5 r 3 > 1 > ; 2 < h 3.XXXX;X-X-X-X-X-X-X-X-X-X-X-X-X-X-XyXuXtX9X9X7X7X9X9XiXmXmXmXmXKXKXKXKXKXBXBXBXnXnXnXnXnXmXnXnXnXnXnXnXnXnXnXnXnXxXxXxXxXxXxXxXxXxXxXiXqX0X0X0XiXiXiXiXiXiXxXxXmXnXnXnXBXBXBXBXBXBXBXBXBX",
"Y.Y.U.U.U.U.U.Y.Y.Y.Y.Y.Y.R.R.R.T.T.T.T.T.T.T.T.T.T.T.Y.Y.Y.Y.Y.Y.U.U.Y.Y.Y.T.T.T.T.T.T.T.T.T.T.~.~.T.!.~.).)._._.).).).).).).!.!.!.T.T.T.T.T.T.T.T.T.T.T.T.T.^._._._._._.^.W.T.T.^._._.^.T.^.^.T.T.T.^.^.^.^.^.^.`.^.W.W.W.Q.OX7X2X1XG.J.A.A.Z.C.C.C.C.C.z.z.z.z.l.l.l.l.l.l.l.l.g.j.j.l.l.l.l.l.l.l.l.l.l.z.M.z.M.m.M.M.z.M.M.C.M.M.M.M.M.M.M.M.M.M.M.M.V.m.m.V.B.b.4.G 6 4 3 3 r t d k z z d u d d t r 3 6 3 > 5 2 ; < q ; / E.E.XX%X&X-X-X=X&X&X-X-X-X-X-X-X5X5X-X&X%X&X;X;X;X*X0XiXsXsXsXsXsXsXsXsXmXxXxXxXxXxXxXxXxXxXxXxXxXnXnXnXnXBXBXBXBXBXBXBXBXBXBXBXBXxXxXiXiXiXiXxXxXnXnXBXBXBXBXHXBXBXnXBXBXBXBXBXBXBXBXBX",
"T.Y.U.U.U.U.U.U.U.U.U.U.Y.Y.Y.Y.Y.T.T.T.T.T.T.T.T.Y.Y.Y.Y.Y.Y.Y.U.U.U.Y.Y.T.T.T.T.T.T.T.~.T.T.T.T.T.T.T.).).).).).).~.~.~.!.!.!.!.T.T.T.T.T.T.T.T.T.T.T.T.T.T._._._.{._._.^.W.W.T.T.^.!.T.T.T.T.T.T.T.T.W.^.^.^.^._.^.W.T.u.Q.OXwX1X1XK.S.A.A.Z.C.C.C.C.C.M.z.z.z.l.l.l.l.l.l.l.l.l.l.l.l.l.l.l.l.l.l.z.l.l.l.m.l.m.m.m.M.M.m.M.M.M.M.M.M.M.M.M.M.M.M.M.M.M.M.M.M.B.M.g.O.d 4 3 > e r d z z z x x d z d r 5 3 3 > 2 2 ; 2 ; q C p.Q.Q.XXXX&X&XXX/./.%X*X-X-X*X-X-X&XXX(.Q.oX*X9XyXiXiXiXiXiXiXpXiXiXiXiXiXxXxXxXxXxXxXxXxXxXiXiXiXHXHXBXxXmXxXmXmXBXBXHXHXHXHXHXHXmXiXiXiXiXiXiXmXmXmXBXBXBXBXHXHXnXmXmXmXmXBXBXBXBXBXBX",
"T.Y.U.U.U.I.U.U.Y.Y.U.U.U.Y.Y.Y.Y.T.T.T.T.T.T.T.Y.Y.Y.Y.Y.U.U.U.U.U.U.Y.Y.).).T.T.Y.T.T.~.T.T.T.T.T.T.T.~.T.!.!.).).!.!.~.!.!.T.~.T.T.T.T.T.T.T.T.T.T.T.T.T.T.T.T.{.T.T.T.T.T.T.T.T.T.T.T.R.T.T.R.T.T.T.T.T.T.T.T.T.T.R.R.} u.(.eX1X1XS.A.A.Z.Z.C.C.C.C.C.M.z.M.l.l.l.l.l.l.l.l.l.l.l.l.l.l.l.l.l.l.l.l.l.l.l.m.l.m.m.m.M.M.m.M.M.M.M.M.M.M.M.M.M.M.M.M.M.M.M.M.M.B.M.g.%.x 3 5 , e t d z z z x x z x k t r 5 3 3 2 2 2 ; < < p 5.|./.;X;X&X&X(.Q.Q.Q.;X*X&X&X&X&X%XXX(.Q.5X9XyXiXiXiXiXiXiXiXiXiXiXiXxXiXxXmXmXxXxXxXnXnXnXnXBXBXBXxXxXiXxXmXBXBXBXHXHXHXBXVXVXmXxXiXiXiXiXiXiXiXiXiXxXmXmXxXmXmXmXmXmXmXmXBXBXBXBXBXBX",
"T.Y.Y.U.....U.Y.Y.Y.U.U.U.Y.Y.Y.Y.Y.Y.Y.Y.Y.Y.Y.Y.Y.Y.R.I.U.U.U.....U.Y.)._.).T.Y.Y.T.T.~.T.T.T.T.T.T.T.T.T.T.T.T.T.T.).).T.T.T.T.T.T.T.T.T.T.T.T.T.Y.T.T.T.T.T.T.T.T.T.T.T.T.T.R.R.R.R.R.Y.Y.Y.Y.R.R.Y.Y.R.R.I.R.R.R.I.u.} 6.a.+X1X1XS.A.A.Z.C.C.C.C.C.M.M.M.M.l.l.l.l.l.l.l.l.l.l.l.l.l.l.l.l.l.l.l.l.l.l.l.m.l.m.m.M.M.M.M.M.M.M.M.M.m.M.M.M.M.M.M.M.M.M.M.M.M.M.B.b.y.B 6 6 3 e t d z x z x x x c x d r r e 3 > < 2 % < ; 0 8.E.%XXX;X&X/.Q.Q.Q.Q.;X-X-X5X-X-X-X-X5X5X9X9XyXyX7X7X7X7X7X7X9X9XpXiXiXiXiXxXxXmXmXmXmXmXBXBXBXBXiXiX0X9X9X9X9X9X9X0XyXyXmXmXmXmXiXiXiXiXiXiXiXiXiXiXxXiXmXiXmXmXmXmXmXmXmXmXBXBXBXBXBX",
"T.U.Y.U.....Y.Y.Y.U.U.U.U.U.U.Y.Y.I.Y.Y.Y.Y.Y.Y.I.Y.Y.I.I.U.......U.Y.T.)._._.T.Y.Y.T.T.T.T.T.T.T.T.T.T.T.T.T.T.T.T.T.).).T.T.T.T.T.T.T.T.T.T.Y.Y.Y.Y.Y.Y.T.T.T.T.T.T.T.R.I.I.I.R.I.I.Y.I.I.I.U.I.Y.I.I.I.I.I.I.I.I... . .} u.(.eX1X1XS.A.Z.Z.C.C.C.C.M.M.z.M.l.l.l.l.l.l.l.l.l.l.l.l.l.l.l.l.l.l.l.l.l.l.l.l.l.l.l.m.M.M.M.M.M.M.M.M.M.m.m.M.M.M.M.M.M.m.M.M.M.M.M.M.b.y.J t 6 r e t d z x x x x x c c d u r e 5 1 < 2 % ; < p ' Q./.Q.XX`./.Q.Q.Q.%X-X-X-X*X*X*X-X5X5X9X7X7X5X5XoXoXoXoXoXoXoXoX9X9X9X9XpXmXmXmXmXmXmXxXiXiXiXiX0X9X7X7X7X9X9X9X0XyXiXiXiXiXiXiXiXiXiXxXxXiXiXiXiXiXmXmXmXmXmXmXmXmXmXmXmXmXmXmXmXmXmX",
"Y.U.U.U...I.Y.Y.Y.U.U.U.U.U.U.U.U.U.U.U.U.U.U.I.U.I.I.I.Y.U.I.I.U.I.T.T._._.).T.Y.Y.Y.T.T.T.T.T.T.T.Y.Y.Y.T.Y.T.T.T.T.T.T.T.T.T.T.T.T.T.T.T.Y.Y.Y.Y.Y.Y.Y.T.T.T.T.Y.Y.U...U.I.I.I.I.I.I.U.U.U.U.I.U.U.U.U.........{ { { } } u.(..X1X1XS.Z.Z.Z.C.C.M.M.M.M.M.l.l.l.l.l.l.l.l.l.l.l.l.l.l.l.l.l.l.z.g.g.g.g.l.l.m.l.m.m.m.m.m.m.M.M.M.M.M.M.m.M.M.M.M.M.M.M.M.M.m.M.M.M.b.y.` d 6 3 3 r d z x x x x x c c c d r e r 3 , : - ; < w / E.(.Q.&X&X/.Q./.XX&X-X6X&XXXXX&X*X-X5X-X-X-X5X5X5X5X*X&XXX(.E.E.E.Q.Q.Q.&X*X7X9X*X-X7X9XyXpXpXmXmXpXmXmX9XyXiXmXvXvXvXiXiXiXiXiXiXiXiXiXiXiXiXiXiXiXmXmXiXiXmXmXmXmXmXmXmXmXmXmXmXmXmX",
"Y...........Y.Y.I.....................U.U.U.U.U.I.U.U.U.U.U...I.Y.T.)._._.).T.Y.Y.Y.Y.Y.Y.T.T.T.Y.Y.Y.Y.Y.Y.Y.Y.Y.Y.Y.Y.Y.T.T.T.T.T.T.T.T.Y.Y.Y.Y.U.Y.Y.Y.Y.Y.Y.Y.Y.U.............I.U.U.U.U.U.U.I.................{ { { } } u.(.eX1X1XA.Z.Z.C.C.C.M.M.M.l.l.l.l.l.l.l.l.l.l.l.l.l.l.l.l.l.l.l.l.z.g.g.g.g.g.g.l.l.m.m.m.m.m.m.M.M.M.M.M.M.m.m.m.m.M.M.M.M.M.m.m.M.M.M.g.y._ x t 4 3 e u d z z x x x x x x d r e r 5 1 > : ; < 0 A oX-X-X-X-X&X%X%X&X%X&X&X/.Q.E.Q.Q./.*X5X-X5X9X9X9X5X*X*X&X XE.E.E.Q.Q.Q.%X;X&X&X&X&X*X-X-X5X9XuXyXpXpXyXyXyXiXmXvXvXmXpXpXiXiXiXiXiXiXiXvXxXvXpXmXmXmXmXxXiXxXiXmXmXmXmXxXxXxXxXiXxXmX",
"I...........Y.Y.I.................................I.I.I.U.I...U.T._._.T.T.Y.Y.Y.Y.Y.Y.Y.Y.Y.Y.Y.Y.Y.Y.Y.Y.Y.Y.Y.Y.Y.Y.Y.Y.Y.Y.Y.Y.Y.Y.Y.Y.Y.U.U.I.Y.Y.Y.Y.Y.Y.Y.U.U................................. ... . . . . .[ [ [ [ | u.(.8X2X1XA.Z.Z.Z.C.C.M.M.M.l.l.l.l.l.l.l.l.l.l.l.l.l.l.l.l.l.l.l.l.z.M.g.g.g.g.g.l.l.m.m.m.M.m.m.M.M.M.M.M.M.m.m.m.m.M.M.M.M.M.M.m.M.M.M.g.y.O.n l 4 3 3 r u g g g g g g g g d r e r e 3 , 2 ; 2 < h *X7X9X-X-X&X%X&X&X%X/.Q.u.6.5.u.u.E.(.%X;X&X*X*X;XOXXX X(.E.E.E.XX/./.%X&X&X&X%X/./.%X%X&X&X-X5X9X9X9X9XuXpXpXvXvXvXmXmXmXmXmXmXvXiXvXvXmXmXmXmXmXmXmXmXxXxXxXiXmXmXmXmXiXiXxXxXiXiXiX",
"I.U.U.U...I.Y.Y.U.................................I.I.I.I.....Y._.[._.T.T.U.U.Y.Y.Y.Y.Y.Y.Y.Y.Y.Y.Y.U.U.Y.Y.Y.Y.Y.Y.U.U.U.U.R.R.Y.Y.Y.Y.Y.Y.R.Y.Y.Y.Y.Y.Y.Y.U.U.U.......o. ..................... . . . . . . . . .[ [ [ [ | u.XXwX1X1XA.Z.Z.Z.C.C.M.M.z.l.l.l.l.l.l.l.l.l.l.l.l.g.g.l.l.l.l.l.l.z.M.g.g.g.g.g.l.l.m.m.m.m.m.m.M.m.m.m.M.M.m.m.m.m.M.M.M.M.M.M.m.M.M.m.g.y.%.Z x > , 3 r u d d d d d d g g d r e r e 3 , > 2 2 < h XX X9X5X-X&X%X%X%X/.Q.u.u.R.Q./.(.E.5.6.6.5.u.u.E.p.p.u.E.E.E.E.6X6X6X5X9X5X-X&XQ.Q././.&X=X6X5X5X-X-X-XuXpXpXvXvXvXmXmXBXVXmXmXmXmXvXmXmXBXBXBXmXmXmXmXxXxXxXiXmXxXmXmXiXiXiXiXiXiXiX",
"Y.Y.Y.Y.I.U.Y.T.Y.U.I.I..... . . ...............U.U.U.U.U.U.Y.T._._.T.Y.Y.U.U.U.Y.Y.Y.Y.Y.Y.Y.Y.U.U.Y.Y.Y.Y.Y.Y.Y.R.U.I.I.U.U.R.R.R.R.R.R.R.Y.Y.Y.Y.Y.Y.U.U.U.U........... ......... ......... . .X.X.{ { {  .{ [ [ [ [ | | 3.XXeX1XK.A.A.Z.Z.C.C.C.z.z.l.l.l.l.l.l.l.l.l.l.l.l.l.l.l.l.l.g.g.g.M.M.M.g.g.g.g.g.g.l.l.m.m.m.m.M.M.M.M.M.m.m.m.m.m.M.M.M.M.M.M.M.M.M.m.g.y.O.G f > , 3 r r d d d d d d d d d t t r e 3 > > 2 2 < w 3.*X9X-X&X&X&X%XXX/.Q.Q./.%X-X5X-XXXQ.u.Q.E.u.6.p.p.u.5.5.p.E. X5X5X-X-X-X-X-X*X/.u.R.`.&X=X6X5X%X;X*X*X;X9XtX-XiXpXpXpXvXmXmXmXmXmXBXmXmXmXVXBXBXmXmXmXmXxXxXiXiXiXqXqXqXqX0X0XqXiXiX",
"U.U.U.Y.Y.Y.Y.T.T.!.Y.Y.Y.U... . ... . . .....U.U.Y.Y.T.T.).).).T.Y.U.U.U.U.U.U.U.Y.Y.Y.Y.Y.Y.U.U.U.U.U.U.Y.Y.Y.Y.U.U.....I.U.U.U.R.R.R.R.R.R.U.I.U.U.U.U.U.U.....o.X.X.o. . . . ..... ..... .{ { { { { { {  .{ [ [ [ [ | | 3.XX2X1XK.A.A.Z.Z.C.C.M.z.l.l.l.l.l.l.l.l.l.l.l.l.l.z.l.l.l.l.g.g.g.M.M.m.g.g.g.g.g.g.l.l.l.l.g.g.m.M.m.m.M.m.m.m.m.m.M.M.M.M.M.M.M.M.M.l.g.y.O.G f > 4 3 r r d d d d d d d d t t t t t 1 > , > ; ; 0 ' *X;XQ./.&X-X*X*X&X&X*X6X5XtXtXyXtX9X5X-X*X%X/.E.Q.E.p.u.p.E.E.*X*X*X*X*X-X-X-X/.R.u.W.^././.%XQ./.;X*X-X-X-X;X>X9XuXyXvXvXmXmXmXmXmXiXiXiXmXmXmXvXvXxXxXxXiXiXiXqXqX0XqX0X0X9X0X0XqX",
"Y.I.u.I.R.T.T.T._.!.T.Y.Y.Y.U.I... . . . .....Y.T.T.T.T._.[._.T.U.........U...U.U.U.Y.Y.Y.Y.Y.U...U.U.U.U.U.U...U.U.U.......U.U.U.U.U.R.R.U.U.U.U.U.U.U.........X.{ { { {  . . . . ... ...X. .{ { { { { { { { [ [ [ [ [ | | 3.OX8X1XK.K.G.Z.Z.C.M.M.z.l.l.l.l.l.l.l.l.l.l.l.l.l.z.l.l.l.l.g.g.g.g.M.b.g.g.g.g.g.g.l.l.l.l.g.g.b.M.m.m.m.m.m.m.m.m.M.M.M.M.M.M.M.M.M.l.g.y.O.G f > 4 3 r r d d d d d d d d t t t t t 5 , 1 > 2 ; ; ( 7XoXQ.Q. XXX&X*X*X-X5X5X5X9XtXtXyXiXtX9X5X5X-X*X*X&XXX X XXXOX&X&X*X*X9X7X9X7X/.W.u.6.u.u.p.Q.R.Q.XX*X9X*XXXXX*X*X*X-XpXyXyXiXiXyXuX9X9XuXyXiXiXiXiXiXiXiXxXiXiXiXiXiXiXiXiXiXiXiXiX",
"T.I.u.I.T.T.T.T._.!.I.I.I.Y.Y.I... .} } } I.Y.Y.T.T.T.).).).~.Y.......U.......U.U.U.Y.Y.Y.Y.U.U...U.U.U...U.U.U.U.U...............U.U.U.U.U.U.U.U.U.U.........X.{ { { { {  . . . . . . . . .{ { { { { { { { { [ [ [ [ [ | | | OX8X1XK.K.A.Z.Z.C.M.z.l.l.l.l.l.l.l.l.l.l.l.l.l.l.z.l.l.l.l.g.g.g.g.g.g.g.g.g.g.g.g.l.l.l.l.g.g.m.M.m.m.m.m.m.m.m.m.M.M.M.M.M.M.M.M.M.l.g.y.O.G f > 4 3 r r d d d d d d d d t t t t t 5 3 3 > > < ; C qX*X&X&XXX X X X(.XX;X&X=X6X6X5X6X6X*X*X*X*X-XyX0X9X5X7X9X7X5X5X5X7X9X9X9X9X9X%XQ.6.| } } 6.5.5.E.XX*XtX;X(. X;X;X;X;X9X9X9X9X9X7X*X*X>X9XuXyXiXiXiXiXiXxXmXmXmXmXBXBXBXBXBXBXBXBXBX",
"^.T.R.R.W.^.^._._.W.I.u.R.T.T.I.I.u.u.} } ..I.T.Y.Y.Y.Y.Y.U.............U.U.U.U.U.U.U.U.U.U.U.U.U.U.U.U.U.............................U.U.....U.....X.X.X.X.X.X.{ { { { { X.X.X.X. . . . .{ { { { { [ [ [ | [ [ [ [ } } 6.| 0.+X8X1XK.K.S.Z.C.C.C.M.l.l.l.l.l.l.l.m.M.M.M.z.z.z.z.M.g.g.g.g.g.g.g.M.b.b.g.g.g.g.g.l.l.l.l.g.g.g.g.m.m.l.l.M.m.m.m.M.M.m.M.M.M.M.M.m.m.y.q.` Z 6 : 4 3 r r d d d d d d d d t t t t u e 5 3 > > < < N 7X9XyX5X;X&XoX|.(.(.XX;X&X*X*X*X*X&X;XQ.(.%X&X9X9XyX0X0XyXyX9X-X5XuXyX9XyXyX*X&XQ.6.} | | | 3.5.E.oX7XiX*XQ.Q.&X(.(.OX4X*X*X9XiX4XoX&X*X9X9XyXyXyXyXiXiXiXmXmXmXBXBXBXBXBXBXBXHXHXHX",
"`.`.W.T.^.`.'.].`._.R.R.W._.W.T.I.I.I.} } } U.I.U...} { }  . .............U.U.U.U.........U.U.U.............................................X.......X.X.X.X.X.{ { [ [ [ { { { { { { { { { { { { [ [ [ [ [ | | [ } } <XR.R.u.p.4X8X1X1XS.A.Z.C.C.C.M.l.l.l.l.l.l.l.m.m.m.M.z.z.z.z.M.g.g.g.g.g.g.g.b.b.b.g.g.g.g.g.l.l.l.l.g.g.g.g.m.l.l.l.M.m.m.m.m.M.m.M.M.M.M.M.m.m.y.=._ Z 6 > 4 3 r r d f f f d d u u t t t t t e 5 3 > < < < h XX*X5X7X5X:X*X*X;X;X;X&X*X-X-X*X*X5X5X-X-X5X9X9X9X0X0X9X9XyX9XyXyXpXiXyXyX0X5X=X/.u.u.Q.Q.p.p.Q.&X7X9X5XXXQ.u.Q.u.u.Q././.&X5X9X4X*X*X7X9X9XyXyXyXyXyXyXiXiXiXvXmXmXmXBXmXHXBXBXBXHX",
"].'.W.W./.`.].].^.W.W.W.`.`._.W.R.I.I.I.} } I.U.U.U...{ { {  . . . .X.........................U...........X.X.X.X.X.X.X.X.......X.X.........X.X.X.X.X.X.X.X.X.{ { [ [ [ { { { { { { { { { { [ [ [ [ [ [ [ | [ } I.R.T.T.W.Q.(.7X8X1X#XS.A.Z.C.C.C.M.l.l.z.z.l.l.l.m.m.m.b.z.z.z.z.M.g.g.g.g.g.g.g.g.b.b.g.g.g.g.g.l.l.l.l.g.g.g.g.m.m.m.m.M.M.m.m.M.M.M.M.M.M.M.M.m.m.y.&._ Z 5 > 3 3 r r r u u u u u u u t t t r t e 5 3 , > < 0 w 7.;XXX*X*X*X>X9X7X-X*X*X-X-X5X5X9XtXyXuXtX9XtX9X9XyX0X9X9XyX0XyXuXyXyX0X5X*X*X%X/.Q.(.5X5X9XtX4X5X9X9X*XXXQ.6.5.6.u.Q./.XX&XXXOX5X0X9X9XyXiXiXiXiXiXyXiXiXiXiXvXmXBXBXBXBXHXHXHXHXHX",
"'.`.W.W.W.W.^.W.R.R.R.W._.]._.W.R.R.R.I.} } } ..Y.).!.U...{ {  .{  . .X...................................X.X...X.X...X...........X.X.....X.X.X.X.X.X.X.X.X.{ { [ [ [ [ [ { [ { { { { { { [ [ [ [ [ [ [ [ | } I.T.{.{.W.W./.(.7X8X1XA.A.A.Z.C.C.C.M.l.l.l.z.l.l.l.m.m.m.b.z.z.z.l.g.g.g.g.g.g.g.g.g.g.b.g.g.g.g.g.l.l.l.l.g.g.g.g.m.m.m.m.M.M.m.m.M.M.M.M.M.M.M.M.m.m.y.&._ Z 5 > 3 3 r r r r r u u u u u u t t r t r 5 3 , > < 0 0 3. XE.(.oX;X*X>X>X-X*X-X-X9XtXyXyXuXuXuX9X9X-X9X9X9X9X9X9X9X9XtX9X-X*X*XXX/.OX/.Q.Q.(.OX4XuXdX9X9X7X9X*X&X(.5.u.u.Q.XX&X*X&X(. X9XyXyXiXpXmXKXmXxXmXmXmXmXmXmXmXmXBXBXHXHXHXHXHXHXHX",
"^.W.W.W.W.R.R.R.R.W./././.`.]._.^.R.T.T.R.} } ..Y.T.T.T.T.Y.U. .{ {  .X.X.......U.....X.{ ..............X...X.....X...............X...X.X.X.X.{ { { { X.X.X.{ { { [ [ [ [ [ [ [ { { [ [ [ [ [ [ | [ [ { U.I.R.T.W.`.`._.W.Q.OX4X2X1XA.A.Z.Z.C.C.M.M.M.M.M.M.M.g.b.b.g.g.b.M.M.M.M.g.g.g.m.g.g.g.g.g.g.g.g.m.m.m.m.g.g.g.g.m.m.m.m.m.m.m.m.m.m.m.m.M.M.M.M.M.M.m.M.m.l.y.&._ n 5 > 5 6 r r r r r r r u u d d u r r t r e 1 , > < < w ( E.E.E.E.Q.Q.XX;X*X*X-X-X9X9XuXuXuX9X9X9X7X-X7X7X9X9X9X7X5X5X5X4X&XXXXXQ.Q.(.Q.p.Q.Q.&X6X4X4X5X7X5X5X5X5X*X5X5X7X5X7X9X9X9X*X4XqXiXsXmXmXmXmXmXsXmXmXmXmXmXmXmXmXBXBXBXBXBXHXHXHXHX",
"Q.W.W.W.W.W.W.W.Q./.%X/./.&X&X]._._.W.T.T.} } ..T.[.[.[.[.T.Y...{ { { X.X.......U...X.X.{ .... . .X.X.X.X.X.X.X.X.o.o...R.Y.U...o.o.X.X.X.{ { { { { [ [ [ [ [ [ [ [ [ [ [ [ [ [ [ [ [ [ { { [ [ [ [ { ..Y.R.T.W._.`.`._.W.Q.OX4X2X1XA.A.Z.Z.C.C.M.M.M.M.M.M.b.b.b.g.g.g.b.M.M.M.M.g.g.g.M.g.g.g.g.l.g.g.g.m.m.m.m.g.g.g.g.m.m.m.m.m.m.m.m.m.m.m.m.M.M.M.M.M.M.m.M.m.l.y.&._ n 5 4 5 e r r r r r r r u u d u u r r r t e 1 , , < < 0 C p.p.5.6.6.6.E.E. XXXXX;X;X&X;X-X9X9X9X7X9X9X9X9XuX9X9X7X*X;X*X*X&XXX(.E.E.(./.Q.Q./.4X9X9X0XyXuXyXyXyXyXiXiXiXiXiXiXiXiXsXiXiXmXmXmXmXsXmXxXiXiXiXiXiXiXiXiXiXxXmXmXmXmXiXiXiXiXiX",
"R.R.T.W.W.W.W.W.Q././.%X/.&X&X]._.R.} } } } } I.T._._._._.^.T.I...} { ..............X.X.{ {  . .{ { { { { { { { { [ } R.T._.T.I.{ { { { { { { { [ [ [ [ { [ [ [ | | | | [ | [ [ [ [ { ........{ } } ..Y.T.T.W._._._./.W.W.Q.OXeX2X1XA.A.Z.Z.C.M.M.M.M.M.M.M.M.M.m.M.g.g.z.M.M.M.M.g.M.M.M.M.g.g.z.l.l.g.g.m.m.m.m.g.g.g.g.m.m.m.m.m.m.m.m.m.m.m.m.M.M.M.M.m.m.m.m.m.g.y.&._ n 4 4 5 r y u y r r r r r u d d u r r r t e 1 , 4 3 < 0 C p.E.E.p.5.5.6.6.5.p.6.5.5.u.E. X-X-X;X;X*X7X9X7X7X7X9X9X7X7X5X5X4X4X*X;X;X5X9X4X4X4X9X9X0XiXiXiXmXmXmXmXBXBXBXBXBXVXmXmXmXmXmXiXmXmXmXsXmXxXiXiXiXiXiXqXqXyXiXmXmXmXmXmXiXiXiXiXiX",
"u.R.R.R.R.^.^./.Q.Q./././.%X%X`./.R.| | | | } R.W.W.W.W.W._.W.R.I.} } ................ .{ { { { { { { { { { { { } [ } R.{.`.{.I.} { { { { [ [ [ [ | [ ..Y.U.} [ | | | | | | | [ [ o.I.T._._.T.T.R.Y.T.).{.W.W.W._._._.W.W.(.OXeX2X1XA.A.Z.C.C.M.M.M.M.M.M.M.l.m.M.M.g.g.l.M.M.M.M.M.M.M.M.M.g.g.z.l.l.g.g.m.m.m.m.g.g.g.g.m.m.m.m.m.m.m.m.m.m.m.m.M.M.M.M.m.m.m.m.m.g.y.&._ n 5 3 r r u u y r r r r r u f d u r r r t e 1 , , 3 < w N |.;X9X-X;X/.XXQ.p.p.3.5.6.6.5.p.Q.E.E.E.XX;X;X;X X(.(. X&X;X&X&X*X*X4X*X4X9X9X9X9X9X4X5X9X9XiXmXmXmXmXmXmXmXmXmXmXmXpXiXiXiXiXiXiXsXsXsXmXxXiXiXiXiXiXiXiXiXiXmXBXBXBXmXmXmXsXiXiX",
" .}  .u.u.^.^./.Q.Q.Q././.&XQ./.&X^.R.} } } u.R.W.`.`.`.`.&X%X_.W.R.I.} }  . . . .}  . . . .{ {  . . .{  .{  . . .6.I.R.R._.`._.R.} } } } } } } } I.Y.T._.T.I.} | | | | | [ | | [ T._._.[.T.T.T.T.T.W.W.W.W.W.W.W._.`.].`./.OXeX2X1XA.A.A.C.C.M.M.M.M.M.M.g.g.l.M.M.M.M.M.M.M.M.M.g.g.g.z.z.z.g.M.g.g.g.g.g.g.g.g.g.g.g.g.g.g.g.g.b.b.b.b.m.m.m.m.m.m.m.m.m.m.m.m.m.g.y.%._ n 6 6 6 t u u u y r r r r u u r u r 3 e r e 1 3 3 > < 0 C oX;X-X-X-X-X-X*X;XoXXX X X|.*X%X|.E.5.u.E.(.(.E.p.5.p.E.&X;X*X5X7X9X0X9X0X0XqX0X0X0X9X9X9XqXiXxXxXxXxXxXxXxXmXmXmXiXxXxXsXiXiXsXmXmXmXxXmXmXmXmXmXmXmXmXmXmXmXmXBXmXBXBXBXBXmXmXxX",
"} } }  . .u.^.'.&XQ./.%X%X&X%X`.&X=X`.^.T.W.W./.`.`.`.`.XX%X%X/.Q./.W.W.R.I.R.I.R. . .u.I.I. . .u. . . .Y. .R.Y.T.T.W.W.W.W._.`.W.T.Y.Y.Y.Y.T.T.T.T.^._._.^.T.Y.I.I.U.U.U.I.} } I.T.^._._.^.W.W.W.W._._._.^././.W./.`.&X`.OXOX+X2X1XA.A.A.C.C.M.M.M.M.M.M.g.g.g.M.M.M.M.M.M.M.M.M.g.g.g.z.M.g.g.M.g.g.g.g.g.g.g.g.g.g.g.g.g.g.g.g.m.b.b.m.m.m.m.m.m.m.m.m.m.m.m.m.m.g.y.%.` n 6 6 r t u d u y r r e r u u r u r 3 e r e , > > > ; q N ;X*X*X*X-X*X9XuXyXpXpXpXpXpXiXyX9X>X7XyXiXmXmXiXyX9X7X9X9X9XyXpXHXHXHXHXHXHXHXmXmXmXmXxXxXxXxXxXnXnXnXnXnXmXmXmXmXmXBXBXmXKXHXBXBXBXBXBXBXBXBXBXBXBXBXBXBXBXmXmXBXmXmXmXBXmXmXBXBX",
"} | } }  .u.W.&X&X/.%X&X&X&X&X&X&X=X=X'./.`.%X&X&X&X&X&X&X;X;X%XXX&X&X&X`.^.^.^.^.R.R.R.R.W.I.I.T.R.u.R.^.R.!.^.^.^._._._./.W._._._._._.[.[.[._._._._._._.^.^._.!.!._._._._.T.T._.W.^._._._._._._.^._._.`././.`./././.`.%XOXOX+X2X1XA.A.A.Z.C.M.M.M.M.M.M.g.g.g.g.g.z.l.z.M.M.M.M.g.g.g.M.M.M.M.M.g.g.g.g.g.g.g.g.g.g.g.g.g.g.g.g.m.m.m.m.m.m.m.m.m.m.m.m.m.m.m.m.m.g.y.%.` v 3 3 r t d d u u r r e r u u r t r 3 e r e , > > > ; 0 h ;X-XpXpXpXpXpXpXpXVXpXpXiXiXiXiXiXyXiXiXmXmXmXpXpXmXmXmXVXpXiXsXmXmXmXmXmXmXBXBXBXHXHXBXCXCXCXCXCXCXBXBXBXBXHXHXHXHXHXHXHXHXHXHXHXHXHXHXHXHXHXHXHXHXHXHXHXBXBXBXmXmXmXmXmXmXmXmXBX",
"} | } } } u.^.%X%X/./.;X&X%X-X-X/./.=X6X&X=X*X*X6X6X5X5X5X9X>X-X*XuX5X-X-X/././././././.W.`.W.W./.'.^.W.^.W.^./.`././.`.`.`./.W./.`.`.`.`.`.`.`._.`._._._.^._.].`._._._._.].`.`.].W.W.^.`.`.`.`././././.`.`.`.`.`.`./.`.%XOXoX+X2X1XA.A.A.Z.C.M.M.M.M.M.M.g.g.g.g.g.g.g.M.M.M.M.M.g.g.g.M.M.M.M.M.g.g.g.g.g.g.g.g.g.g.g.g.g.g.g.g.m.m.l.m.m.m.m.m.m.m.m.m.m.m.m.m.m.g.=.%.` b 4 3 r t u d u u r r e r r u r t r 3 e r e , 3 4 > < 0 p oX7XpXpXpXpXiXpXyXuXpXpXiXiXiXiXxXiXiXiXiXiXiXiXiXiXiXpXmXVXVXmXmXpXmXmXmXmXnXmXnXnXBXBXCXCXBXBXBXBXBXBXBXBXBXBXHXHXBXBXBXBXHXHXHXHXHXHXHXHXHXHXHXHXBXBXHXBXBXmXmXmXmXmXxXiXiXiXmX",
"R.W.W././././.Q.Q./.&X*X*XuXuXtXtX9X9XtXiXiXiXiXiXiXiXiXsXiXiXpXpXpXpXiXiXpXpXpXuX5X5X5X5X-X-X-X-X-X5X-X6X-X-X-X-X-X-X-X-X5X-X*X-X%X`.`.%X%X%X%X`.`.`.`.`.&X&X&X%X`.`.`.`.`.`.%X`.`./././././.%X%X&X&X&X&X&X&X&X&X=X=X6X-X*XeXeX2X#XA.A.A.A.C.C.C.M.M.M.M.M.M.z.z.M.M.M.m.b.l.M.M.g.g.g.g.g.g.g.g.g.g.g.g.g.g.g.g.g.g.g.g.g.g.g.g.l.l.l.m.m.m.m.m.m.m.m.m.m.m.m.m.g.e.=.@.` l 4 3 e r u u u u r r r r r r r 3 r 3 e z e , > 3 3 < 0 w 7.iXyXyXyXpXiXiXiXiXiXiXiXiXiXiXiXiXiXiXiXiXiXiXiXiXiXiXmXpXmXmXmXiXxXmXmXmXnXnXBXBXzXBXBXBXzXzXzXzXBXBXBXBXBXBXBXBXBXBXBXBXHXHXHXHXKXKXKXKXKXKXKXmXBXBXHXBXBXmXmXmXmXmXmXmXmXmXmX",
"=X`.%X&X&X&X%X/./.&X9XyX9XiXiXiXiXyXpXpXmXpXpXpXpXpXpXpXsXiXiXiXiXpXpXpXvXpXpXpXpXpXpXpXpXpXpXpXpXpXpXpXpXyXuXuXuXuXuXtXuXuXtXtXuXuXuXuXuXuXtXtXtXtXtXtXtXtXrX-X-X-X-X-X-X-X-X-X-X*X&X&X&X*X*X-X-X-X-X-X-X5X5X5X5X5X5XtX9X7X8X8X2X1XA.A.A.A.C.C.C.M.M.M.M.M.M.z.z.M.M.M.M.b.g.g.M.g.g.g.g.g.g.g.g.g.g.g.g.g.g.g.g.g.g.g.g.g.g.g.g.m.m.l.m.m.m.m.m.m.m.m.m.m.m.m.m.g.e.&.@.` l 4 3 3 e r r r r r r r r r r r 3 r 3 5 k e , > 3 3 < 0 w 7.iXyXyXpXyXyXyXyXiXiXiXiXiXiXiXiXiXiXiXiXiXiXiXiXiXiXiXpXpXpXpXsXiXmXmXmXmXnXnXnXnXzXzXzXzXzXzXzXzXnXmXmXmXmXBXBXmXmXBXBXBXBXBXBXBXKXKXKXKXmXmXmXsXmXmXBXmXmXmXBXBXBXBXHXBXBXBXBX",
"tX&X*X-X5X5X*X&X%X;X5X7X;X9X9X9X9X9X9XyXyXyX0XyXyXyXyXiXiXyXyXyXyXiXiXiXiXiXiXpXpXpXpXpXpXpXpXpXpXpXpXiXiXpXpXpXpXyXyXyXpXpXyXuXyXuXuXuXyXyXpXpXpXpXuXuXuXyXuXuXuXuXtXtXtXtX9X9XtXtXtXtX9X9X9X9X9XuXuXuXuXuXuXyXtXuXuXuXiXqXwX8X2X1XA.A.A.A.C.C.M.M.M.M.M.M.m.z.z.z.M.z.z.b.b.b.M.g.g.g.g.g.g.g.g.g.g.g.g.g.g.g.g.g.g.g.g.g.g.g.g.m.m.m.m.m.m.m.m.m.m.m.m.m.m.m.m.g.e.&.@.H d > > 3 3 e e r r r r r r r r r 5 r 3 5 k r 3 > 3 3 < 0 w 7.iXyXyXyXyXyXyXyXyXyXyXqXqXiXiXiXiXiXiXiXiXiXiXiXiXiXiXpXsXpXpXpXiXmXmXmXmXxXxXxXxXxXxXxXxXxXxXxXxXxXxXxXxXmXmXmXmXmXmXmXmXmXmXmXmXmXmXmXmXmXsXsXmXmXmXmXmXmXmXmXmXmXmXmXmXmXmXmX",
"5X-X-XtXuXyXuX9X5X-X9X9X*X&X&X&X&X;X*X5X5X*X*X*X4X5X7X9X9X9X9XyXyXyXyXiXiXyXpXiXiXpXpXmXpXyXyXpXpXpXpXpXpXpXpXpXpXpXpXpXpXiXpXyXpXpXpXpXiXpXpXpXyXuXuXuXuXyXyXyXyXuXuXuXuXuXyXuXuXpXpXiXiXuXuXiXiXiXiXiXiXiXiXiXiXiXiXpXiXqXwX8X2X1XA.A.A.A.C.C.M.M.M.M.M.M.m.l.z.z.z.z.z.b.b.b.M.g.g.g.g.g.g.g.g.g.g.g.g.g.g.g.g.g.g.g.g.g.g.g.g.m.m.m.m.m.m.m.m.m.m.m.m.m.m.m.b.g.y.&.O.H f > > 1 3 e e e r r r r r r r r e r 3 5 z r 3 > 3 3 < 0 w 7.iXyXuXuXuXuXuX9X9X9X9X0XqXyXyXiXiXiXiXiXiXiXiXiXiXiXiXpXiXiXiXpXiXiXxXxXxXxXiXiXiXxXxXxXxXiXiXiXiXxXxXxXxXiXxXxXiXiXiXxXiXmXmXmXmXsXsXsXsXsXsXsXmXmXmXmXxXmXiXxXiXxXiXmXmXiXmXiX",
"-X-X>X7X9X9X0X0X0XyXyXyXyX9X9X5X*X5X9XyX9X;X*X*X*X9X9XyXyXyXyXyXyXyXyXyX9X9X9X9X9XyXyXyXyXyXyXyXiXiXiXiXiXiXiXiXiXiXiXiXiXiXiXiXiXiXiXiXiXiXiXiXiXiXyXyXyXyXyXyXyXyXyXyXyXyXyXpXyXyXyXiXiXiXiXiXiXiXiXiXiXiXiXiXuXiXpXiXiXqXwXwX2X1XA.A.A.A.C.C.C.M.M.M.M.M.M.m.M.M.M.M.M.g.m.b.M.g.g.g.g.g.g.g.g.g.g.g.g.g.g.g.g.g.g.g.g.g.g.g.g.g.g.g.g.m.m.m.m.m.m.m.m.m.m.m.m.g.y.$.O.H f : > 1 3 5 e e i e r r r r r r e 3 t z r r 3 3 : 1 < w p E.*XuXuXuX9XuXuX9X9X9X9XyX0XyXyXiXiXiXiXiXiXiXiXiXiXiXiXiXiXiXiXiXiXiXiXmXiXiXiXiXiXxXxXxXxXxXxXxXxXxXxXxXxXmXmXmXmXmXmXmXmXmXmXmXmXmXmXmXmXmXsXsXsXmXmXmXxXxXiXiXiXmXxXmXmXxXxXiX",
"oXoX;X;X;X;X*X*X*X9X9X9X9X9X0XyXiXiXyX9X9X7X7X7X7X9XyXyXiXiXiXiXiXyXyXyXyX9X9X9X0X0XqXqXqXqXqXiXqXqXyXiXiXiXiXiXiXiXiXiXyXqXqXqXqXqXqXyXyXiXiXiXiXiXyXyXyXyXyXyXyXyXyXyXyXyXyXyXyXiXiXiXiXiXiXiXiXiXiXiXiXiXiXiXiXiXiXiXiXiXqXwX3X1X#XA.A.A.C.C.C.M.M.M.M.M.M.M.M.M.M.M.M.M.M.m.M.g.g.g.g.g.g.g.g.g.g.g.g.g.g.g.g.g.g.g.g.g.g.g.g.g.g.g.g.m.m.m.b.m.m.m.m.m.g.g.l.e.y.%.O.G f : > 3 3 e e i i e r r r r e r e 3 t z r r 3 3 : , 1 q p |.>XtX9XtXtXuXuX9X0X0X0XyX0XyXyXyXiXyXyXiXiXiXiXiXiXiXiXiXiXiXiXiXiXiXiXiXiXiXiXiXiXxXxXxXxXxXxXxXxXxXxXxXxXmXmXmXmXmXmXmXmXmXmXmXmXmXmXmXmXmXmXmXmXmXmXmXmXmXmXmXmXmXmXmXmXmXmXmX",
"9X9X7X7X9X0XyXyXyXyX9X9X9X9XyXyXiXyX9X9X9X9X9X7X*X*X-X7X9X9XyXyXyXqXqXqXqXqXqXqXqXqXqXqXqXqXqXqXqXqXqXqXqXqXqXqXqXqXqXqXqXiXiXsXsXxXiXiXiXiXiXiXiX0XqXqXqXqXqXqXqXqXqXyXqXqXqXyXqXiXqXiXiXiXiXiXiXiXiXiXiXiXiXiXiXiXiXiXiXqXwXwX3X1XA.A.A.A.V.C.B.C.M.M.M.M.M.M.M.M.M.M.M.l.m.m.M.g.g.g.g.g.g.g.g.g.g.g.g.g.g.g.g.g.g.g.g.g.g.g.g.g.g.g.g.m.m.m.l.m.m.m.m.m.m.m.l.e.y.%.O.J 6 : > 3 5 e r i i e r r r r r r e 3 t z i t 3 3 : , 1 0 p |.9XtX9X9XuXuXuXyX0X0X0XyXyXyXyXyXiXyXiXiXiXiXiXiXiXiXiXmXmXpXsXsXiXxXmXiXmXmXmXmXxXiXiXxXmXmXiXiXiXmXmXmXmXmXmXmXmXnXmXmXnXnXmXmXBXmXmXmXmXmXmXmXmXnXxXmXnXBXBXBXBXBXBXmXmXmXmXmX",
"yX0X0X0XqXyXiXiXyXyXyXyXyXyXyX9X9X9X9X9X9X9X7X;XXX XXX;X*X7X7X7X7X0X0XqXqXqXqXyXqXqXqXqXqXqXqXqXqXqXwXwXwXqXqXqXqXqXqXqXqXqXqXqXqXqXqXiXqXqXqXqXqXqXqXqXqXqXqXqXqXqXqXqXqXqXqXyXqXiXqXqXqXiXiXiXiXiXiXiXiXiXiXiXiXiXiXiXiXqXwXwX3X1XA.A.A.A.V.C.C.C.M.M.M.M.M.M.M.M.M.M.M.l.m.m.M.g.g.g.g.g.g.g.g.g.g.g.g.g.g.g.g.g.g.g.g.g.g.g.g.g.g.g.g.m.m.m.l.m.m.m.m.m.m.m.g.e.y.%.O.Z 5 : > 3 5 r r i i e r r r r r r r 3 t z t t 3 3 : , 1 < p |.9X9X9X9XuXuXuXyX0X0XyXyXyXyXyXyXyXyXiXiXiXiXiXiXiXiXiXmXmXmXmXmXmXmXmXmXmXmXmXmXxXiXiXxXmXxXxXiXiXmXmXmXmXmXmXmXmXnXnXmXnXnXmXmXnXmXmXmXmXmXmXmXmXnXnXBXmXBXBXBXBXBXBXmXmXmXmXmX",
"qXqXqXqXqXyXyXyXyXyXyXyXyXqX0X9X9X9X9X9X9X9X7X*XoXXXoX*X7X7X7X9X9XqXqXqXqXqXqXqXqXqXqXqXqXqXqXqXqXqXqXqXqXqXqXqXqXqXqXqXqXqXqXqXqXqXyXiXiXqXqXqXqXqXqXqXqXqXqXqXqXiXiXiXyXyXyXyXiXiXiXiXiXiXiXiXiXiXiXiXiXiXiXiXiXiXiXiXiXqXqXqX3X1XA.A.A.A.C.B.M.M.M.M.M.M.M.M.M.M.M.m.M.m.m.m.m.m.m.m.g.g.g.g.g.g.g.g.g.g.g.t.g.t.t.t.t.g.g.g.g.g.g.g.g.g.g.g.g.m.m.m.m.l.m.m.g.y.q.%.O.J 6 - > > 3 e t r r r r r r r r r r 5 t v u u 3 5 4 : 1 < p 7.9X9X9X9X9X9X9XyX9XyXyXyXyXyXiXiXiXiXiXiXiXiXiXvXvXvXvXmXmXmXmXVXmXmXpXpXmXiXpXpXiXiXiXiXpXpXpXpXmXmXxXxXxXmXnXnXnXnXmXmXnXBXBXBXBXmXmXmXBXmXmXBXBXBXBXBXBXBXBXBXBXmXmXmXBXmXmXmX",
"qXqXqXqXyXyXyXyXyXyXyXyXyXqXqXqXqXqXqX0X0X0X0XqX9X9X9X0X9X0XqXqXqXqXqXqXqXqXqXqXqXqXqXqXiXiXiXiXiXiXiXqXqXqXqXqXqXqXqXiXiXiXiXiXiXiXiXiXiXiXiXiXqXiXqXqXqXiXiXiXiXiXiXiXiXiXiXiXiXiXiXiXiXiXiXsXsXsXsXiXiXiXiXiXiXiXiXiXiXxXgXqX3X1XA.A.A.A.C.B.M.M.M.M.M.M.M.M.M.M.M.m.M.m.m.m.m.m.l.l.g.g.g.g.g.g.g.g.g.g.g.g.g.t.t.t.t.g.g.g.g.g.g.g.g.g.g.g.g.m.m.m.m.m.m.g.g.y.q.%.O.Z 4 - > > 3 e i r r r r r r r r r r 5 t c u u 5 5 4 : 1 < w 5.>X9X9X9X9X9X9XyX9XyXyXyXyXyXiXiXiXiXiXiXiXiXiXiXiXvXvXpXpXmXpXpXmXmXmXmXmXpXpXpXiXiXsXiXiXiXpXpXpXmXxXxXxXmXnXmXnXnXmXmXnXBXBXBXBXBXmXmXBXBXmXmXBXBXBXBXBXBXBXBXBXmXBXBXBXmXmXmX",
"yXyXyXyXyXiXiXyXyXyXyXyXyXiXyXyXiXiXiXiXiXqXiXxXmXxXiXiXyXiXiXiXiXiXiXiXiXiXiXiXiXiXiXiXiXmXmXiXiXiXiXiXiXiXiXiXiXiXiXiXiXiXiXiXiXiXiXiXiXiXiXiXiXiXiXiXiXiXiXiXiXiXiXiXiXiXiXiXiXiXpXiXiXsXmXsXsXsXsXsXsXsXsXsXsXsXsXxXmXmXnXgX8X1XA.A.A.A.V.V.B.M.M.M.M.M.M.M.M.M.M.m.M.m.m.m.m.m.l.g.g.g.g.g.g.g.g.g.g.g.g.g.g.g.t.t.t.g.g.g.g.g.g.g.g.g.g.g.g.m.m.m.m.g.g.g.g.y.q.%._ Z 4 - : > 3 e t r r r r r r r r r e 5 t z u d e 5 5 : 1 < 0 8.>X9X9X9X9X9X9X9X9XyXyXuXyXyXiXiXiXiXiXiXiXvXvXvXvXiXiXiXiXiXiXpXpXmXmXmXmXmXmXmXmXpXsXmXmXpXmXmXmXmXmXmXmXmXmXmXmXBXBXBXBXBXBXBXBXBXBXBXBXBXmXmXBXBXBXBXBXBXBXBXBXBXBXBXBXmXmXBX",
"iXiXiXiXiXiXiXiXiXiXiXiXiXiXiXiXxXiXiXiXiXiXiXiXmXmXxXxXiXiXxXxXsXsXsXsXxXxXxXxXxXxXxXmXmXmXmXmXmXmXmXmXmXmXmXmXmXmXmXmXmXmXmXmXmXmXmXmXmXxXxXxXxXxXmXxXxXmXmXmXmXmXmXpXpXpXmXmXpXpXpXpXmXmXmXsXsXsXsXsXmXmXmXmXmXsXmXmXmXnXnXjX8X1XA.A.A.A.V.V.B.M.M.M.M.M.M.M.M.M.M.m.M.m.m.m.m.l.g.g.g.g.g.g.g.g.g.g.g.g.g.g.g.g.t.t.t.g.g.g.g.g.g.g.g.g.g.g.g.m.m.m.g.g.g.g.g.y.4.%._ Z , - - > 1 e t r r r r r r r r r e e t z t d r 5 5 : 1 < 0 8.7X9X9X9X9X9X9X9X9XuXuXyX9XyXyXiXiXiXiXiXiXiXiXiXiXiXiXiXiXiXiXiXpXpXpXpXpXpXmXmXmXpXsXmXmXmXmXmXmXmXmXmXmXmXmXmXmXBXBXBXBXBXBXBXBXBXBXBXBXBXmXmXBXBXBXBXBXBXBXBXBXBXBXBXHXBXBXHX",
"pXmXmXmXmXmXmXmXmXmXmXmXmXmXmXmXmXmXmXmXmXmXiXmXmXmXmXmXmXmXmXmXmXmXmXmXmXmXmXmXBXmXmXmXmXmXmXmXmXmXmXmXmXmXmXmXBXmXmXmXmXmXmXmXmXmXmXmXmXmXmXmXmXmXmXmXmXBXBXBXmXmXmXmXmXmXmXmXmXVXVXmXmXmXmXmXmXmXmXmXmXmXmXmXmXmXmXmXmXmXMXjXwX1XA.A.A.A.V.V.M.M.M.M.M.M.M.M.M.M.M.M.M.m.m.m.m.b.m.m.g.g.g.g.g.g.g.g.g.t.t.t.g.g.t.t.t.g.g.g.g.g.g.g.g.g.g.g.g.b.b.b.m.l.l.l.g.y.4.%._ Z 5 : - - > e r e e r r e e e r r 5 , z z d d t 5 3 : < 0 0 8.9X9X9X9X9X9X9X9X9XuXuXyXuXyXyXyXyXiXiXiXiXiXiXiXiXiXiXiXiXxXiXiXiXiXxXxXvXxXxXxXxXvXxXxXmXmXmXmXmXmXmXmXmXmXmXmXmXnXnXnXmXmXnXnXnXmXmXmXBXmXmXBXmXBXBXBXBXBXBXBXBXmXmXBXBXmXmXmX",
"mXmXmXmXmXmXmXmXmXmXmXmXmXmXmXmXmXmXmXmXmXmXmXmXmXmXmXBXBXBXBXmXmXBXBXBXBXmXmXmXBXBXBXmXBXmXmXmXmXmXmXmXmXmXmXmXmXmXmXmXmXmXmXmXmXmXmXmXmXmXmXmXmXmXmXBXBXBXBXBXmXmXmXmXmXmXmXmXmXVXVXmXmXmXmXmXmXmXmXmXmXmXmXmXmXmXmXmXmXmXnXmX8X1X#XA.A.A.V.V.M.M.M.M.M.M.M.M.M.M.M.M.M.m.m.m.m.b.m.m.g.g.g.g.g.g.g.g.g.t.t.t.g.g.t.t.t.g.g.g.g.g.g.b.g.g.g.g.g.b.b.m.m.l.l.g.g.y.&.@._ Z 6 : - : , i u t t r r e e e r r 5 3 c z d d t 5 3 : < 0 w 3.9X9X9X9X9X9X9X9X9XuXuXyXuXyXyXyXyXiXiXiXiXiXiXiXiXiXiXiXiXxXxXiXiXiXiXiXiXiXiXiXiXvXvXvXmXmXmXmXmXmXmXmXmXmXmXmXmXnXnXnXnXnXnXnXmXmXmXmXBXBXBXBXmXBXBXBXBXBXBXnXnXmXmXmXmXiXxXxX",
"mXmXmXmXmXmXmXmXmXmXmXmXmXmXmXmXmXmXmXmXmXmXmXmXmXBXmXmXBXBXBXBXmXmXBXBXBXBXmXmXBXBXBXBXmXmXmXmXmXmXmXmXmXmXmXmXmXmXmXmXmXmXmXmXmXmXmXmXmXmXmXmXmXmXmXBXmXmXBXBXmXmXmXmXmXmXmXmXmXmXmXmXmXmXmXmXmXmXmXmXmXmXmXmXmXmXmXmXmXmXnXmXwX2X#XA.A.A.A.V.M.M.M.M.M.M.M.M.M.M.M.M.M.m.m.m.m.b.l.l.g.g.g.g.g.g.g.g.g.t.t.t.g.t.t.t.t.g.g.g.g.g.g.g.g.g.g.g.g.g.m.m.m.m.g.m.g.y.&.@._ Z 6 : - > 3 r u k u r 5 5 r r r r 5 r v z d d t 5 5 : < < p 7.>X9X9X9X9X9X9XuX0X9X9X9X9X0X0XyXyXiXiXiXiXiXiXiXiXiXiXiXiXxXiXiXiXiXiXiXiXiXiXiXiXxXmXmXmXmXmXmXmXmXmXmXmXmXmXmXmXnXnXBXBXnXnXnXnXBXmXmXBXBXBXBXBXBXBXBXBXBXBXBXBXmXmXmXmXxXxXxX",
"VXBXmXmXmXmXmXmXmXmXBXBXVXmXmXmXmXmXmXBXmXmXmXmXmXmXmXmXmXmXBXBXmXmXBXBXBXBXmXmXmXmXmXmXmXmXmXmXmXmXmXmXmXmXmXmXmXmXmXmXmXmXmXmXmXmXmXmXmXmXmXmXmXmXmXmXmXmXmXmXmXmXmXmXmXmXmXmXmXmXmXmXmXmXmXmXmXmXmXmXmXmXsXsXsXmXmXmXmXmXmXgXwX2X#XA.A.A.A.V.B.M.M.M.M.M.M.M.M.M.M.M.M.m.m.m.m.m.m.l.g.g.g.g.g.g.g.g.g.t.t.t.t.t.t.t.t.g.g.g.g.g.g.g.g.g.g.g.g.l.m.m.m.m.m.m.g.y.&.@._ Z 6 : - > 3 u d c k t 5 r r e r e 5 r V z d d t 5 5 : < 2 h a.>X9X9X9X9X9X9XuX0X9X9X9X9X0X0XyXyXiXiXiXiXiXiXiXiXiXiXiXiXxXiXiXiXiXiXiXiXiXiXiXiXxXiXiXmXmXmXmXmXmXmXmXmXmXmXmXmXnXnXBXBXmXnXnXBXBXmXmXBXBXBXBXBXBXBXBXBXBXBXBXHXHXHXHXHXBXBXHX",
"mXmXmXmXmXmXmXmXmXmXmXmXmXmXmXmXBXBXBXBXmXmXmXmXmXmXiXmXmXmXmXmXmXBXBXBXHXBXBXmXmXiXxXmXmXmXmXmXmXmXmXmXmXmXmXmXmXmXmXmXmXmXmXmXmXmXmXmXmXmXmXmXmXmXmXmXmXmXiXmXmXmXmXmXmXmXmXmXmXmXmXmXmXmXmXmXmXmXmXxXiXsXsXsXmXsXmXmXmXxXxXqXwX2X1XA.A.V.V.V.B.B.M.M.M.M.M.M.M.M.M.M.m.m.m.m.m.m.m.l.g.g.g.g.g.g.g.g.g.g.g.g.g.t.t.t.t.t.t.g.g.g.g.l.g.g.g.g.g.m.m.m.b.m.m.g.g.y.&.@.O.Z 4 : , , e u z z k u t 5 5 5 5 e 5 5 v z d d t 5 5 1 < < p p.:X9X9X9X9X9X9XyXyXuX9X9X0X9XyXyXyXiXiXiXiXiXiXiXiXiXiXiXiXiXiXiXiXiXiXiXiXiXsXmXmXiXiXiXiXiXiXiXmXnXnXnXmXmXmXnXnXnXnXnXnXnXnXnXBXBXBXBXBXBXHXBXHXFXFXFXFXFXFXFXFXFXFXFXFXFXFXFX",
"mXmXmXmXmXmXmXmXmXmXiXxXiXmXmXmXmXxXxXmXmXmXmXmXmXxXiXxXiXmXmXmXmXmXBXBXHXBXmXmXiXiXiXiXiXiXiXmXmXmXmXmXmXmXmXmXxXxXiXiXmXmXmXmXmXmXmXmXmXmXmXmXmXmXmXmXmXmXmXmXmXmXmXmXmXmXmXmXmXmXmXmXmXmXxXiXiXiXiXxXiXsXsXsXmXmXmXmXmXnXmXgXwX2X1XA.A.V.V.V.M.B.M.M.M.M.M.M.M.M.M.M.m.m.m.m.m.m.m.m.g.g.g.g.g.g.g.g.g.g.g.g.g.t.t.t.t.t.t.g.g.g.g.l.g.g.g.g.g.l.m.m.b.m.m.g.g.y.&.@.O.Z 4 : , 1 e u d k k t t 5 5 5 5 e 3 3 v x d d t 5 5 1 < 0 p E.>X9X9X9X9X9X9XyXyXyX9XyXyXyXyXyXiXiXiXiXiXiXiXiXiXiXiXmXmXmXxXxXsXiXiXiXsXmXmXBXBXmXmXiXiXiXmXmXHXFXFXFXHXHXHXHXFXBXBXBXBXFXFXFXFXFXFXFXFXBXHXBXHXFXFXFXFXFXFXFXFXFXFXFXFXFXFXFX",
"mXmXmXmXmXmXmXmXmXmXxXxXxXmXmXmXmXiXiXmXmXmXmXmXmXmXiXmXmXmXmXBXBXBXBXBXHXHXHXmXiXiXxXmXmXmXmXmXmXmXmXmXmXmXxXxXiXiXiXmXmXiXiXmXmXmXmXmXmXmXmXmXmXmXmXmXmXmXmXBXmXmXmXmXmXmXmXmXmXmXmXmXmXmXxXxXmXiXiXmXmXmXmXmXmXmXmXmXBXBXnXjXhX3X1XA.A.A.V.V.M.M.M.M.M.M.M.M.M.M.M.M.m.m.m.m.m.m.b.b.g.g.g.g.g.g.g.g.g.g.g.g.g.t.t.t.g.g.t.g.g.g.t.g.g.g.g.g.g.m.m.m.m.m.m.g.g.y.&.@.O.Z 4 : , 3 r u u d u r r 5 5 5 5 e 3 3 v x d d t 5 5 1 < 0 h |.9X9X9X9X9X9X9XyXiXyXyXyXiXiXyXiXiXiXiXsXsXmXmXmXmXmXmXmXmXmXmXmXmXmXmXmXmXHXHXHXHXHXHXHXmXmXHXHXHXFXFXFXFXFXFXFXFXFXFXFXFXFXFXKXKXFXFXFXFXFXFXFXFXFXFXFXFXFXFXFXFXFXFXFXFXFXFXFX",
"mXmXmXmXmXmXmXmXmXmXmXBXBXBXBXBXBXBXBXmXmXiXxXmXmXmXmXmXmXmXmXBXBXBXBXBXHXHXHXmXxXiXxXmXmXmXmXmXmXmXmXmXmXmXxXxXiXiXxXmXiXiXiXiXiXmXmXmXmXmXmXmXmXmXmXmXmXBXBXHXBXBXmXBXmXmXmXmXmXmXmXmXmXmXiXmXmXmXBXBXBXKXKXKXKXmXmXmXBXFXnXnXgX3X1XA.A.A.V.V.M.M.M.M.M.M.M.M.M.M.M.M.M.m.m.m.m.b.b.b.g.g.g.g.g.g.g.g.g.g.g.g.g.t.g.g.g.t.t.g.t.t.t.g.g.g.g.g.g.m.m.m.m.m.l.g.g.y.&.@.O.Z 4 : , 3 r t 5 u t r 5 5 5 5 e e 3 3 v x g d u 5 5 1 < q h |.yX9X9X9X9X9X9XyXiXiXiXiXiXiXiXiXiXsXsXmXmXmXmXBXmXmXBXBXHXHXHXHXBXHXHXHXHXHXHXHXHXGXGXGXHXHXHXHXHXFXFXFXFXFXFXKXKXFXFXJXJXJXKXKXKXFXFXFXFXFXFXFXFXFXFXFXFXFXFXFXFXFXFXFXFXFXFXFX",
"BXBXxXxXxXmXmXmXmXmXBXBXBXHXHXHXHXHXHXBXmXiXiXxXmXmXmXmXmXmXmXBXHXBXBXHXHXHXBXmXmXmXmXmXmXmXmXmXmXmXmXmXmXmXmXmXmXmXmXmXmXmXmXmXmXmXmXBXmXmXmXmXBXmXmXmXmXBXBXHXBXHXBXBXHXBXBXBXmXmXmXmXmXmXmXmXmXHXHXHXBXBXBXBXmXmXmXmXBXHXmXmXjX3X1XA.A.V.V.V.B.B.M.M.M.M.M.M.M.m.M.m.m.m.m.m.m.m.m.m.g.g.g.g.g.g.g.g.g.g.g.g.g.t.t.t.t.t.t.g.g.b.b.b.b.g.g.g.g.m.m.m.m.g.g.g.g.e.&.%.O.J 3 : 6 3 r r r r r r 5 6 r e e r 5 e v x z k u 5 3 1 < 0 c oX>X9XuXyXyXyXyXiXiXiXiXxXmXsXiXmXmXmXmXmXmXmXmXBXBXBXBXHXBXHXHXHXFXFXFXFXFXFXFXFXFXFXFXJXKXFXFXFXFXFXFXKXKXKXKXKXKXJXJXJXJXJXKXFXFXFXFXFXFXFXFXFXFXJXKXKXFXKXFXFXFXFXFXFXFXFXFXKX",
"xXxXiXxXxXiXiXmXmXmXmXBXmXBXBXBXHXBXmXmXiXiXxXmXBXBXmXmXmXmXmXBXBXBXBXHXHXHXmXmXmXmXmXmXmXmXmXmXmXmXmXmXmXmXmXmXBXBXBXmXmXBXBXmXmXBXBXBXBXBXBXBXBXBXBXmXmXmXmXmXxXxXiXmXmXmXmXmXHXmXBXBXmXmXmXmXmXmXmXmXmXmXmXBXHXBXHXBXHXFXMXMXjX8X1X#XA.V.V.V.B.B.M.M.M.M.M.M.M.M.M.m.m.m.m.m.m.m.m.m.g.g.g.g.g.g.g.g.g.g.g.g.g.t.t.t.t.t.t.g.g.b.b.b.g.g.g.g.g.m.m.m.m.g.g.g.g.e.&.%.O.J 5 : 3 3 r r r r r r 6 6 r e e r 5 e v x x k u r 3 1 < 0 C ;X9XyXyXiXiXiXiXiXiXiXiXmXmXmXmXmXmXmXmXBXBXBXBXHXHXHXHXHXHXHXHXHXHXFXFXFXFXFXFXFXFXKXKXJXJXKXKXKXJXJXJXJXKXKXKXKXKXJXJXJXJXJXJXKXKXFXFXFXFXFXFXFXFXFXFXFXFXFXFXFXFXFXFXFXFXFXFXKX",
"xXxXxXxXxXxXmXmXmXBXmXmXmXBXBXBXBXmXmXmXmXiXmXBXHXHXHXHXHXBXBXBXBXBXBXBXmXBXBXHXHXHXHXHXHXBXBXBXBXHXHXHXHXHXHXHXHXHXHXHXHXBXBXBXBXHXHXHXHXHXHXHXHXHXHXBXmXmXmXiXiXiXiXmXmXmXBXHXHXHXHXHXHXHXHXHXHXBXmXmXmXBXBXBXBXHXHXBXHXFXMXMXjX8X1X#XA.V.V.V.B.B.M.M.M.M.M.M.M.M.M.m.m.m.m.m.m.m.m.m.g.g.g.g.g.g.g.g.g.g.g.g.g.t.t.t.t.t.g.g.t.b.b.b.g.g.g.g.g.m.m.m.m.g.g.g.g.g.q.%.O.J 6 : , 3 r r r r r 6 6 6 r 6 e r 5 q v c x k t r 5 1 < a C :XyXyXiXiXiXiXiXiXxXxXxXmXmXmXmXmXBXBXBXHXHXHXHXHXHXHXHXHXHXHXHXHXHXFXFXFXFXGXGXKXKXKXFXKXKXKXKXKXJXFXFXFXFXFXFXFXFXKXKXKXKXJXJXFXFXFXFXFXFXFXFXKXFXFXFXFXFXFXFXFXFXFXFXFXFXFXFXFX",
"nXnXnXnXBXmXBXBXBXBXmXmXmXBXHXHXHXBXmXmXBXmXBXBXHXHXHXHXHXBXBXBXBXBXBXBXmXmXmXHXHXHXHXHXHXHXBXHXHXHXHXHXHXHXHXHXHXHXHXHXHXHXBXBXBXBXBXBXHXHXHXHXHXHXHXHXBXmXmXBXmXBXHXHXHXHXHXHXHXHXHXHXHXHXHXHXHXHXHXHXHXHXHXHXHXHXHXHXHXFXFXMXjX8X1X#XA.V.V.V.B.B.M.M.M.M.M.M.M.M.M.m.m.m.m.m.m.m.m.m.g.g.g.g.g.g.g.g.g.g.g.g.g.t.t.t.t.t.g.g.t.b.b.b.g.g.g.g.g.m.m.m.m.g.g.g.g.g.q.%.O.G 6 : > 3 r r r r r 6 6 6 r e e r 3 r v c x z t t e 1 < i C ,XxXiXiXiXiXiXiXiXiXiXiXxXmXmXmXmXmXBXBXHXHXHXHXHXHXHXHXHXHXHXHXHXHXFXFXFXFXFXFXFXFXFXFXFXFXFXFXFXFXFXFXFXFXFXFXFXFXFXFXFXFXFXFXFXFXFXFXJXKXFXFXKXFXFXFXFXFXFXFXFXFXFXFXFXFXFXFXFX",
"BXBXBXBXBXmXBXHXBXBXmXmXmXBXBXFXBXBXBXBXBXBXBXBXHXHXHXHXHXHXFXHXBXBXBXHXBXBXBXHXHXHXHXHXHXHXFXHXHXHXHXHXHXHXHXHXHXHXHXHXHXHXHXBXHXFXFXFXFXFXFXFXFXFXFXFXFXFXBXFXFXFXFXFXFXFXFXFXFXFXFXFXFXFXFXHXFXFXFXFXFXHXHXHXHXHXHXHXHXFXFXMXMXhX1X#XV.V.V.V.B.B.M.M.M.M.M.M.M.m.m.m.m.m.m.m.m.m.m.m.m.g.g.g.g.g.g.g.g.g.l.g.g.b.b.b.i.i.g.g.t.g.b.b.i.b.b.b.b.m.m.m.b.b.b.b.b.e.q.%.O.H f : , 5 e r i r e 5 5 r r e e u 3 r c c x x t i e 1 < w D vXyXiXiXiXyXyXyXiXiXiXiXxXmXiXsXmXBXmXmXBXBXBXBXFXFXFXFXHXHXCXCXCXHXCXCXCXCXCXFXGXFXFXFXFXFXFXFXFXFXCXCXCXCXCXCXCXCXFXFXFXFXCXCXFXFXFXFXGXGXGXGXGXGXFXCXFXFXFXFXFXFXFXFXFXFXFXFXGX",
"HXHXHXHXHXBXmXBXmXmXBXBXmXxXxXnXmXBXBXBXBXBXBXBXBXHXHXHXHXHXHXHXFXBXBXBXBXFXFXFXHXHXHXHXHXHXHXHXHXHXHXHXHXHXHXHXHXHXHXHXHXHXHXFXFXFXFXFXFXFXFXFXFXFXFXFXFXFXFXFXFXFXFXFXFXFXFXFXFXFXFXFXHXFXFXHXFXFXFXFXFXHXHXHXHXHXHXHXHXFXFXFXMXhX2X#XV.V.V.V.B.B.M.M.M.M.M.M.M.m.m.m.m.m.m.m.m.m.m.m.m.g.g.g.g.g.g.g.g.g.g.g.l.b.b.b.i.i.g.g.g.g.b.b.i.b.b.b.b.m.m.m.b.b.b.b.b.e.q.%.O.H f : , 5 e r i r e 5 5 r r e e r 3 r v c x x t t e 1 < 0 A yX9XiXiXiXiXiXiXiXiXiXiXxXmXmXmXBXBXBXBXHXHXHXFXBXBXnXxXxXxXxXzXzXzXnXCXCXCXCXCXCXFXCXFXFXFXFXFXFXFXGXGXGXGXFXFXFXFXGXGXGXGXFXFXFXFXGXGXGXGXGXGXGXGXFXFXFXFXFXFXFXFXFXFXMXFXFXFXGX",
"BXBXBXBXBXBXmXxXiXiXiXmXmXxXxXxXxXxXxXnXnXmXmXBXBXHXHXHXHXHXHXHXFXHXHXHXHXFXFXFXHXHXHXHXHXHXHXHXHXHXHXHXHXHXHXHXHXPXHXHXHXHXHXKXKXFXFXFXFXFXFXFXFXFXFXKXKXKXKXJXKXKXFXFXFXFXFXFXFXFXFXFXFXFXHXHXFXFXFXFXFXKXFXHXHXHXHXHXHXFXFXFXMXhX2X#XV.V.V.V.B.B.B.B.M.M.m.m.m.m.m.m.m.m.m.m.m.g.m.m.m.g.g.g.b.l.b.g.g.g.g.g.l.b.b.b.i.g.g.g.g.g.b.b.i.b.b.b.b.m.m.m.b.b.b.b.b.e.q.&.O.H f : , 5 e r i r e 5 5 r r e e 5 e 3 N x c k t u e 1 < < A >X9XiXiXiXiXiXiXiXiXiXiXxXmXmXmXBXmXBXBXHXHXFXFXFXFXHXFXFXHXBXCXCXBXnXCXFXCXCXCXCXCXCXCXFXFXFXFXFXFXGXGXGXGXFXFXFXFXGXGXGXGXFXFXFXFXFXFXGXGXFXFXGXGXFXFXFXFXCXFXFXCXFXFXFXFXMXMXMX",
"xXxXxXxXxXmXxXiXiXqXiXiXiXxXxXxXxXxXiXxXxXxXmXBXBXBXBXHXHXBXBXBXBXHXHXHXHXFXFXBXBXBXHXHXHXHXHXHXHXHXHXHXHXHXHXHXHXHXHXHXHXHXHXKXKXKXKXFXFXFXFXFXFXFXFXKXKXJXJXJXJXFXFXFXFXFXFXFXFXFXFXFXFXFXHXHXFXFXFXFXFXKXFXFXHXHXHXHXHXKXKXGXMXgX3X1XV.V.V.V.B.B.B.B.M.M.m.m.m.m.m.m.m.m.m.m.m.g.m.m.m.g.g.g.b.b.b.g.g.g.g.g.l.b.b.b.b.g.g.g.g.g.b.b.i.b.b.b.b.m.m.m.b.b.i.b.b.e.q.&.O.H f : , 3 e r i r e 5 5 r r 5 e 1 e 3 B x v d u u i a 0 0 ( ,XiXiXiXiXiXiXiXiXiXiXiXxXmXmXmXmXmXmXBXBXBXBXBXBXBXBXBXBXBXvXvXBXBXnXnXnXCXCXnXCXCXCXCXBXFXFXFXFXFXCXCXCXCXFXFXGXFXGXGXGXGXFXFXCXCXFXFXFXFXFXFXGXGXFXFXFXFXCXCXFXCXFXFXFXMXMXMXMX",
"iXxXxXxXxXmXmXxXiXiXiXiXiXxXxXxXxXxXxXxXxXxXnXBXBXBXBXBXBXBXBXBXBXCXCXCXCXBXBXBXBXBXBXHXHXFXBXBXBXBXBXHXFXHXHXHXHXHXHXHXHXHXHXFXFXFXFXFXFXFXFXFXFXFXFXFXFXFXFXKXFXFXFXFXFXFXFXFXFXFXFXFXFXFXFXFXFXFXFXFXFXFXFXFXHXFXHXHXHXLXJXJXMXgX2X1XV.V.V.V.V.V.B.B.M.M.M.M.M.m.m.m.m.m.m.m.m.g.m.m.m.g.g.g.g.g.g.g.g.g.g.g.g.b.b.b.b.b.t.t.t.b.b.b.b.b.b.b.b.b.m.m.m.b.g.g.b.e.y.&.O.^ x > - 3 e i r r e 5 r 6 5 5 5 , 3 r A x x d k u i a 0 0 ( ,XlXiXiXiXiXiXiXiXiXiXxXxXxXxXxXxXxXnXnXBXBXBXBXBXBXBXBXBXnXzXxXxXxXzXxXnXnXZXzXnXnXnXnXBXBXCXCXCXCXCXCXCXCXFXFXGXFXGXFXFXFXFXFXFXFXFXFXFXFXGXGXGXGXFXFXFXCXCXCXCXCXFXFXFXMXMXMXMX",
"xXxXxXnXnXBXBXmXmXxXiXiXiXxXxXxXxXxXnXBXBXBXBXBXBXBXBXBXBXzXzXnXzXzXxXzXzXnXnXBXnXnXBXFXFXFXBXBXBXBXBXHXFXFXFXHXHXHXHXHXHXHXHXFXFXFXFXFXFXFXFXFXFXFXFXFXFXFXBXFXFXFXFXFXFXFXFXFXFXFXFXFXFXFXFXFXFXFXFXFXFXFXFXFXFXFXFXHXHXHXHXHXMXgX2X1X.XV.V.V.V.V.B.B.M.M.M.M.M.m.m.m.m.m.m.m.m.g.m.m.m.g.g.g.g.g.g.g.g.g.g.g.g.b.b.m.b.g.t.t.t.b.b.b.b.b.b.b.b.b.m.m.m.b.b.b.b.y.y.&.O.` v > : 3 5 i r r e 5 6 6 5 5 5 , 3 r B c z k k u i e 0 0 / ,XbXiXiXiXiXiXiXiXiXiXxXxXxXxXxXxXxXxXxXxXnXnXnXnXnXxXnXmXxXxXbXxXxXxXxXzXnXzXzXzXzXnXnXBXFXCXCXCXCXCXCXCXCXCXCXCXCXCXCXFXFXFXFXFXFXFXFXFXFXGXGXGXGXFXFXCXCXCXCXCXCXFXFXGXGXGXGXGX",
"nXnXnXnXmXVXmXmXmXmXmXmXmXmXmXmXnXnXBXBXnXBXnXnXBXBXBXBXBXnXnXnXnXzXxXzXzXnXnXBXnXmXxXBXBXBXBXFXFXFXHXHXFXBXBXFXHXHXHXHXFXFXFXFXFXFXFXFXFXFXFXFXFXFXFXFXFXFXnXFXFXFXFXFXFXFXFXFXFXFXFXFXFXFXFXFXFXFXFXFXFXFXFXFXFXFXBXBXBXHXHXFXMXgX3X1X.XA.V.V.V.V.B.B.M.M.M.M.M.M.m.m.m.m.m.m.m.m.m.m.m.g.g.g.g.g.g.g.g.g.g.g.g.b.b.m.b.b.t.t.t.b.b.b.b.b.b.b.b.m.m.m.m.b.b.b.g.y.y.&.%.` B > > 3 5 i r r e 5 6 r 5 5 3 > 3 r B c z z k u i e 0 w / ,XyXiXiXiXiXiXiXiXiXiXiXxXmXmXmXmXmXmXnXnXnXnXnXBXBXBXBXBXnXzXzXxXzXzXnXnXnXZXZXnXnXCXCXFXFXCXCXCXCXFXCXCXCXCXCXCXCXCXCXFXFXFXFXFXFXGXGXGXGXGXGXGXGXFXCXCXCXCXCXCXCXFXFXGXGXGXGXGX",
"nXxXxXxXmXmXmXmXmXnXmXmXmXHXHXBXnXnXBXBXBXBXnXHXBXBXBXBXBXnXnXnXnXnXnXnXnXBXBXnXnXxXxXnXnXBXBXFXFXFXHXBXBXBXBXBXHXHXHXFXFXFXFXFXFXFXFXFXFXFXFXFXFXFXFXFXFXFXFXFXFXFXFXFXFXFXFXFXFXFXHXFXHXFXFXFXFXFXFXFXFXFXFXFXFXBXnXBXBXBXBXBXMXgX8X1X.XA.V.V.V.V.B.B.M.M.M.M.M.M.m.m.m.m.m.m.m.m.m.m.m.g.g.g.g.g.g.g.g.g.g.g.g.b.b.m.b.b.t.t.t.b.b.b.b.b.b.b.b.b.b.b.b.b.i.b.g.y.y.&.%._ Z > > 3 5 i r r e 5 6 r 5 5 3 > , r B c z x u u i i 0 w 8.9XyXiXyXyXyXyXyXiXiXiXiXxXmXmXmXmXmXmXBXBXBXBXBXBXBXFXFXFXBXBXBXBXBXZXCXCXCXCXCXCXCXCXCXFXFXCXCXCXCXFXCXCXCXFXFXGXFXFXFXFXFXFXFXFXFXGXGXGXGXGXGXGXCXCXCXCXCXCXCXCXCXMXMXFXMXMXZXZX",
"nXnXnXnXnXnXmXmXnXnXnXnXnXHXBXBXBXCXCXCXCXHXHXHXnXCXCXCXCXnXnXnXnXCXCXFXFXCXCXCXnXnXnXnXZXMXMXMXMXMXCXCXCXCXCXCXFXCXCXFXFXFXFXGXGXGXGXGXGXGXGXGXGXGXGXGXGXGXGXGXGXGXGXGXGXGXGXGXFXFXMXFXFXFXMXFXMXFXMXMXFXGXGXGXFXFXFXFXSXHXHXFXFXnX8X2X#XA.A.V.V.B.V.V.B.M.M.M.M.M.M.m.m.m.m.m.m.m.m.m.m.m.m.m.m.g.g.g.g.g.g.g.g.b.b.b.b.b.b.i.i.i.i.i.b.b.b.b.b.b.b.b.b.b.t.g.g.t.y.&.%._ J d > 3 3 e r r e 5 r r r 5 1 > > v Z d d x t i 1 i 0 q 7.lXyXiXiXiXiXiXiXiXiXiXmXmXmXmXmXmXmXmXmXBXBXBXBXBXBXFXFXFXFXFXBXBXBXFXFXFXCXCXCXCXCXCXCXCXCXCXCXCXFXFXFXCXCXCXFXFXFXFXFXFXFXGXGXGXGXGXGXGXGXGXGXFXCXCXnXCXCXCXCXCXCXFXFXFXFXCXCXCX",
"BXBXBXBXmXFXHXFXFXFXFXHXFXFXHXHXFXCXCXCXFXBXBXBXnXCXCXCXCXCXCXCXCXFXFXFXFXCXCXCXCXCXCXCXCXMXMXMXMXMXMXMXMXCXCXCXFXFXCXFXFXFXFXGXGXGXGXGXGXGXGXGXGXGXGXGXGXGXGXGXGXGXGXGXGXGXGXGXFXFXFXGXGXGXGXJXJXGXGXGXGXGXGXGXFXGXGXGXGXGXGXGXGXMX8X2X#XA.A.V.V.B.B.B.B.M.M.M.M.M.M.m.m.m.m.m.m.m.m.m.m.m.m.m.m.g.g.g.g.g.g.g.g.b.b.b.b.b.b.i.i.i.i.i.i.g.g.g.t.t.t.b.b.b.t.g.g.t.y.&.%.O.D k > , 3 e i r e 5 r r 6 5 1 > > n Z d d x t i a i 0 w a.yXyXyXyXiXiXiXiXiXiXiXiXxXmXmXmXmXmXxXxXxXnXBXBXBXBXBXBXBXBXBXBXBXBXFXFXFXFXCXCXCXCXCXCXCXCXCXCXFXFXFXGXGXFXCXCXCXCXFXFXFXFXFXFXFXFXGXGXGXGXFXCXFXCXCXCXGXGXGXGXGXGXGXGXGXGXGXGXJX",
"FXFXMXFXGXGXGXGXFXFXFXFXGXGXGXFXFXGXGXFXFXFXFXMXMXMXFXFXFXGXGXGXGXFXFXFXMXMXFXFXFXGXGXGXGXMXFXFXFXFXFXFXFXMXMXFXFXFXFXGXGXGXGXGXGXGXGXGXGXGXGXGXGXGXGXGXGXGXGXGXGXGXGXGXGXGXGXGXGXGXGXGXGXGXGXJXJXGXGXGXGXGXGXGXGXGXGXGXGXGXGXGXGXMXhX3X1X#XA.V.V.B.B.B.B.M.M.M.M.M.M.m.m.m.m.m.m.m.m.m.m.l.m.m.m.g.g.g.g.g.g.g.g.b.b.b.b.b.g.t.b.i.i.i.b.g.t.g.t.t.t.b.b.b.t.g.b.g.y.4.&.O.G l , > 3 5 e r r r r t r 5 , : 4 B Z d d x e e i a q i |.9XbXiXiXiXiXiXiXiXiXiXiXsXmXmXmXmXmXmXmXmXmXnXnXBXBXBXBXBXBXBXBXBXBXFXFXFXFXCXCXCXCXCXCXCXCXCXCXCXCXCXCXFXFXFXCXCXCXFXFXFXCXCXCXCXCXCXCXCXCXCXCXCXnXnXzXnXnXnXnXCXCXCXCXGXHXGXGXJX",
"FXFXFXFXGXGXGXGXGXGXGXGXGXGXGXGXGXGXGXFXFXFXFXMXMXFXFXGXGXFXFXGXFXGXFXFXMXMXFXFXFXFXFXGXFXGXFXFXFXFXFXFXFXMXMXFXFXFXFXFXFXGXGXGXGXGXGXGXGXGXGXGXGXGXGXGXGXGXGXGXGXGXGXGXGXGXGXGXGXMXFXFXFXFXMXMXMXFXFXFXFXGXGXGXGXGXGXGXHXHXGXGXGXMXgX3X1X#XA.V.V.B.B.B.B.M.M.M.M.M.M.m.m.m.m.m.m.m.m.m.m.m.m.m.m.g.g.g.g.g.g.g.g.b.b.b.b.g.g.t.b.i.b.b.b.t.t.t.t.t.t.b.b.b.t.g.b.g.y.4.&.O.G x 4 > , 3 e r r r r t r 5 , : 4 B B d d x e e u 1 a p oX>XiXyXyXyXyXyXyXiXiXyXiXiXsXxXiXmXmXmXmXmXxXxXxXnXnXnXnXBXBXBXBXBXBXBXBXFXFXCXCXCXCXCXCXCXCXCXCXCXnXxXxXnXCXCXCXCXCXCXCXCXnXnXzXnXnXnXnXCXCXCXCXCXnXnXnXnXCXCXCXFXFXFXFXCXCXCXCXCX",
"MXMXFXGXGXGXGXGXGXGXGXGXGXGXGXGXFXGXGXGXGXFXFXFXMXMXFXFXFXGXGXGXGXGXGXMXGXMXFXFXMXMXMXFXFXFXFXFXFXFXMXMXFXFXFXFXFXMXMXMXFXFXFXFXFXGXGXGXGXGXGXGXGXGXGXGXGXGXGXGXGXGXGXGXGXGXGXGXFXFXMXMXZXMXMXZXMXMXMXMXMXFXFXFXFXGXGXGXHXCXGXGXMXMXgX3X2X1X#XV.V.C.B.B.B.B.M.M.M.M.M.m.m.m.m.m.m.m.m.m.m.m.m.l.l.g.g.b.g.g.b.g.g.b.b.b.b.b.b.m.m.b.i.i.i.i.i.b.b.b.b.b.b.b.i.b.b.b.e.4.$.O.^ n > > , 3 5 r r r r t e 5 , : : J b k d d u e i < q c oX>XyXyXyXiXiXyXyXiXiXiXiXsXsXmXxXxXmXBXmXiXiXiXiXxXxXmXnXmXmXBXBXBXBXFXFXFXFXFXFXFXFXFXFXFXCXCXnXnXzXbXxXnXnXBXBXBXnXnXnXnXnXxXxXxXxXzXnXnXnXCXCXZXnXxXxXzXnXCXCXCXCXCXCXCXCXCXCXnX",
"MXMXMXFXFXFXFXFXGXGXGXGXGXGXGXGXFXGXFXFXFXFXFXFXMXMXFXFXFXMXZXZXZXGXGXGXGXMXFXMXZXZXZXMXMXFXFXFXFXFXFXMXFXFXFXFXFXMXMXMXMXFXFXFXFXGXGXGXGXFXFXFXFXGXGXGXGXGXGXFXFXFXMXMXFXFXFXMXMXMXZXZXZXMXMXMXMXMXMXMXMXFXFXFXFXGXGXGXCXCXGXGXMXZXgX8X2X1X#XV.V.B.B.B.B.B.M.M.M.M.M.m.m.m.m.m.m.m.m.m.m.m.m.m.m.g.g.g.g.g.g.g.g.b.b.b.b.b.b.m.m.b.b.b.i.i.b.b.b.b.b.b.b.b.i.b.b.b.e.q.&.O.` B 3 > , 3 5 r r r r t r 5 1 : : Z x k k u u e i a q C oX9XyXyXyXiXiXiXiXiXiXiXsXsXsXmXxXxXxXxXiXiXqXqXiXiXxXxXxXmXmXBXBXBXBXFXFXFXFXFXFXFXFXFXFXFXCXCXnXnXnXzXzXnXCXBXBXFXFXBXBXnXBXnXnXnXnXCXCXCXCXCXCXnXzXxXbXxXxXzXzXnXnXnXnXnXnXnXnXCX",
"GXGXGXFXFXGXFXFXGXGXGXGXFXFXFXFXGXFXMXMXFXFXFXFXMXMXFXFXMXGXGXGXGXGXGXGXGXMXMXMXMXMXMXMXMXFXFXFXFXFXMXMXFXFXFXFXFXMXMXMXMXFXFXFXFXGXGXFXFXMXFXMXMXFXFXMXFXMXMXZXZXZXZXZXZXMXMXMXMXZXZXMXMXMXMXMXMXMXMXMXMXFXFXFXFXGXGXGXSXCXGXGXFXMXgX8X2X1X#XA.V.B.B.B.B.B.B.B.M.M.M.m.m.m.m.m.m.m.m.m.m.m.m.m.l.g.g.g.g.g.g.g.g.b.b.b.b.b.b.m.m.b.b.b.m.b.b.b.b.b.b.b.b.b.b.b.b.b.e.y.4.@._ Z f , , 3 5 r t r t u r 5 1 > : B f k k k t r e i 0 A :XvXiXyXyXiXiXiXiXiXiXiXsXmXmXmXxXxXxXiXiXiXiXiXiXxXxXxXxXmXmXmXBXBXHXFXFXFXFXFXFXFXFXFXFXFXFXCXCXCXCXnXnXnXzXnXnXnXnXBXBXBXBXFXFXFXFXFXFXCXFXFXFXFXFXGXGXFXCXCXCXnXnXnXnXnXnXzXzXCX",
"GXGXGXGXGXGXFXFXGXGXGXGXGXGXFXFXGXFXFXFXFXFXFXFXMXMXFXFXMXGXGXGXGXGXGXGXGXMXMXZXMXMXMXMXMXFXFXFXFXFXMXMXMXFXFXFXFXMXMXMXMXMXFXFXMXGXGXGXFXMXMXMXZXFXFXFXFXMXMXZXZXZXMXMXMXZXZXZXZXZXZXMXMXMXMXMXMXMXMXMXMXFXFXFXFXGXGXGXCXCXGXGXFXMXjXwX2X1X#XA.V.V.B.B.B.B.B.B.M.M.M.m.m.m.m.m.m.m.m.m.m.m.m.m.l.g.g.g.g.g.g.g.g.b.b.b.b.b.b.m.m.b.b.b.b.b.b.b.b.b.b.b.b.b.i.b.b.b.e.y.4.%.O.D l , , 1 5 r t t t u r 5 5 > : n r k k k t r 1 i < ( >XLXiXyXyXiXiXiXiXxXxXsXsXmXmXmXiXiXiXiXiXmXmXxXxXnXnXxXxXmXmXmXBXBXHXFXFXFXHXFXFXFXFXFXFXFXFXFXFXFXFXCXCXnXzXxXxXnXnXzXzXnXnXnXnXnXnXCXCXGXGXGXGXCXnXnXzXbXbXbXbXbXbXbXbXxXxXxXxXnX",
"FXFXFXKXKXFXFXFXFXFXFXFXFXFXFXFXFXGXGXGXGXGXGXGXGXGXGXGXGXFXFXFXFXFXFXFXFXFXFXFXFXFXFXFXFXFXFXFXFXFXFXFXFXFXFXFXFXFXFXFXFXFXFXFXFXFXFXFXFXFXFXFXFXFXFXFXFXBXBXFXFXFXFXFXFXnXBXBXHXFXFXFXFXFXFXFXFXMXMXMXMXFXFXFXFXFXFXFXFXCXHXFXFXMXjXwX2X1X#XA.V.V.B.B.B.B.B.B.M.M.M.M.M.m.m.m.m.m.m.m.m.m.m.m.m.m.g.g.m.m.m.m.m.m.m.g.m.b.b.b.b.b.b.b.b.b.b.b.b.b.b.b.b.b.b.b.b.b.e.y.q.%.O.H b 3 , 3 5 k t t t k t 5 5 > : n n d k k t e i u < A 9XxXiXyXyXiXiXiXiXvXvXxXxXxXiXiXiXiXiXiXiXxXxXxXxXmXmXmXxXmXmXmXmXBXBXBXBXFXFXFXFXHXHXHXHXHXBXBXBXBXBXFXBXBXBXBXxXxXxXiXiXiXiXiXiXxXxXiXxXxXnXnXxXiX0X0X7X7X7X7X7X0X0X0XqXqXiXiXxXxX",
"FXFXFXFXFXFXFXFXFXFXGXFXGXGXGXGXGXGXGXGXGXGXGXGXGXGXGXGXGXFXFXFXFXFXFXFXFXFXFXFXFXFXFXFXFXFXFXFXFXFXFXFXFXFXFXFXFXFXFXFXFXFXFXFXFXFXFXFXFXFXFXFXFXFXFXFXFXBXBXFXBXBXnXnXnXnXnXBXHXFXFXFXFXFXFXFXFXMXMXmXnXnXnXnXnXCXCXFXFXCXHXFXFXMXnXwX2X1X#XA.V.V.B.B.B.B.B.B.M.M.M.M.M.m.m.m.m.m.m.m.m.m.m.m.m.l.l.g.m.m.m.m.m.m.l.l.l.b.b.b.b.b.b.b.b.b.b.b.b.b.b.b.b.b.b.b.b.b.e.e.q.%.O.H n 5 4 5 5 k t t t k t 5 5 > > n n d k k t e i i < D 9XiXyXyXyXiXiXiXiXiXiXiXiXiXqX9X0X0X0X0XqXiXiXxXxXBXBXBXBXBXmXmXmXBXBXBXBXBXBXBXBXBXBXBXBXBXnXxXxXxXnXnXBXBXBXxXqX0X7X7X7X7X7X7X0X0X0X7X7X:X*X+X*X*X:X:X:X:X:X:X7X0X0X0XqXiXiXiXxXxX",
"FXFXFXFXFXFXFXFXFXFXFXFXCXCXCXCXCXCXCXCXCXCXCXCXFXFXFXCXCXCXCXCXCXFXFXFXFXHXFXFXFXFXFXFXFXFXFXFXFXFXFXFXBXBXnXnXnXxXxXnXnXnXnXnXnXBXnXFXFXFXFXFXFXnXnXnXnXnXnXnXnXnXxXnXnXBXBXHXFXFXFXFXFXFXFXFXFXMXMXnXnXnXnXnXnXCXCXFXFXHXHXFXGXFXnXwX2X1X1XA.V.V.B.B.B.B.B.B.M.M.M.M.M.M.M.m.m.m.m.m.m.m.m.m.m.m.g.g.m.m.m.m.m.m.m.m.l.b.b.b.b.b.b.b.b.b.b.b.b.b.b.b.b.b.b.b.b.b.t.e.q.%.O.` B r 5 5 r k u t t k t e 5 > > n n d k k i i a i 0 / 0X7X9X9X9XyXyXyXyXiXiXiXqXqXqX0X0XqXqXiXiXiXiXxXxXmXmXiXiX0X7X7X7X9XiXxXBXBXBXnXxXnXxXxXxXxXiXiXiXiXiXxXxXxXxXxXxXqXqX0X0X0XqXqXiXiXiX0X>X*XoXXXoX*X7XqXiXiXiXiXxXnXxXxXxXxXiXxXxXxX",
"nXnXmXnXnXnXnXBXHXCXCXCXCXCXCXCXCXCXCXZXCXnXnXnXCXFXFXCXnXnXCXCXCXCXCXFXGXKXKXFXFXFXFXFXFXKXFXFXFXFXFXGXKXKXKXKXKXFXFXFXFXBXBXnXnXFXFXFXFXFXFXKXFXFXFXFXFXnXnXnXnXnXnXBXBXFXFXFXFXFXFXFXFXGXGXGXFXFXFXFXFXFXFXFXFXFXGXGXGXGXGXFXGXGXMXgX3X1X1XA.V.V.V.B.B.B.B.B.M.M.M.M.M.M.M.m.m.m.m.m.m.m.m.m.m.m.g.g.g.m.m.m.m.m.m.m.m.b.b.b.b.b.b.b.b.b.b.b.b.b.b.b.b.b.b.b.b.b.t.e.q.%.O.` Z t 5 r t k u t t t t r 5 > > n n f k k i t a i q ^ 0X*X>X9X9X9X9X9X9X9X9X9X9X0XqXiXiXiXiXiXiXiXiXiXiXiXxXmXxXiXiXqXiXiXiXxXxXxXxXxXiXiXiXiXiXiX0X0X7X7X7X7X:X:X:X7XqXqXqXqXqXiXqX0X0XqXiXqXqX0X7X7X7X0X0XiXiXiXiXiXxXmXnXxXxXxXxXxXxXxX",
"mXmXxXnXnXBXBXBXBXCXCXCXCXCXCXCXCXCXCXCXCXzXxXzXCXHXHXBXxXzXCXCXCXCXHXGXLXHXHXHXLXHXBXBXHXGXHXHXKXHXHXHXHXHXHXHXHXHXFXFXFXFXBXFXFXFXHXHXHXHXHXHXHXHXHXHXHXFXBXBXBXBXBXFXFXFXFXFXFXKXKXJXJXJXJXJXGXFXFXFXFXGXGXGXGXGXGXGXGXGXFXMXMXMXMXgX3X1X#X#XV.V.B.B.B.M.B.B.M.M.M.M.M.M.M.M.M.m.m.m.m.m.m.m.m.m.m.m.m.m.m.m.m.m.m.m.l.m.b.b.b.b.b.b.b.b.b.b.b.b.b.b.b.b.b.b.b.b.t.e.y.$.+.` D k 5 5 6 t t t t t t r 5 > > B B r k k s u e a a 3.9X*X9X7X5X7X7X>X>X7X7X7X7X9X0X0XiXiXxXiXiXiXiXiXiXiXxXxXiXiXiXiXiXqXqXqXqXqXqXqXqXqXqX0X0X0X7X7X7X7X:X:X*X*X*X7X0XiXqXqXqXqX9X9X9X0X0X0XqXiXiXiXiXiXiXiXiXiXiXiXxXxXxXxXxXxXxXxXxXxX",
"xXnXBXFXFXFXFXHXHXHXHXHXHXCXCXCXCXCXCXCXCXCXCXCXHXHXHXHXBXCXCXCXCXCXCXGXGXHXHXHXHXFXxXxXBXFXFXFXFXFXBXBXBXnXxXxXxXxXxXxXxXnXBXBXHXBXBXnXnXxXnXBXBXBXBXFXFXFXBXBXBXBXBXBXBXBXBXFXFXFXFXFXFXFXFXFXFXFXFXFXFXFXFXFXFXFXFXFXFXCXZXnXnXMXjXhX3X1X1X#XV.V.B.B.B.M.B.B.M.M.M.M.M.M.M.M.M.m.m.m.m.m.m.m.m.m.m.m.m.m.m.m.m.m.m.m.l.m.b.b.b.b.b.b.b.b.b.b.b.b.b.b.b.b.b.b.b.b.i.e.e.4.@._ G b r 5 5 t t t t t t r e > > n n r k k s u e i i 7.:X*X9X9X9X9X9X7X7X9X9X9X9XqXqX0X0X0XqXiXiXiXiXiXxXmXmXmXiX9X*X+X;X*X:X7X7X7X7X7X0X0X0X9X7X7X7X7X7X7X0X0XqXqXqXqXiXiXiXqX9X9X7X7X7X7X7X7X7X0X0XiXiXiXiXiXiXxXxXxXxXxXxXxXxXxXxXxXxXnX",
"xXnXBXBXBXBXBXBXBXBXBXBXBXBXBXBXBXBXBXBXBXBXFXBXxXiXiXiXnXCXCXCXCXBXBXzXzXxXxXxXxXiX0X0XiXxXiXiXiXiXiXiXiXxXxXxXxXxXxXxXxXxXiXiXqX0X0X7X7X7X0X0XiXiXiXiXiXiXiXxXxXxXxXnXnXnXnXBXBXnXnXnXnXxXxXxXxXxXxXnXnXnXnXCXnXnXnXnXnXzXxXgXgXgXgX8X2X1X1X#X.XV.V.V.V.M.M.B.B.M.M.M.M.M.M.M.M.m.m.m.m.m.m.m.m.m.m.m.m.m.m.m.m.m.m.m.m.m.b.b.b.b.b.b.b.b.b.b.b.b.b.b.b.b.b.b.b.b.b.i.e.q.%.O.` B k 4 4 t t t t t t r r , : v x r d k s u i u p oX:X7XyXyXyXyX9X0X9X0X0XqX9XqXqXqXqXqX0XiXiXiXiXxXmXiXiXiXqX7X*XoX*X*X:X7X7X7X7X0X0XiX0X0X0X0X0XqXiXiXiXyXyXyXqXiXiXiXiXiXqXqX9X7X7X7X9X7X7X0XqXiXiXiXiXiXiXxXxXxXxXxXxXxXxXnXnXnXnXBX",
"xXnXxXxXiXiXiXxXxXxXxXxXxXxXxXxXxXbXbXbXbXxXxXxX0X7X:X7XiXxXxXxXxXxXxXqXqX0XiXiXqX0X7X7X0X0X0X0X0X0X0X0X0X0X0X0X0X0XqXqX0X0X7X0X0X0X0X0X7X7X0X0X0XqXqX0X0X7X0XiXiXiXiXxXxXxXxXnXxXxXxXxXxXiXiXiXiXiXxXnXnXCXCXCXnXnXzXzXxXxXbXgXgXgXgX8X2X#X1X#X.XV.V.V.V.M.B.B.B.M.M.M.M.M.M.M.M.m.m.m.m.m.m.m.m.m.m.m.m.m.m.m.m.m.m.m.l.m.b.b.b.b.b.b.b.b.b.b.b.b.b.b.b.b.b.b.b.b.b.i.i.e.$.@._ Z x 6 , t t r t t t r r 4 : x l r k k s u i u x +XiXiXmXiXiXiXyXiXiXiXiXiXqXqXqXqXqXiXqXiXiXiXiXxXxXyXqX0XqXyXiXiXiXiXqXqXqXqXqXqXqXiXiXiXiXiXxXxXxXxXxXxXxXiXiXiXiXiXxXxXmXiXiXiXiXqXqXqXiXxXxXxXxXxXxXzXzXBXBXBXBXBXBXBXBXBXBXBXBXBX",
"nXnXxXiXqXiXiXiXiXiXiXiXiXxXiXiX0X0X0XiXiXiXiXqX7X7X7X0XiXiXiXiXiXiXqX7X7X7X9X9X9X7X7X7X7X7X7X9X9X9X7X7X7X:X7X7X7X7X0X0X0X9X7XqXqXqX0X0XiXiXiXqXqXiXiX0X9X7X9XqXiXiXiXiXxXxXxXxXxXxXxXxXxXxXxXxXxXiXxXxXBXnXnXnXnXnXzXzXzXxXxXgXgXjXjXwX3X2X1X#XV.V.V.V.V.V.B.B.B.B.B.M.M.M.M.M.M.m.m.m.m.m.m.m.m.m.m.m.m.m.m.m.m.m.m.m.m.m.b.b.b.b.b.b.b.b.b.b.b.b.b.b.b.b.b.b.b.b.b.i.i.e.4.%.O.G x 5 1 5 5 r t r t r r 4 > 5 f 3 r k c c 1 i A :XqXxXiXiXiXiXiXiXiXiXiXiXiXyXiXiXiXiXiXiXxXiXiXiXiXiXyXyXiXmXmXBXBXmXmXxXxXxXxXiXiXxXxXxXxXxXnXBXBXBXxXmXiXiXiXiXiXiXiXiXiXmXxXmXxXiXiXxXxXnXnXnXnXBXBXnXnXBXBXBXBXBXnXxXxXBXnXnXxXnX",
"xXxXxXxXnXmXmXxXiXxXxXxXxXiXiX0X0X0X0XiXiXiXqXqX0X0X0X0XiXiXiXiXiXiX0X7X7X7X7X7X7X7X7X9X9X9X9X9X9X7X:X*XoX+X:X7X0X0X0X0X0X0XqXxXxXiXqXiXiXiXiXiXxXxXiXiXiXqXqXiXiXxXxXmXBXnXnXnXnXnXnXnXnXxXxXxXxXxXxXxXxXxXbXbXbXbXbXxXxXzXzXnXnXMXjXgX8X2X1X#XV.V.V.V.B.V.B.B.B.B.B.M.M.M.M.M.M.m.m.m.m.m.m.m.m.m.m.m.m.m.m.m.m.m.m.m.m.m.b.b.b.b.b.b.b.b.b.b.b.b.b.b.b.b.b.b.b.b.b.b.i.i.q.%.O.G v e 3 5 5 r r r r r r 4 4 5 f 3 r k c z e y D 8XiXiXiXiXiXiXiXiXiXiXiXyXiXiXiXmXmXmXmXiXxXmXxXxXxXmXmXmXmXmXmXmXmXmXmXxXxXxXxXxXxXnXnXnXnXBXBXBXBXBXBXmXxXiXiXiXiXiXiXiXxXmXmXmXxXmXmXzXzXnXxXxXxXxXxXxXxXxXxXxXiXiXqXqX0XiXiXiXiXxX",
"xXxXxXBXFXBXmXmXmXmXmXmXmXxXiXiXiXiXiXiXiXiXiXxXiXiXiXxXxXiXqXqX0X0X0X0X0X0XqXqXqXqXqXqXqXqXqXiXqX7X7X:X:X7X7X0XqXqXqXiXiXiXxXxXiXiXiXiXiXxXxXnXnXxXxXnXBXBXBXBXmXmXBXHXHXFXFXFXBXBXnXnXnXxXxXxXxXnXnXnXxXqX0XqXqXgXbXxXzXnXnXZXZXMXMXjXwX3X1X#X#XV.V.V.B.B.B.B.B.B.B.M.M.M.M.M.M.m.m.m.m.m.m.m.m.m.m.m.m.m.m.m.m.m.m.m.m.m.b.b.b.b.b.b.b.b.b.b.b.b.b.b.b.b.b.b.b.b.b.b.i.i.q.$.+.^ Z d , 3 5 r r r t t t 3 4 5 f 3 r k x u i u / 0XiXiXiXyXyXiXiXiXiXiXiXiXiXiXiXsXsXsXiXsXsXmXmXmXmXmXmXmXxXmXmXmXmXmXmXBXBXBXBXBXBXBXBXBXBXFXBXBXBXFXFXBXmXxXiXiXmXmXmXiXiXmXmXmXmXBXmXnXnXBXnXnXxXxXxXnXnXnXxXxXiXiXiX0X0XiXiXiXiXxX",
"xXxXiXxXxXmXmXmXmXBXmXBXBXmXmXmXxXmXmXxXiXxXnXBXBXBXBXBXBXBXBXBXBXBXBXBXBXBXBXBXmXmXxXxXiXiXxXmXmXxXiXiXmXxXxXiXiXiXxXxXxXnXxXxXiXiXxXxXxXxXzXBXBXnXnXBXFXHXHXBXmXmXHXHXHXFXFXFXBXBXnXnXnXxXxXxXxXBXBXxXxXxXzXzXzXzXnXCXCXCXFXGXFXMXMXMXgX3X1X#X#XV.V.V.B.B.B.B.B.B.B.M.M.M.M.M.M.m.m.m.m.m.m.m.m.m.m.m.m.m.m.m.m.m.m.m.m.m.b.b.b.b.b.b.b.b.b.b.b.b.b.b.b.b.b.b.b.b.b.b.b.i.y.$.O.` D k , 3 5 r r r t t t 5 4 5 d 3 r k x i u u ' 0XyXyXyXyXyXyXiXiXiXiXiXiXiXiXqXqX9X9X9X9XyXiXiXiXqXiXyXiXiXxXxXmXmXmXmXBXBXBXBXBXnXBXBXBXBXBXBXBXBXBXFXHXBXBXmXmXmXmXmXxXiXmXmXmXmXBXBXBXBXFXFXFXBXFXFXFXFXBXBXnXxXxXxXxXxXBXBXBXnXBX",
"xXxXxXxXiXxXxXmXmXmXmXmXmXmXmXmXvXmXmXmXmXvXBXBXBXSXBXBXBXBXBXSXSXSXSXHXSXHXHXHXBXBXmXxXiXiXiXxXmXmXmXmXBXBXBXxXxXxXxXvXBXSXBXBXvXBXBXBXxXlXxXBXBXBXvXvXBXBXBXmXiXmXHXHXHXFXFXFXBXBXnXnXnXnXxXxXxXxXBXnXzXCXCXBXzXzXzXCXCXHXGXGXMXMXMXMXgX3X2X#X#X#XV.V.B.B.B.B.B.B.B.M.M.M.M.M.M.M.M.M.M.m.m.m.m.m.m.m.m.m.m.m.m.m.m.m.l.b.b.b.b.b.b.b.b.b.b.b.b.b.b.b.b.b.b.b.b.b.b.b.b.e.y.$.+._ G v 3 4 5 6 r t t t t 5 > 3 d 5 r k z z u g 3.9X0X9X9X9XyXyXyXyXyXyXyXiXqX9X9X7X4X*X*X*X*X4X4X:X7X9X9XqXiXiXxXxXxXxXxXxXnXnXnXnXxXnXnXnXnXnXBXBXBXBXBXBXBXBXBXBXmXmXmXmXxXmXmXmXmXmXBXHXHXFXHXFXFXFXFXFXFXFXBXnXxXxXxXBXBXBXBXBXBXBX",
"xXxXxXxXiXiXiXiXxXxXiXvXiXvXvXvXiXiXiXiXyXiXiXxXxXxXxXvXvXxXxXvXvXvXxXvXvXmXmXmXmXxXiXyXyXyX0X9X7X7X9XyXiXiXiXxXxXxXlXvXBXBXBXHXPXPXBXvXlXlXxXvXvXvXxXxXvXmXxXiXiXiXxXxXiXxXxXnXBXnXnXnXnXnXxXxXiXiXxXnXBXBXBXzXxXbXbXxXzXBXGXGXZXnXnXnXhX3X2X#X#X#XV.V.B.B.B.B.B.B.B.M.M.M.M.M.M.M.M.M.M.m.m.m.m.m.m.m.m.m.m.m.m.m.m.m.l.b.b.b.b.b.b.b.b.b.b.b.b.b.b.b.b.b.b.b.b.b.b.b.b.e.y.4.#._ ^ B r 4 3 5 r t t t t 5 > 5 l 6 r k z z z x s.9X9X9X9X9XyXyXyXyX9X9X9XqXqX9X9X4X*X*XOXOXoXoXXXoX;X7X9XqXiXiXiXiXiXiXiXxXxXxXxXxXxXxXxXxXxXxXxXnXnXnXnXmXmXmXmXmXmXmXxXmXmXmXxXmXmXmXmXBXBXHXBXHXFXFXFXBXBXBXnXxXxXxXxXxXxXnXnXBXnXnX",
"iXiXiXiXiXiXiXiXiXiXiXiXiXiXiXiXiXiXiX0X9X9X0XiXvXBXBXBXxXxXxXBXBXBXBXBXBXBXmXiXyXyXyX0X0XyXyX9X7X>X7XiXiXiXiXxXxXxXxXvXBXvXBXBXBXvXiXiXiXiXxXiXiXiXiXiXxXiXiXiXyX0XqX0X7X7X0XiXxXmXnXnXBXnXxXxXiXiXiXiXxXzXzXxXbXbXbXxXzXzXCXCXnXxXzXgXwX3X1X#X#X#XV.V.B.B.V.B.B.B.B.M.M.M.M.M.M.M.M.M.M.m.m.m.m.m.m.m.m.m.m.m.m.m.m.m.l.b.b.b.b.b.b.b.b.b.b.b.b.b.b.b.b.b.b.b.b.b.b.b.b.e.e.w.$.+.` A d 3 3 5 6 t t t t 5 > 5 l r r k k z c c }.0X0X9X9X9X9X0X9X9X9X9X9X9X9X9X9X7X9X9X9X9X9X9X9X0XiXmXmXxXiXiXqX0XqXqXiXiXiXiXiXiXiXiXiXiXiXiXiXiXiXxXxXiXiXiXiXiXiXiXiXiXiXiXxXxXiXiXiXmXnXnXBXxXxXxXxXxXxXxXxXxXxXxXxXxXxXBXxXxXxXxX",
"0XyXiXiXiXiXiXiXiXxXiXiXiXyX9XyXyXiXiX0X9X0XiXvXBXBXBXBXiX9X9XiXiXxXxXxXBXBXmXiX0X0X0X0XyXyXiXvXpXvXmXBXBXBXBXvXxXxXxXBXBXBXxXiXiX0X0X0XiXiXxXiXiXiXiXiXiXiXiXiXyXqXiX9X7X:X7X0XiXxXnXBXBXnXxXxXiXqX0XiXxXzXxXxXxXxXzXzXzXzXzXnXzXgXgXgXgX3X1X#X#X#XV.V.B.V.V.B.B.B.B.M.M.M.M.M.M.M.M.M.M.m.m.m.m.m.m.m.m.m.m.m.m.m.l.l.l.b.b.b.b.b.b.b.b.b.b.b.b.b.b.b.b.b.b.b.b.b.b.b.b.e.e.e.4.%.` D x r 3 4 5 t f t t 5 > 3 l 6 r k k z N c oX0X0X9X9X7X7X*X*X5X7X7X7X9X7X4X4X7X9X9X9XqXqX9XqXiXiXiXqXiXqX0X7X7X7X7X7X0X0XqXiXiXiXiXiXiXqX0X0X9X0X0XqXqXqXqXqXiXiXiXiXiXiXiXiXxXiXiXiXxXxXxXxXiXiXiXiXiXiXiXiXiXiXiXiXxXxXxXxXxXiXxX",
"9XqXiXiXiXiXiXiXxXxXiXiXiX9X7X7X0XiXiXiXiXiXiXxXBXnXnXxXiX9X9XqXiXiXiXxXmXmXiXiXiXqXqXqXqXiXiXmXBXHXHXHXHXBXmXxXiXiXxXxXBXBXxX0X7X7X0X0XiXiXiXiXiXxXiXiXqXqXiXiXiXiXiX9X7X7X9XqXiXxXmXBXBXmXxXxXiXiXqXiXxXxXiXiXiXxXxXxXxXxXxXxXxXqXgXgXqX8X2X#X#X#XV.V.B.B.V.B.B.B.B.M.M.M.M.M.M.M.M.M.M.M.M.M.M.m.m.m.m.m.m.m.m.m.m.m.m.m.m.m.m.b.b.b.i.i.b.b.b.b.b.b.b.b.b.b.b.b.b.b.b.i.i.t.q.$.O.H Z f d 3 5 k k f r r , 3 k 5 5 z u z v N +X+X7X7X;XXXXXXXoX&X*X*X5X4X7X4X9X9X9X9X9XyXyXyXiXiXyX0X9X0X9X9X9X9X9X0XqXyXyXiXiXiXiXiXiXiXyX9X9X9X9XyXyXyXyXyXyXiXiXiXiXiXiXiXvXvXvXiXiXiXiXxXiXiXyXiXiXiXiXiXiXiXiXiXiXiXxXmXxXiXiXiX",
"iXiXiXqXqX0X0X0X0XqXiXiXiXiXiX0X7XqXqXxXnXnXnXnXBXFXBXxXiXqXiXiXxXxXiXiXiXiXiXiXqXiXiXiXiXiXiXiXmXBXBXmXmXiXiX0X0X0X0XiXiXiXiX0X7X7X7X0XiXiXiXiXiXiXqX9X9X9X0X0XqXiXiX0X9X0XiXiXiXiXiXmXmXmXxXxXxXxXxXiXiXiXiXiXiXiXxXxXxXxXxXxXxXqXqXqXqX8X2X#X#X#XV.V.B.B.V.B.B.B.B.M.M.M.M.M.M.M.M.M.M.M.M.M.M.m.m.m.m.m.m.m.m.m.N.m.m.m.m.m.m.b.b.b.b.b.b.b.b.b.b.b.b.b.b.b.b.b.b.b.b.i.i.t.q.&.@.` J f f f l l k k r r 5 3 t 5 3 k x x c C :XoX*X;XXXE.Q.E.E. XoX;X;X*X7X9X0X0X0XyXyXyXyXyXiXyXyX9X9X9X9XqXqXqXqXiXiXiXiXiXiXiXyXiXiXiXiXiXiXyXiXiXvXvXvXiXiXiXiXxXvXvXvXmXvXmXvXiXiXiXxXmXmXiXiXiXiXiXiXiXiXxXxXmXmXmXmXmXxXiXiXiX",
"iXqXqX9X9X0X0X0X0X0XiXiXxXxXxXiX0XiXxXxXxXxXnXnXBXxXiX0X0X0XqXiXiXxXiXiXiXqXqXyXiXiXiXiXiXiXiXiXmXmXiXiXiXiXqX0X7X7X0XqXiXiXqX0X0X7X0X0XiXiXiXiXiXiXqXqXqXqXqXqXqXqXqXqX9X7X7X7X9X9X9XqXiXiXxXxXxXmXxXiXiXiXiXiXiXiXxXxXxXxXxXxXiXqXqXqX8X8X2X1X#X#XV.V.B.B.B.B.B.B.B.M.M.M.M.M.M.M.M.M.M.M.M.M.M.m.m.m.m.m.m.m.m.N.N.m.m.m.d.d.m.b.b.b.b.b.b.b.b.b.b.b.b.b.b.b.b.b.b.b.b.i.i.i.q.$.%.` G x f c n x l k 6 r 5 3 r t , e c c c A :X+X*X*X&XXXoXoXoX;X*X*X5X9X9X0X0XyXyXyXyXyXyXiXiXyX0X9X9X7X9XqXiXiXiXiXqXiXiXiXiXiXyXiXiXiXiXxXiXiXmXmXBXBXBXBXmXxXiXxXvXmXmXmXvXvXiXiXiXiXiXmXmXmXmXmXvXvXiXvXxXmXmXmXmXmXmXiXiXxXiXxX",
"9X0XqXqXqXqXqXiXqXqXiXxXxXxXiXiXiXiXiXiXiXiXiXiXiX0X7X7X:X:X7X7X9X9X0XqXqXqXqXqXiXqXqXiXiXiXiXiXiXiXiXqXiXiXiXqX0XqXiXiXiXiXiXiXiXiXiXiXxXiXiXiXiXiXiXiXiXiXiXiXiXiXiXiXqX0X0XqXiXiXiXiXmXiXiXiXiXqXqX0XqX0XiXiXiXxXxXxXiXxXxXiXxXxXqXqX8X8X2X$X#X#XV.V.B.B.B.M.B.B.B.M.M.M.M.M.M.M.M.M.M.M.M.M.M.m.m.m.m.m.m.m.m.N.N.m.m.d.d.d.i.i.i.i.i.b.b.b.b.b.b.b.b.b.b.b.b.b.b.b.b.i.i.t.q.$.%._ H B d v B v x k k r 5 5 r k , 5 z x x A oX:X9X9X7X5X9X9X9X7X9X9X9X9X9X9X9X0X0XyXyXyXyXyXiXiXiXyX0X9XyXiXiXiXqXqXqX0XyXyXyXyXyXiXiXyXiXiXiXiXiXpXmXmXmXmXxXiXiXxXmXmXmXvXiXiXvXiXiXiXiXmXmXmXmXmXvXvXiXxXiXxXxXiXiXiXiXiXvXxXiXxX",
"0XqXiXiXiXiXiXiXiXiXiXxXxXxXiXiX0X0X0X0X0X0XqX0X0X0X7X7X:X7X7X9X0X9X9X0XqXqXqXyXyXiXiXiXiXiXiXiXiXiXiXiXiXiXiXiXiXxXxXiXiXiXiXxXxXxXxXxXxXiX0X0XiXiXiXiXiXiXiXiXiXiXiXiXiXiXiXiXiXiXiXiXiXiX0X9X7X7X9X7X7X9XyXiXxXxXxXiXiXxXxXxXiXgXqXqXqX8X8X2X#X.XV.V.B.B.V.B.B.B.B.B.B.M.M.M.M.M.M.M.M.M.M.M.M.M.M.M.M.m.m.m.m.N.N.m.m.m.d.i.i.i.i.i.i.i.i.i.i.i.i.i.i.b.i.i.i.i.i.i.b.b.i.t.y.q.$.+.` G f f l t k r k r 5 5 5 x 5 , u g c D  X7X9X9XuXuXyXyXyX0XyXyX0X0X9X0X0XyXyXyXyXyXyXiXiXiXiXiXiXiXiXiXiXyXyXyXyXyXyXyXyXyXyXiXiXiXiXiXiXiXiXiXiXvXvXvXxXvXvXmXvXmXvXiXiXiXiXiXiXvXvXvXmXmXmXmXvXiXiXiXiXiXiXiXiXiXiXiXiXiXiXiX",
"iXiXiXiXiXiXiXiXiXxXiXxXxXiXiXqX0XqX0X0X0X0X0XqX0X0X0X0X7X0XiXiXiXiXqXqXyXyXiXiXiXiXiXxXxXmXiXiXiXiXiXiXiXxXxXxXxXxXxXiX0XqXiXxXxXxXxXxXxXiXqXqXiXiXiXiXiXxXxXmXmXmXmXmXmXmXmXxXiXiXiXiXyXqX9X9X9X9X9X0X9X0XyXiXiXxXxXiXxXxXxXxXiXgXgXmXxXqX8X2X#X.XV.V.B.V.V.B.B.B.B.B.B.M.M.M.M.M.M.M.M.M.M.M.M.M.M.M.M.m.m.m.m.N.N.m.m.m.d.t.t.i.i.i.i.i.i.i.i.i.i.i.b.b.i.i.i.i.i.i.b.b.b.t.e.e.2.#.` F b d f 6 t t k t 6 5 5 k r , u c N / :X9X9X9X9X9X9X9X9X9X0XyX0XqX0XqXqXyXyXyXyXiXiXiXiXiXiXiXiXiXiXiXiXiXyXyXyXyXyXyXyXiXiXiXiXiXiXiXiXiXiXiXxXvXvXiXiXvXvXvXvXiXiXiXiXiXiXiXiXxXvXmXmXmXvXvXiXiXiXiXiXiXiXiXiXyXyXyXyXyXyXyX",
"mXxXxXxXiXxXxXxXxXxXxXxXiX0XqXnXBXBXxXiXqXqXiXiXiXqXiXiXiXiXmXmXmXmXmXmXmXmXmXmXmXmXmXmXmXBXmXmXxXxXxXxXxXxXxXxXxXxXxXxXiXiXxXnXBXBXBXBXBXmXiXiXmXmXmXmXmXmXmXmXBXBXBXBXBXmXmXmXBXBXBXBXmXmXxXxXxXxXxXxXiXiXiXxXBXBXBXxXxXvXxXxXxXxXgXmXxXgX8X2X#X.XV.V.B.B.V.B.B.B.B.B.B.M.M.M.M.M.M.M.M.M.M.M.M.M.M.M.M.m.m.m.m.N.N.m.m.m.d.t.t.i.i.i.i.i.i.i.i.i.i.b.b.b.b.i.i.i.i.i.i.i.b.i.i.e.4.%.O.^ J d 6 6 6 f f f t 5 5 r t 1 u c v ' 9X9X9X9X9X9X9X9X9X9X0XyXyXqXqXiXiXyXyXyXyXiXiXiXiXiXiXiXiXiXiXiXiXiXiXiXiXiXiXiXiXiXiXiXiXiXiXiXiXiXiXxXvXvXiXiXvXiXiXiXiXiXiXiXiXiXiXiXiXxXxXxXiXiXiXiXvXiXiXiXiXiXiXiXiXiXyXyXyXyXiXiX",
"mXmXBXBXBXBXBXBXBXnXnXnXxXxXnXBXBXBXBXBXnXxXxXxXxXiXxXxXnXmXmXmXmXmXmXBXmXmXmXmXmXBXBXBXBXmXmXmXxXmXmXmXmXBXBXBXBXBXBXnXxXxXzXBXBXBXBXBXBXBXmXmXmXBXmXmXmXBXmXmXBXmXmXmXmXmXmXmXmXmXmXmXxXxXmXmXBXmXxXmXmXvXmXSXSXSXBXBXvXvXxXxXxXgXgXmXxXgX8X2X$X.XV.V.B.B.V.B.B.B.B.B.B.M.M.M.M.M.M.M.M.M.M.M.M.M.M.M.M.m.m.m.m.N.N.m.m.m.d.t.i.i.i.i.i.i.i.b.i.i.i.b.b.b.b.i.i.i.i.i.i.i.i.i.i.i.q.%.@.` F b r r 5 k t t t 5 5 3 t 1 z x x ' >X9X9X9XuXuXuXuXyXyXyXyXyXqXqXiXiXyXyXyXyXiXiXiXiXiXiXiXiXiXiXiXiXiXiXiXiXiXiXiXiXiXiXiXiXiXiXiXiXiXiXxXvXiXiXiXiXiXiXiXiXiXiXiXiXiXiXiXiXxXxXvXiXiXiXiXiXiXiXiXxXxXiXiXiXiXiXiXiXiXiXiX",
"BXBXHXHXHXHXHXHXBXFXBXBXFXFXBXBXBXBXHXBXHXHXBXBXmXxXmXBXmXmXmXmXmXBXmXmXmXmXBXBXBXBXmXBXmXmXmXmXmXmXmXBXBXBXBXBXBXBXBXBXBXnXnXBXBXBXmXmXnXmXmXmXmXBXBXBXmXmXmXmXmXmXmXmXmXmXmXmXmXmXmXmXmXmXmXmXBXmXxXmXmXBXBXBXBXBXBXnXnXxXxXxXxXxXmXmXmXgX8X8X$X#XV.V.B.B.B.B.B.B.B.B.B.B.B.B.M.M.M.M.M.M.M.M.M.M.M.M.m.m.m.m.m.N.N.m.m.b.b.i.i.i.i.i.b.i.i.b.b.b.b.b.i.b.b.b.i.i.i.i.i.i.i.i.i.i.e.9.#._ ` Z l 6 5 6 t t t 6 > 5 5 : e x x 8.9X9X9XyXyXyXyXyXyXyXyXyXyXiXiXiXiXiXiXiXiXiXiXiXiXiXiXiXiXiXiXiXiXiXiXiXiXiXiXiXiXiXiXiXiXxXxXvXxXvXxXxXvXvXvXvXiXiXiXiXiXiXiXiXiXiXiXiXiXiXiXiXiXiXiXiXiXiXiXiXiXiXiXxXiXiXiXiXiXiXiXiX",
"BXHXHXHXHXBXHXHXBXFXFXFXFXBXBXBXBXBXHXFXHXHXHXBXBXmXBXBXBXBXBXHXHXBXBXBXBXBXHXHXBXBXBXmXBXmXmXmXmXmXmXmXmXxXxXnXnXnXnXBXBXBXnXBXmXnXxXxXxXmXmXmXmXBXBXBXmXmXmXmXmXmXmXmXmXmXmXmXmXmXmXmXmXmXmXmXmXmXxXmXmXvXvXBXBXBXBXnXnXxXxXxXxXxXmXmXmXgXwX8X$X#XV.V.B.B.V.B.B.B.B.B.B.B.B.B.M.M.M.M.M.M.M.M.M.M.M.M.m.m.m.m.m.N.N.m.m.b.b.i.t.i.i.i.b.i.i.b.b.i.b.b.i.b.b.b.i.i.i.i.i.i.i.i.i.i.t.q.$.#._ G n f 6 6 t r t 6 > 1 5 > 3 g v 3.0X9X9XuXyXyXyXyXyXyXyXyXyXiXiXiXiXiXiXiXiXiXiXiXiXiXiXiXiXiXiXiXiXiXiXiXiXiXiXiXiXiXiXiXiXxXxXvXxXxXvXxXxXvXvXvXiXiXiXiXiXiXiXiXiXiXiXiXxXxXiXiXiXiXiXiXiXiXiXiXiXiXiXiXiXiXiXiXiXiXiXiX",
"HXHXHXHXHXBXBXBXBXFXFXFXFXBXBXBXBXHXHXHXHXHXHXHXBXBXBXBXBXBXBXHXHXBXBXBXBXBXBXHXBXBXmXmXBXmXmXmXmXmXmXmXmXxXxXmXnXnXnXBXBXBXBXBXBXBXnXnXBXBXmXmXmXmXBXBXBXBXBXBXBXmXmXmXmXmXmXmXmXmXmXmXmXmXmXmXmXmXmXmXmXBXBXmXBXBXBXnXnXxXxXxXmXmXmXjXmXgXwX8X2X#X.XV.V.B.B.B.B.B.B.B.B.B.B.B.M.M.M.M.M.M.M.M.M.M.M.M.m.m.m.m.m.N.N.m.m.b.b.i.t.i.i.i.i.i.i.i.i.i.i.i.i.i.b.b.i.i.i.i.b.b.b.b.i.i.i.r.9.%._ ` J x f r f 6 t r , > 5 , , y C s.0X9X9XuXuXyXyXyXyXyXyXyXyXiXyXiXiXiXiXiXiXiXiXiXiXiXiXiXiXiXiXiXiXiXiXiXiXiXiXiXiXiXiXiXiXxXxXvXxXxXxXvXvXiXvXvXvXiXiXiXiXiXiXiXiXiXiXiXxXxXxXiXiXiXiXiXxXiXiXiXiXiXiXiXiXiXiXxXiXiXiXiX",
"HXHXBXBXBXBXBXBXnXnXBXBXBXBXBXBXBXBXBXBXBXBXBXBXBXBXmXmXmXmXmXmXmXmXmXmXmXBXBXBXBXBXmXmXmXmXmXmXmXmXmXBXBXBXBXFXBXBXBXBXBXBXBXBXBXBXnXBXnXBXmXmXBXmXBXBXBXBXBXBXBXmXmXmXmXmXmXmXmXmXmXmXmXmXmXmXmXmXmXmXmXBXBXmXmXmXBXnXnXxXxXxXmXmXmXmXjXgXwX8X2X#X.XV.V.B.B.B.B.B.B.B.B.B.B.B.M.M.M.M.M.M.M.M.M.M.M.M.m.m.m.m.m.N.N.m.m.b.i.t.t.i.i.i.i.i.i.i.i.i.i.i.i.i.b.i.i.i.b.b.b.b.b.b.i.i.i.t.q.$.#._ G Z d f f 6 t r , : 5 , , i V }.0X9X9XuXuXyXyXyXyXyXyXyXyXyXyXiXiXiXiXiXiXiXiXiXiXiXiXiXiXiXiXiXiXiXiXiXiXiXiXiXiXiXiXiXiXxXxXvXxXxXxXvXvXiXvXvXvXiXiXiXiXiXiXiXiXiXiXiXxXxXiXiXiXiXiXiXxXiXiXiXiXiXiXiXiXiXiXxXiXiXiXiX",
"BXBXHXHXHXBXBXBXnXBXBXBXBXBXBXBXBXBXBXBXBXBXBXBXBXBXmXmXmXmXmXiXiXmXmXmXmXBXBXBXmXmXmXmXmXmXmXmXmXmXmXBXBXBXBXFXBXBXBXBXBXBXBXBXBXBXBXBXBXBXBXBXBXBXBXBXBXBXBXBXmXmXmXmXBXBXmXmXmXBXBXBXmXmXmXmXmXmXmXmXmXvXvXvXvXvXvXxXxXxXxXxXxXxXxXmXmXgXwX8X2X#X.XV.V.V.V.B.B.B.B.B.B.B.B.V.B.B.B.M.M.M.B.M.M.M.M.M.m.M.N.N.m.m.m.m.t.b.t.e.e.i.i.i.i.t.t.i.i.i.i.i.i.i.i.i.i.i.i.i.i.i.i.i.i.i.i.t.r.q.%._ ^ G B l r k d r , : , 1 e a N oX0X9XyXyXtXyXpXiXiXiXiXiXiXiXiXiXiXiXiXiXiXiXiXiXiXiXiXiXiXiXiXiXiXiXiXiXiXiXiXxXiXiXiXiXiXxXxXxXxXxXxXxXxXxXvXvXiXiXiXpXxXxXxXiXvXvXxXxXxXxXxXxXxXxXmXmXxXiXiXiXxXvXvXxXiXvXxXiXxXxXxXvX",
"BXBXmXmXBXBXBXBXnXnXnXnXnXBXBXBXBXBXBXBXBXBXBXBXmXmXmXmXmXmXmXmXmXmXmXmXmXBXBXBXmXmXmXmXmXmXmXmXmXmXmXmXmXxXxXnXnXnXnXBXBXBXBXBXBXBXBXBXBXBXBXBXBXBXmXmXmXmXBXBXmXBXBXBXBXBXBXBXBXBXBXBXBXBXBXBXHXmXmXmXmXmXmXmXBXBXBXBXBXBXBXnXnXnXnXnXnXzXgX8X2X$X.XV.V.V.V.V.B.B.B.B.B.B.V.V.B.B.B.B.M.M.M.M.M.M.m.m.m.N.N.d.i.t.t.t.t.t.e.e.e.e.e.i.i.i.t.i.i.i.i.i.i.i.i.i.i.i.i.i.i.i.i.i.d.i.i.t.t.q.$.#.` H Z x 5 t t r 1 > , 3 z p v oX9X9XyXyXyXyXpXiXiXiXiXiXiXiXiXiXiXiXiXiXiXiXiXiXiXiXiXiXiXiXiXiXiXiXiXiXiXiXiXxXiXiXiXiXiXxXxXxXxXxXvXxXvXxXxXxXiXiXpXpXxXxXxXxXvXxXxXiXxXxXxXxXxXxXxXmXxXiXiXiXiXvXvXvXiXxXiXiXxXxXxXxX",
"BXmXmXmXmXnXBXBXnXnXnXnXnXBXBXBXBXBXBXBXBXBXBXBXmXBXmXmXmXmXmXmXmXmXmXmXmXBXmXBXmXBXmXmXmXmXmXmXmXmXmXmXmXxXxXnXnXnXxXnXnXBXBXBXBXBXBXBXBXBXBXBXBXmXmXmXmXBXmXBXBXHXHXHXHXHXHXHXHXHXHXHXHXHXHXHXHXHXBXmXmXBXBXBXBXBXBXBXBXFXFXFXBXBXBXnXnXnXgXwX8X$X#X.XV.V.V.V.V.B.B.B.B.B.B.B.V.B.B.B.B.B.M.M.M.M.M.m.m.m.i.t.t.e.t.e.e.i.t.e.e.i.i.i.i.i.t.i.i.i.i.i.i.i.i.i.i.i.i.i.i.i.i.i.d.i.i.d.t.r.q.%.O._ H B d r r e 3 , , e V N c @X9X9XiXpXyXyXpXiXiXiXiXiXiXiXiXiXiXiXiXiXiXiXiXiXiXiXiXiXiXiXiXiXxXxXiXiXiXiXiXiXvXvXvXvXvXvXxXxXxXxXvXvXvXxXxXvXvXvXmXmXmXmXmXxXvXvXiXiXxXxXxXxXxXxXmXmXxXiXiXiXiXvXvXvXvXvXiXiXxXxXxXxX",
"mXmXmXmXmXnXnXnXnXnXnXnXnXBXBXBXBXBXBXBXBXBXBXBXmXBXmXmXmXmXmXmXmXmXBXBXBXBXmXmXmXBXmXmXmXmXmXmXmXmXmXmXmXBXBXBXBXBXnXnXnXBXBXBXBXBXBXBXBXBXBXBXBXmXmXmXmXmXmXmXmXHXHXHXHXHXHXHXHXHXHXHXHXHXHXHXHXHXHXBXBXBXSXHXHXHXHXHXHXHXHXFXFXFXFXMXMXnXgXgX8X$X#X.XV.V.V.V.V.C.B.B.B.B.B.B.V.B.B.B.B.B.B.M.M.M.M.m.m.d.t.e.e.e.e.e.e.i.i.i.i.i.i.i.i.i.i.i.i.i.i.i.i.i.i.i.i.i.i.i.i.i.i.i.d.i.i.d.t.e.q.$.@.@._ H Z 3 5 e 1 1 , t D D x |.0X0XiXiXyXpXpXiXiXiXiXiXiXiXiXiXiXiXiXiXiXiXiXiXiXiXiXxXxXiXiXiXiXiXiXiXiXiXiXiXvXvXvXvXvXvXvXvXxXxXxXvXxXmXmXmXmXmXmXmXmXmXxXxXvXvXiXiXxXiXxXxXxXiXiXiXiXiXiXiXiXvXvXvXvXiXiXiXiXiXiXiX",
"BXBXmXmXmXBXBXBXnXnXnXnXnXnXnXBXBXBXBXBXBXBXBXBXBXBXBXBXBXBXBXBXBXBXBXBXBXBXBXBXBXBXBXBXnXnXxXxXxXxXxXnXnXBXBXmXBXmXmXmXmXmXmXBXBXBXmXmXmXBXBXBXmXBXBXBXmXBXmXmXmXBXBXHXBXBXBXBXBXBXBXBXBXFXFXHXHXHXHXHXHXBXFXHXFXFXFXFXFXFXFXFXFXFXnXnXnXZXnXgX8X2X#X.XV.V.V.V.V.V.V.V.V.B.B.B.B.B.B.B.B.B.B.B.M.M.M.N.m.t.t.e.e.e.t.i.i.i.i.i.i.i.e.i.i.i.i.i.i.i.i.i.i.i.i.i.i.i.i.i.i.d.d.d.d.d.d.d.i.i.r.q.$.%.#.O.^ Z k , 5 5 , z ~ ^ c n.qX0XiXiXiXpXpXiXiXiXiXiXiXiXiXiXiXiXiXsXsXvXvXvXvXvXvXvXxXxXiXiXxXiXiXvXmXmXiXiXiXmXmXmXmXxXxXxXvXvXvXmXmXxXnXBXBXBXxXxXxXxXxXxXxXxXxXxXxXxXxXxXxXxXxXxXxXxXxXxXxXxXxXxXxXxXxXxXxXxXxXxX",
"mXBXmXmXmXBXBXBXmXmXnXnXnXnXnXBXBXBXBXBXBXBXBXBXBXBXBXBXnXnXxXnXmXnXnXBXBXBXBXBXBXBXBXBXnXnXxXxXxXmXnXnXnXmXmXmXmXmXmXmXmXmXmXBXBXBXmXmXmXmXmXmXmXmXmXmXmXmXmXmXmXmXmXBXnXBXBXBXBXBXBXBXBXBXBXHXHXHXHXHXHXBXBXBXBXBXBXBXBXBXBXnXnXnXnXnXnXnXnXgX8X2X#X.XV.V.V.V.V.V.V.V.V.B.B.B.B.B.B.B.B.B.B.B.M.M.N.i.t.t.t.e.e.t.t.m.b.i.i.i.i.i.e.i.i.i.i.i.i.i.i.i.i.i.i.i.i.i.i.i.i.d.d.d.d.d.d.d.i.i.i.e.w.4.$.#.O.H D n r % t D 4.+.C 3.iXyXiXiXyXpXpXiXiXiXiXiXiXiXiXiXiXiXiXsXsXiXvXvXvXvXvXvXxXxXmXmXxXvXmXBXBXBXmXmXiXmXmXmXmXxXxXxXvXvXiXiXiXxXxXxXxXxXxXxXxXnXxXxXxXiXxXxXxXxXxXnXxXxXxXxXxXxXxXxXxXxXxXxXmXxXxXxXxXxXxXxX",
"mXmXmXmXmXnXnXBXmXmXxXmXnXnXnXBXBXBXBXBXBXBXBXBXBXBXBXBXBXnXxXxXxXxXxXnXnXnXnXBXBXBXBXBXBXnXnXnXmXmXmXBXBXBXBXmXBXmXmXmXmXmXmXmXmXmXmXmXmXmXmXmXmXmXmXmXmXmXxXmXmXxXxXBXnXnXnXnXmXmXmXmXnXBXBXBXBXBXBXBXmXBXBXBXnXnXmXnXnXnXnXnXnXnXnXnXnXnXnXgX8X2X#X.XV.V.V.V.V.V.V.V.V.B.B.B.B.B.B.B.B.B.B.M.M.N.m.t.e.e.e.t.t.i.b.N.b.b.i.i.i.i.e.i.i.i.i.i.i.i.i.i.i.i.i.i.i.i.i.i.i.d.d.d.d.d.d.N.d.d.d.t.e.e.4.$.%.%.%.O.G v D %.@X3.A / qXyXiXiXiXpXpXiXiXiXiXiXiXsXsXsXsXsXsXsXsXiXiXiXxXxXvXvXxXxXiXxXxXmXmXBXBXBXmXmXmXmXmXmXmXmXmXmXxXxXiXiXiXiXiXxXxXxXxXBXBXBXnXxXxXxXxXmXnXBXBXBXBXBXnXnXnXBXBXBXnXnXnXnXnXmXBXBXnXnXnXnX",
"mXmXmXmXmXxXxXnXmXmXxXmXmXnXnXnXnXBXBXBXBXBXBXBXBXBXBXBXBXBXBXBXnXnXxXxXxXnXnXBXBXBXBXBXBXnXnXnXmXBXBXBXBXBXBXBXBXmXmXmXmXmXmXmXmXmXmXmXmXmXmXmXmXmXmXmXmXmXxXmXmXxXxXBXnXnXnXnXnXmXmXmXnXnXnXmXmXmXmXmXmXxXxXxXxXxXxXxXxXxXxXxXxXnXnXnXnXnXnXgX8X2X#X.XV.V.V.V.V.V.V.V.V.B.B.B.B.B.B.B.B.B.M.m.m.m.t.t.e.e.e.t.b.N.N.N.b.i.i.i.i.e.e.i.i.e.e.i.i.i.i.i.i.i.i.i.i.i.i.i.i.d.d.d.d.d.d.m.d.d.d.i.i.i.e.4.$.$.4.g.g.e.4.b.#X7.D A qXqXiXiXiXpXpXiXiXiXiXiXiXsXsXsXsXsXsXsXsXiXiXiXiXxXxXvXxXiXiXiXiXiXiXmXmXmXmXmXmXmXmXmXmXmXmXmXxXxXiXiXiXxXxXxXxXnXxXmXBXBXBXBXBXBXBXHXFXBXBXBXBXBXBXBXBXBXBXBXBXnXnXBXBXBXBXBXBXBXBXBX",
"mXmXmXmXxXxXxXxXxXxXxXxXzXzXzXnXmXnXnXnXnXnXnXnXnXBXBXBXBXBXFXBXnXxXxXxXxXxXxXnXnXBXBXBXBXBXnXBXBXBXBXBXHXHXBXBXmXmXBXBXmXBXmXmXmXmXmXmXmXmXmXBXmXmXmXmXmXmXmXmXmXmXmXmXmXmXmXnXnXzXzXnXnXnXxXmXmXmXmXmXnXxXxXnXnXxXxXxXxXxXxXmXnXnXnXnXnXnXnXgX8X2X#X#X.X.X.XV.V.V.B.B.B.B.B.B.B.B..XB.B.N.N.N.i.i.i.i.i.t.i.b.b.N.N.N.i.i.i.i.i.i.e.e.e.e.e.e.e.i.i.i.i.i.i.i.i.i.i.i.i.i.i.d.d.N.N.N.d.d.d.d.b.N.b.i.w.b.e.e.B.@XB.B.@Xs./ A :XiXiXiXiXiXiXiXiXiXiXiXiXiXiXiXmXmXiXiXiXiXiXxXiXiXiXvXvXiXiXiXiXiXiXiXxXmXmXmXmXmXmXmXmXmXmXmXmXxXxXvXmXxXmXmXnXnXmXmXnXBXBXBXBXBXBXBXBXBXBXBXBXBXBXBXBXBXBXBXnXBXnXnXnXBXBXBXBXBXBXBX",
"iXmXmXmXiXiXxXxXxXxXxXxXxXxXxXxXxXxXxXxXxXxXxXxXxXnXnXnXnXBXBXBXnXnXxXxXxXnXnXnXnXBXBXBXBXnXxXnXnXmXmXmXnXBXBXmXmXmXmXmXmXmXmXmXmXmXxXmXmXmXmXmXmXmXmXmXmXmXmXmXmXnXnXnXnXmXnXnXnXzXzXxXxXxXxXmXmXxXxXxXxXnXnXnXnXxXxXxXxXxXxXmXnXnXnXnXnXnXnXgX8X2X$X#X.X.X.XV.V.V.B.B.B.B.B.B.B.B..XB.N.N.N.N.i.i.b.b.b.b.b.b.b.N.N.m.i.i.i.e.r.e.e.e.e.e.e.e.e.i.i.i.i.i.i.i.i.i.i.i.i.i.i.d.d.N.N.N.d.d.d.d.N.N.N.b.i.i.b.N.N.N.B.B.@Xn.^ V oXqXiXiXiXiXiXiXiXiXiXiXiXiXiXiXmXmXxXxXiXiXxXxXiXiXvXvXvXmXmXmXmXmXmXmXmXmXmXmXmXmXmXmXmXmXmXmXmXmXvXvXvXxXxXxXxXxXxXmXnXnXnXnXxXxXxXxXxXxXxXnXnXBXBXBXBXBXBXBXBXBXnXnXnXBXBXBXBXBXBXBX",
"iXiXiXiXiXiXiXxXxXiXiXiXiXiXiXiXiXxXxXxXxXxXxXxXxXxXxXxXxXxXxXxXxXxXxXxXxXxXxXxXxXxXxXxXxXxXxXxXxXxXxXxXxXmXmXmXmXmXmXmXmXmXmXmXmXmXxXxXiXiXiXmXmXmXmXmXmXmXmXmXmXnXnXnXnXnXnXnXxXxXxXxXxXxXxXmXmXxXxXxXxXnXBXnXnXnXnXnXnXnXnXnXmXnXnXnXnXnXnXgX8X2X$X#X.X.X.XV.V.V.B.B.B.V.B.B.B..XB.B.N.N.N.N.N.N.N.N.N.m.m.N.b.N.b.i.i.i.e.r.r.e.e.e.e.e.e.e.e.i.i.i.i.i.i.i.i.i.i.i.i.i.i.d.d.d.N.N.d.d.d.N.N.N.N.N.i.N.N.N.N.N.B.B.B.n.^ v a.qXiXiXiXiXiXiXxXiXiXiXiXxXmXmXmXxXxXmXmXmXmXmXmXiXiXmXmXmXmXBXBXBXmXmXBXmXBXBXmXmXmXmXmXmXmXmXmXmXmXmXmXxXxXxXxXxXmXBXBXmXnXnXxXxXxXxXxXxXxXnXnXBXBXBXBXBXBXFXBXBXBXBXBXBXBXBXBXBXBXBX",
"iXiXiXiXiXiXiXxXiXiXiXqXiXiXiXiXiXiXiXiXiXiXiXiXiXiXiXiXiXxXxXxXxXxXxXxXxXiXiXiXiXxXxXxXxXxXxXxXxXxXxXxXxXmXxXiXiXiXxXmXmXiXiXmXxXmXxXxXiXiXiXxXiXiXiXmXmXmXmXmXmXnXxXxXxXnXnXnXxXxXxXxXxXxXxXmXmXxXxXxXxXxXnXnXnXnXnXnXnXnXnXnXmXnXnXnXnXnXnXgX8X2X$X#X.X.X.XV.V.B.B.B.B.B.B.B.B..XB.N.N.N.N.N.N.N.N.N.N.m.m.m.b.b.b.i.i.e.e.r.r.e.e.e.e.e.e.e.e.e.e.i.i.i.i.i.i.i.i.i.i.i.i.d.d.i.d.N.N.d.d.N.N.N.N.N.N.B.i.i..XN.N.B.B.e.D p 3.qXiXxXiXiXiXiXxXiXiXiXiXmXmXmXxXxXxXmXmXmXmXmXmXiXiXmXmXmXmXBXBXBXmXmXmXBXBXBXmXmXmXmXmXmXmXBXmXmXmXBXBXBXBXBXBXBXBXBXBXmXnXBXBXBXBXBXBXnXnXnXnXBXBXBXBXBXHXHXBXBXBXBXBXBXBXBXBXBXBXBX",
"iXiXiXiXiXiXiXiXiXiXiXiXiXiXiXiXiXiXiXiXiXiXiXiXiXxXiXiXiXiXiXiXiXxXxXxXxXiXiXiXiXxXxXxXxXxXxXxXxXxXxXxXxXiXiXiXxXxXxXxXxXxXxXxXxXxXxXxXxXxXmXxXxXxXxXmXmXmXmXmXmXmXmXmXmXmXmXmXxXxXxXxXxXxXxXxXxXxXxXxXnXnXnXBXBXnXxXnXnXnXnXBXBXnXnXBXBXZXZXgX8X2X$X#X.X.X.XV.V.V.B.V.B.B.B.B.B.B.N.N.N.m.N.m.N.N.N.N.N.N.N.N.m.b.i.i.t.e.e.e.e.e.e.e.e.r.r.r.r.e.e.e.e.e.i.i.i.i.i.i.i.i.i.i.i.i.i.d.d.N.N.N.N.N.N.N.N.N.N.N.N.B.B.B.B.n.^ c / 0XiXiXiXiXiXxXvXvXiXiXiXiXmXmXiXiXiXmXmXmXmXmXmXmXmXmXmXmXmXmXmXmXmXmXmXmXmXBXBXBXBXBXBXBXBXBXBXBXBXBXBXBXBXBXBXBXBXBXBXBXBXBXBXBXBXBXBXBXBXBXBXBXBXBXBXBXBXBXBXBXBXBXBXnXmXmXnXnXmXBX",
"iXiXiXxXxXiXxXxXxXxXxXxXiXiXqXqXiXiXiXiXxXxXxXxXxXxXxXxXxXxXxXxXxXxXxXxXxXxXxXxXxXxXxXxXxXxXxXxXxXxXxXxXxXiXiXiXxXxXxXxXxXxXxXxXxXxXxXxXxXmXmXxXxXiXiXxXxXmXmXmXmXmXmXmXmXmXmXmXxXxXiXiXiXiXiXxXxXxXxXBXBXBXnXBXBXBXmXmXnXBXBXBXBXnXnXBXBXZXZXgX8X2X$X#X.X.XV.V.B.B.B.B.B.B.B.B.B..XB.B.N.N.N.N.N.N.N.N.N.N.N.N.m.b.i.e.e.e.e.e.e.e.e.e.e.r.r.r.r.r.r.e.e.e.e.i.i.i.i.i.i.i.i.i.i.i.i.d.d.N.N.N.N.N.N.N.N.N.N.N.N.B.B.B.B.N.' N / 0XqXxXiXiXsXxXvXvXiXvXiXiXmXmXiXiXiXmXmXmXmXmXmXmXmXmXmXmXmXmXmXmXmXmXmXmXmXmXBXBXBXBXBXBXmXBXBXBXBXBXBXBXBXBXBXBXBXBXBXBXBXBXBXBXBXBXBXBXBXBXBXBXBXBXBXBXBXBXBXBXBXBXBXnXmXmXnXnXmXBX",
"xXxXxXxXxXxXxXxXxXxXxXxXxXxXiXiXiXiXiXxXxXxXxXnXxXxXxXxXxXxXxXxXxXxXxXxXxXxXxXxXxXxXxXxXxXxXxXxXxXxXxXxXxXmXmXmXmXmXmXmXxXxXxXxXxXxXxXxXxXiXmXxXmXiXiXxXiXmXmXmXmXmXBXBXBXmXmXmXxXxXiXxXxXxXxXxXxXnXBXBXBXBXBXBXBXBXBXBXBXBXBXBXBXBXBXBXBXMXMXnX8X2X$X#X.XV.V.B.B.B.B.B.B.B.B.V.V..X.X.XB.B.B.B.B.N.N.M.N.M.N.N.N.i.e.e.e.e.e.e.e.e.e.e.e.r.r.r.r.r.r.r.r.e.e.e.e.i.i.i.i.i.i.i.i.i.i.N.N.N.N.N.N.N.N.N.N.N.N.N.N.N.B.B.B.b.' c A 7XqXxXiXiXiXxXvXvXvXvXiXiXiXmXiXiXiXmXmXmXmXmXmXmXmXmXmXmXmXmXmXmXmXmXmXmXmXmXBXBXBXBXmXmXmXmXBXBXBXBXBXBXBXBXBXBXBXBXBXBXBXBXBXBXBXBXBXBXBXBXBXBXBXBXBXBXBXBXBXBXBXBXBXnXnXmXmXmXnXmX",
"xXiXiXiXiXxXxXxXxXxXxXiXxXxXxXxXxXxXxXxXxXxXxXxXxXxXxXnXnXnXnXBXBXBXBXBXBXBXBXBXBXnXxXxXxXxXxXxXxXxXxXxXxXmXmXmXmXmXmXmXxXxXxXxXxXxXxXxXxXiXmXmXmXiXiXxXiXmXmXBXBXHXHXBXBXmXmXmXmXnXnXBXBXBXBXFXFXBXBXBXBXBXBXBXBXBXBXHXBXBXBXBXBXnXnXBXBXMXMXgX8X2X$X#XV.V.B.B.B.B.B.B.B.B.B..X.X.X.X.X.X.XV.V.B.N.N.N.M.N.N.N.b.e.e.e.e.e.e.e.e.y.e.e.e.r.r.r.r.r.r.r.r.r.r.r.e.e.e.i.i.i.i.i.i.i.i.N.N.N.N.N.N.N.N.N.N.N.N.N.N.N.B.B.B.4.^ p C 7XqXxXiXiXiXxXvXvXvXvXiXiXxXmXiXiXiXmXmXmXmXmXmXmXmXmXmXmXmXmXmXmXmXmXmXmXmXBXBXBXmXmXmXmXmXmXBXBXBXBXBXBXBXBXBXBXBXBXBXBXBXBXBXBXBXBXBXBXBXBXBXBXBXBXBXBXBXBXBXBXBXBXBXnXnXnXmXnXmXnX",
"mXmXxXxXiXxXxXmXxXxXxXxXxXnXBXnXxXxXxXxXxXxXxXxXxXxXxXnXnXBXBXBXBXFXFXFXFXBXBXBXBXBXnXxXxXxXxXxXxXxXxXnXmXmXmXmXmXmXmXmXmXxXxXxXxXnXnXnXnXmXmXmXmXmXmXmXmXmXmXBXBXHXHXHXHXHXBXmXmXBXBXBXBXHXHXHXFXCXCXBXBXBXBXBXBXBXBXBXBXBXBXBXBXnXnXnXnXnXnXgX8X2X$X#X.XV.V.B.B.B.N.N.N.B.B..X.X.X.X1X.X.X.X.XB.N.N.N.N.N.N.N.i.e.e.e.e.e.e.e.w.w.w.e.e.r.r.e.e.r.r.e.e.y.e.e.e.i.e.i.i.i.i.i.i.i.i.f.i.f.N.N.N.N.N.N.N.N.N.N.N.N.B.B.B.b.^ g g  X0XmXqXiXiXxXvXxXxXxXxXxXxXxXxXxXxXnXBXBXBXBXmXmXmXmXmXmXmXmXmXmXmXmXmXmXmXmXmXBXBXBXBXBXmXBXmXmXmXBXBXnXmXmXmXBXBXBXBXnXmXmXmXBXBXBXBXBXBXBXBXBXBXBXBXBXBXBXBXBXBXBXBXnXnXnXnXmXnXnX",
"mXBXBXmXmXBXHXHXBXBXBXBXBXBXBXnXxXxXxXnXmXBXBXBXBXxXxXxXxXBXBXBXBXBXBXBXBXBXBXBXBXBXnXxXxXxXxXxXxXnXnXBXBXmXmXBXBXBXmXmXmXxXxXxXxXnXnXnXnXBXmXBXBXBXBXHXHXHXBXBXBXBXHXHXHXmXmXmXmXmXxXxXxXnXnXnXnXBXBXBXBXnXnXnXnXBXBXBXBXBXBXBXBXnXnXnXnXnXnXgX8X8X2X#X.XV.V.B.B.B.N.N.N.B.B.V..X.X.X.X.X.XB.B.B.N.N.N.b.N.N.i.e.e.i.i.i.e.e.e.w.w.w.e.e.r.r.e.e.y.y.y.y.y.e.e.e.i.e.i.i.i.i.i.i.i.i.f.i.i.i.N.N.N.N.N.N.N.N.N.N.N.N.M.N.b.^ p p s.0XmXiXiXiXxXvXxXxXxXxXxXxXxXxXxXxXnXBXBXBXBXmXmXmXmXmXmXmXmXmXmXmXmXmXBXmXmXmXBXBXBXBXBXBXBXmXmXmXmXmXnXmXnXmXBXBXBXBXnXmXmXmXBXBXBXBXBXBXBXBXBXBXBXBXBXBXBXBXBXBXBXBXnXnXnXnXnXnXnX",
"BXBXBXHXBXBXBXHXFXHXHXHXHXHXBXBXBXBXBXBXBXHXFXFXBXBXBXBXBXFXHXHXHXFXFXFXFXBXBXBXBXBXBXBXBXBXBXBXBXBXBXBXBXBXBXBXBXBXBXmXmXnXnXBXBXBXBXBXBXBXBXHXHXHXHXHXHXHXHXHXBXBXmXmXmXmXmXmXmXnXxXxXxXnXnXnXnXBXBXBXBXnXnXnXnXBXBXBXBXBXBXBXBXnXnXnXnXnXnXgX8X8X2X1X.X.XV.B.B.B.B.B.B.B.B..X.X.X#X.X.X.X.XB.B.N.N.i.i.i.i.i.e.i.i.i.i.i.e.e.w.w.w.w.e.r.r.e.y.y.w.q.q.y.e.e.i.i.i.i.i.i.i.i.i.i.i.i.i.i.i.N.N.N.N.N.N.N.N.N.N.N.N.M.N.b.~ y y 8.0XmXmXiXsXxXxXxXmXmXmXxXxXxXxXxXxXnXBXBXBXBXmXmXBXBXmXmXmXmXmXmXmXmXmXBXBXBXBXBXBXBXmXmXBXBXmXmXmXmXmXnXBXBXBXBXBXBXBXnXnXnXnXBXBXBXBXBXBXBXBXBXBXBXBXBXBXBXBXBXBXBXBXBXBXBXBXBXBXBX",
"BXBXBXBXBXHXHXHXFXBXBXBXBXFXBXBXBXBXBXBXBXBXBXBXnXBXBXBXBXBXBXHXFXFXFXFXFXBXBXBXBXBXBXBXBXBXBXBXBXBXBXBXBXBXBXBXBXBXBXBXBXnXnXBXBXBXBXBXBXBXBXHXBXmXmXmXmXBXHXHXBXmXmXmXmXmXmXmXBXBXBXHXBXFXFXFXBXBXBXBXBXxXxXxXxXBXBXBXBXBXBXBXBXnXnXnXnXnXnXgX8X8X2X2X#XV.V.B.B.B.B.B.B.B.B.V..X.X.X.X.X.XB.N.N.N.i.i.i.i.i.i.i.i.i.i.i.i.e.e.w.w.w.w.w.r.r.e.y.w.q.q.4.q.y.e.i.i.e.i.i.i.i.i.i.i.i.i.i.i.f.N.N.N.N.N.N.N.N.N.N.N.N.b.b.e.G y y ' 0XmXmXxXsXxXpXvXmXmXmXxXxXxXxXxXxXBXBXBXBXBXBXBXBXBXmXmXmXmXmXmXmXmXmXBXBXBXBXBXBXBXmXBXmXmXBXmXmXmXmXBXBXBXBXBXBXBXBXnXnXnXnXBXBXBXBXBXBXBXBXBXBXBXBXBXBXBXBXBXBXBXBXBXBXBXBXBXBXBX",
"BXBXBXBXBXHXHXHXBXBXBXBXBXBXBXBXBXBXBXBXBXBXBXBXBXBXBXBXBXBXBXHXHXHXHXHXFXFXFXFXBXBXBXBXBXBXBXBXBXBXBXBXBXBXBXBXBXFXBXBXBXBXBXBXBXBXBXBXBXFXFXBXBXBXBXBXBXBXBXFXBXBXnXBXBXBXBXBXBXHXHXFXFXBXBXBXBXBXnXnXxXxXxXxXxXnXBXBXBXBXBXBXBXBXBXnXnXnXnXgX8X8X2X2X.X.XB.B.B.B.B.B.B.B.B.V..X.X.X.X@X.XB.N.b.i.i.i.b.i.i.i.i.d.i.i.i.i.r.r.y.y.r.r.r.r.r.r.w.w.q.4.2.2.q.y.r.r.r.r.i.i.i.i.i.i.i.i.i.i.i.N.N.N.N.N.N.N.N.f.N.N.m.m.b.2.Z q y A 0XxXxXiXiXmXiXmXmXmXmXmXmXmXmXmXmXBXBXmXmXmXBXBXBXBXmXmXmXmXmXBXmXBXBXBXBXBXBXBXBXBXBXBXBXmXmXmXmXmXmXBXBXBXBXBXBXBXBXBXBXBXBXBXBXBXBXBXBXBXBXBXBXBXBXBXBXBXBXBXBXBXBXBXBXBXBXBXBXBX",
"BXBXBXBXBXHXHXHXFXFXFXFXHXBXBXBXBXBXBXBXBXBXHXHXBXBXBXBXBXBXBXHXHXHXHXHXFXFXFXFXBXBXBXBXBXBXBXBXBXBXBXBXBXBXBXHXBXFXBXBXBXBXBXBXBXBXBXBXBXBXBXBXBXBXBXBXBXFXFXFXBXBXnXBXBXBXBXBXBXBXHXHXBXBXBXBXBXBXBXBXBXFXFXFXBXnXxXxXxXnXnXBXBXBXBXnXnXnXnXgX8X8X3X2X1X.XV.B.B.B.B.B.B.B.B.B..X.X.X.X.X@XB.N.b.b.i.i.i.d.d.i.i.i.i.i.i.r.r.r.y.w.r.r.r.r.r.y.w.q.2.2.$.$.2.q.y.r.r.r.i.i.i.i.i.i.i.i.i.i.i.f.f.N.N.N.N.N.N.f.N.N.m.b.b.#.V q y V 7XxXiXiXiXmXiXmXmXmXmXmXmXmXmXmXmXmXmXmXmXmXBXmXmXmXmXmXmXmXmXBXmXBXBXBXBXBXBXBXBXBXBXBXBXBXmXmXmXmXmXBXBXBXBXBXBXBXBXBXBXBXBXBXBXBXBXBXBXBXBXBXBXBXBXBXBXBXBXBXBXBXBXBXBXBXBXBXBXBX",
"HXHXBXBXBXHXFXFXFXFXFXFXHXBXBXBXBXBXBXBXBXBXBXBXBXBXBXFXHXHXHXHXHXHXHXHXHXHXFXFXFXBXBXBXBXBXBXBXBXBXBXBXBXBXHXHXBXFXFXFXBXBXBXBXBXFXFXHXFXFXFXFXHXHXBXBXBXFXFXFXFXFXBXBXBXBXBXBXBXBXBXBXBXBXBXBXBXBXBXnXnXBXnXxXxXxXxXxXxXxXnXBXBXBXBXnXnXnXnXgX8X8X3X2X2X1XV.B.B.B.B.B.B.B.B.V.B..X.X.XB.B.N.B.N.N.N.b.b.i.i.i.i.i.i.r.r.w.r.r.r.r.r.r.r.r.r.y.q.q.4.2.$.#.%.2.q.r.r.r.i.i.i.i.i.i.i.i.i.i.i.i.i.i.i.N.N.N.N.N.N.N.m.N.b.O.N q p C +XiXiXiXiXxXxXmXmXmXmXmXmXmXmXmXxXxXxXmXmXmXmXmXmXmXmXiXiXmXmXmXmXBXBXBXBXBXBXBXBXnXnXBXBXBXmXmXmXBXBXBXBXBXBXBXBXBXBXBXBXBXBXBXBXBXBXBXBXBXBXFXFXFXFXBXBXBXBXFXFXFXFXFXFXFXFXBXBXBX",
"HXHXHXHXBXFXFXFXFXFXFXFXFXBXBXBXBXBXBXBXBXBXBXBXBXBXBXFXHXFXFXHXHXHXHXHXHXFXFXFXFXBXBXBXBXBXHXHXBXBXBXBXBXBXHXHXBXFXFXFXFXHXHXHXFXFXFXHXFXHXFXFXHXHXBXBXBXFXFXFXFXFXBXBXBXBXBXBXBXBXBXBXBXBXBXBXBXBXBXnXnXBXBXnXnXnXnXBXBXxXnXnXBXBXBXnXnXnXnXgX8XwX8X2X2X1X.XV.B.B.B.B.B.B.B.B.B..X.X.XB.B.N.N.N.N.N.N.b.i.i.i.i.i.r.r.w.w.w.r.r.r.r.r.r.r.y.w.q.q.4.2.%.@.@.$.2.r.r.r.i.i.i.i.i.i.i.i.i.i.i.i.i.i.i.N.N.N.N.N.N.N.N.b.i.` N 0 p c XXqXiXiXiXxXxXmXmXmXmXmXmXmXmXiXiXiXiXxXxXmXmXiXiXxXiXiXiXmXmXBXmXBXBXBXBXBXBXBXnXnXxXxXnXBXmXmXmXBXBXBXBXBXBXBXBXBXBXBXBXBXBXBXBXBXBXBXBXBXHXFXFXFXFXBXBXBXBXFXFXFXFXBXBXBXBXBXBXBX",
"HXBXBXBXBXHXBXBXBXBXBXBXBXFXFXFXFXFXFXFXHXHXHXHXFXFXFXFXFXHXHXHXHXHXBXBXBXBXBXBXBXBXBXBXBXBXBXBXBXBXBXBXBXBXBXBXBXFXFXFXFXFXFXFXHXHXHXHXHXHXFXHXFXFXFXFXFXHXHXHXFXFXFXFXFXBXBXBXBXFXFXFXFXBXBXBXBXBXBXBXBXBXBXnXxXxXxXxXxXxXxXnXBXBXBXBXBXZXnXgXwXwX8X2X2X1X1XV.V.B.B.B.B.B.B.B.V..X.X.XB.B.N.B.B.B.N.b.i.i.i.i.i.i.r.w.w.w.w.w.r.r.r.r.r.r.r.w.w.q.q.$.%.+.+.#.2.w.r.r.i.i.i.i.i.i.i.i.i.i.i.i.i.i.i.N.N.N.N.f.N.N.d.e.$.^ z < q g 3.qXBXxXxXxXmXmXmXmXmXmXmXmXmXiXiXxXiXmXmXmXmXmXmXmXmXmXmXmXmXmXmXmXnXBXBXBXBXBXzXxXxXxXxXmXmXnXnXBXBXBXBXBXBXBXBXBXBXBXBXBXBXBXBXBXBXBXBXBXBXFXFXFXBXBXBXBXBXBXBXBXBXBXBXBXBXBXBXBX",
"BXBXBXBXHXHXBXBXBXBXBXBXBXFXFXFXFXFXFXFXHXHXHXHXFXFXFXFXFXHXHXHXHXHXBXBXBXBXBXBXBXBXBXBXBXBXBXBXBXBXBXBXBXBXBXBXBXFXFXFXFXBXBXBXBXBXBXHXHXBXBXFXBXBXBXBXBXFXFXFXBXBXBXBXBXBXBXBXBXFXFXFXFXBXBXBXBXFXFXBXBXnXxXxXiXiX0X0X0XxXxXBXBXBXBXBXBXZXnXgX0XwX8X2X2X1X1X1XV.B.V.B.B.B.B.B.B..X.X.X.XB.B.B.B.B.N.N.i.i.i.i.i.i.i.w.w.w.r.r.r.r.r.r.r.r.r.w.w.q.q.$.%.@.+.@.$.9.r.r.r.i.i.i.i.i.i.i.i.i.i.i.i.i.i.N.N.N.d.f.f.N.d.e.$.G g 1 i g / 0XbXiXiXiXiXiXiXmXxXmXmXmXmXxXxXmXmXmXmXmXmXmXmXmXmXmXmXmXmXmXmXnXnXBXBXBXnXzXzXnXxXxXxXmXmXnXnXBXBXBXBXBXBXBXBXBXHXBXBXBXBXBXBXBXBXBXBXBXBXFXFXFXBXBXBXBXBXBXBXBXBXBXBXnXnXBXBXBX",
"BXBXBXBXBXBXBXBXBXBXBXBXBXFXFXFXFXFXFXFXHXHXHXHXFXFXFXFXHXHXHXHXFXHXBXBXBXBXBXBXHXHXBXHXBXBXBXBXBXBXBXBXBXBXBXBXBXFXFXFXBXBXBXBXBXBXBXBXBXBXBXBXBXBXBXBXnXBXBXBXBXBXBXBXBXBXBXBXBXBXBXBXBXBXBXBXBXBXFXHXHXHXFXHXBXBXnXnXxXxXBXFXFXFXBXBXBXnXnXgXqX8X3X2X1X1X1X1XK.V.V.V.B.B.B.B.B..X.X.X.X.X.X.XB.B.N.N.i.i.i.i.i.i.i.r.r.r.r.r.r.r.r.r.r.r.r.w.w.w.q.$.%.@.@.@.#.2.w.r.r.r.i.i.i.i.i.i.i.i.i.i.i.i.i.N.d.d.d.f.f.N.i.r.$.G d 1 y g A 8X9XiXiXiXiXiXiXmXxXmXmXmXmXxXxXmXmXmXmXmXmXmXmXmXmXmXmXmXmXnXnXnXnXBXBXBXnXzXzXBXnXnXxXmXmXnXmXBXBXBXBXBXBXBXBXBXHXHXBXBXBXBXBXBXBXBXHXHXBXFXFXFXHXBXBXBXBXBXBXBXBXBXBXnXBXBXBXBX",
"BXBXHXHXHXHXHXHXFXFXFXFXBXFXFXFXFXFXFXFXHXHXHXHXFXBXBXBXBXHXHXHXBXBXBXBXFXFXFXBXBXHXHXHXBXBXBXBXBXBXBXBXBXBXBXBXBXBXBXFXBXmXmXmXnXnXnXnXnXBXBXBXnXnXnXnXxXnXxXnXnXmXnXnXnXnXnXBXBXBXBXBXBXBXBXBXBXBXBXBXBXFXBXBXBXBXBXBXBXBXFXHXHXFXBXBXBXBXnXgXwX8X2X#X#X1X1X1XK.V.V.V.B.B.B.B.B..X.X.X.X.X.X.XB.N.N.N.i.e.e.i.i.i.i.r.r.r.r.r.r.r.r.r.r.r.r.w.w.w.q.$.%.@.@.@.#.$.9.r.r.r.i.i.i.s.s.i.i.i.i.i.i.i.i.d.i.d.d.d.d.N.i.r.$.G d 3 y h h 7X:X0X0XqXqXiXxXmXxXmXmXmXmXxXxXmXmXmXmXmXmXmXmXmXmXmXmXmXmXxXxXmXnXnXnXBXnXzXzXBXBXnXxXmXmXnXmXBXBXBXBXBXBXBXHXHXHXHXBXBXBXBXBXBXBXBXBXHXBXFXFXFXHXHXBXBXBXBXBXBXBXBXBXBXBXBXBXBX",
"BXBXBXBXBXBXHXBXBXFXFXFXBXFXBXBXBXBXBXBXBXHXHXHXBXBXBXBXBXBXBXBXBXBXBXFXFXBXBXBXBXBXBXBXBXBXBXnXxXBXnXnXxXnXxXnXnXBXBXBXBXBXnXnXnXBXBXBXBXnXmXmXmXBXnXnXnXxXxXxXxXxXxXBXBXBXBXBXBXBXBXBXBXBXBXBXBXBXBXBXBXBXBXBXBXBXBXFXFXFXHXHXHXFXHXFXFXBXnXmXqX7X2X.XB.1X1X1XV.V.V.B.B.B.B.V.B..X.X+X.X@X@X.XB.N.N.i.e.r.r.i.i.i.i.e.r.i.i.i.e.i.r.r.r.r.r.w.y.y.q.$.%.@.@.@.@.2.9.r.r.i.r.i.i.s.r.r.r.i.i.i.i.i.i.i.i.i.i.d.d.N.d.e.$.G d 3 y g g 5.0X0X0X0XiXiXiXiXiXxXxXxXiXxXxXmXmXmXmXmXmXmXmXmXmXmXmXmXmXmXmXmXmXmXmXmXnXxXxXnXBXnXnXBXnXnXxXBXBXBXBXBXBXBXBXBXBXBXBXBXBXBXBXBXBXBXHXHXBXBXHXHXHXHXBXBXBXBXBXBXBXBXBXBXBXBXmXmX",
"xXxXiXiXiXxXxXxXxXnXnXBXBXBXBXBXBXBXBXBXBXBXBXBXBXFXFXFXBXBXnXnXBXFXFXBXnXnXnXnXnXBXBXBXBXBXnXxXxXmXnXnXnXBXBXBXBXnXnXnXnXBXnXnXmXBXBXBXBXnXnXmXnXBXnXnXnXmXxXxXxXnXnXBXBXBXBXBXBXBXBXBXBXBXBXBXBXBXBXBXBXBXBXBXBXnXxXnXBXBXBXHXHXFXFXFXFXBXHXnXgXwX2X.X.X.X.XV.V.V.V.B.B.B.B.B.B..X.X.X.X@X.X.XB.N.N.i.e.w.r.e.i.i.i.e.i.i.i.i.e.i.r.r.r.r.r.w.y.y.q.$.%.@.+.@.#.$.9.r.r.r.w.r.r.r.r.r.s.i.i.i.i.i.i.i.i.i.i.d.d.N.d.e.$.G d 3 u x h +.9X0X0XiXiXiXiXiXiXxXxXxXmXmXxXxXmXmXmXmXmXmXmXmXmXmXmXmXmXBXBXBXBXmXmXmXmXnXxXnXnXnXnXBXnXnXxXxXxXnXnXnXnXBXBXBXBXBXBXBXBXBXHXHXBXBXBXBXBXBXBXBXBXHXBXBXBXBXBXBXBXBXBXBXmXBXmXmX",
"iXiXiXiXiXiXiXiXiXxXxXxXxXxXxXxXxXxXxXxXxXnXmXmXxXxXiXxXxXxXxXxXxXBXBXxXxXxXxXxXxXxXxXxXxXxXxXiXiXxXxXxXxXnXnXBXnXxXxXxXxXxXxXBXBXBXBXBXBXnXmXmXmXBXBXBXBXBXBXBXBXnXBXBXBXBXBXBXBXBXBXBXBXBXBXBXBXHXBXBXBXBXBXBXBXnXxXnXBXBXHXHXHXHXFXFXFXHXHXmXmXqX8X2X.X.XV.B.B.V.V.B.B.B.V.B.B.B..X@X.X.X.XB.B.N.N.i.i.i.i.e.r.i.i.i.i.i.i.i.e.e.r.r.w.w.r.w.w.y.q.$.%.@.+.@.#.#.9.w.r.w.w.r.r.r.r.i.s.i.i.i.i.i.i.i.i.i.i.d.d.N.d.e.$.G f 3 u h h ~ oX0XiXiXiXiXiXiXiXxXxXxXiXiXiXxXmXmXmXmXmXmXmXmXmXmXmXmXmXmXBXBXBXBXBXBXBXBXmXBXnXmXnXBXBXBXnXnXxXxXxXxXxXBXnXBXBXBXBXBXBXHXHXHXBXBXBXBXBXBXBXBXBXBXBXBXBXBXBXBXBXBXBXnXBXBXBXBX",
"iXiXiXiXiXxXxXxXxXiXiXxXiXxXxXxXxXxXxXxXxXxXxXxXxXxXxXxXxXxXxXxXiXiXiXxXxXiXiXiXiXiXiXxXiXiXiXqXqXqXiXiXiXiXiXiXiXiXiXiXiXxXxXnXBXBXBXBXBXnXmXnXmXBXBXBXBXBXBXBXBXBXBXBXBXBXBXBXBXBXBXBXBXBXBXBXHXHXBXBXBXBXBXBXBXBXBXHXBXFXHXFXFXBXBXBXBXHXmXmXmXgX8X2X.XB.B.B.B.B.V.V.B..XB.B.N.B..X@X.X@X.XB.N.N.i.i.i.i.i.r.w.i.i.i.i.i.i.i.e.e.r.w.w.r.r.w.r.y.q.4.%.@.+.@.#.$.9.w.w.w.w.r.r.r.r.i.s.i.i.i.i.i.i.i.i.i.i.i.i.N.i.e.$.G f 3 r d y C a.gXiXiXiXiXiXiXiXxXxXxXiXiXiXmXmXmXmXmXmXmXmXmXmXmXmXmXmXmXmXmXmXmXmXBXBXBXmXBXnXmXnXBXBXBXnXnXxXnXxXnXnXnXnXBXBXBXBXBXBXBXHXHXBXBXBXBXBXBXBXBXBXBXBXBXBXBXBXnXnXnXnXnXBXBXBXBX",
"iXiXmXmXmXnXnXnXxXxXxXxXxXxXxXxXxXxXiXiXiXxXxXxXxXxXxXiXiXiXiXiXiXiXiXqX0X0X0XiXiXiXiXiXiXiXqX0X0X0X0X0X0X0XqXqXqXqXqXiXiXiXxXxXmXBXBXBXBXnXnXnXnXnXnXBXBXBXBXBXBXBXBXBXHXBXBXBXBXBXBXBXHXHXHXHXHXBXBXBXBXnXBXBXBXBXBXFXBXFXBXFXBXBXBXBXBXnXnXnXnXgXwX2X.XB.N.B.M.m.m.B.#X.XB.B.B.B.@X.X.XB.B.B.N.N.i.i.i.i.i.r.r.r.i.i.i.e.e.e.e.r.r.w.w.r.r.r.w.y.w.2.%.#.@.@.#.#.2.9.9.w.w.w.r.r.r.r.r.i.i.i.i.i.i.i.i.i.i.i.i.N.t.e.y.@.B > r d g c 8.:XqXiXxXiXiXiXiXiXiXiXiXxXxXmXmXmXxXxXmXmXmXmXmXmXmXmXiXmXmXmXmXBXBXBXBXBXBXBXBXnXnXBXBXCXCXCXBXnXnXBXBXBXBXBXBXBXBXFXFXFXBXBXnXnXmXBXFXFXFXFXHXBXBXBXBXBXnXBXBXBXBXBXBXBXBXBX",
"BXmXmXmXmXxXxXxXxXxXBXBXxXxXxXxXxXxXxXxXxXxXxXxXiXiX0X7X:X:X7XiXxXxXiXqX0XqXiXiXiXiXiXiXiXiXiXiXiXiXiXiXqXqXiXiXiXiXqXiXiXiXxXxXxXnXnXBXBXnXmXmXnXnXnXnXnXnXnXBXBXBXnXBXBXBXBXBXBXBXBXBXHXBXHXHXBXBXnXxXxXxXxXxXxXnXnXBXBXBXBXBXnXmXxXxXxXmXmXmXmXgXqX8X2X.XB.M.N.m.t.m.B.V.B.B.B.B.B.B.B.B.B.B.N.N.b.i.i.i.i.e.r.i.i.i.i.e.e.e.e.r.w.y.y.r.r.r.w.y.q.2.%.@.@.@.#.%.#.$.9.9.w.w.w.r.r.r.r.r.r.r.r.r.r.s.i.i.i.i.i.i.t.e.y.%.A e e d g h ~ oX0XiXxXqXqXqXqXqX0X0X0XiXiXiXiXxXxXxXmXxXxXxXxXmXxXiXiXiXiXmXmXmXmXBXmXnXnXnXnXxXxXBXBXCXBXzXxXxXxXBXBXnXBXBXBXBXBXFXBXBXBXBXxXxXxXBXBXBXBXFXHXBXBXBXBXBXnXBXBXBXBXBXBXBXBXBX",
"HXBXBXBXmXnXxXxXxXxXBXBXxXxXnXxXxXBXBXnXnXnXnXnXxXiXqX0X7X7X0XiXBXBXxXxXxXxXxXxXxXxXxXxXxXxXxXBXBXnXxXxXiXiXxXxXxXxXxXxXiXiXiXxXnXxXxXnXnXxXxXxXxXxXxXxXxXxXxXxXxXxXxXxXxXnXmXmXnXnXmXmXnXmXmXmXmXxXxXxXxXxXxXxXxXnXxXnXnXxXnXBXnXnXxXnXnXmXmXmXmXjXgXwX2X1XV.N.m.t.e.e.m.B.B.B.N.B.N.N.N.N.N.N.N.N.b.i.i.i.i.i.e.i.i.i.i.e.e.e.e.r.w.w.y.r.r.w.w.w.4.$.%.@.@.@.#.#.#.#.2.9.9.9.9.0.r.r.r.w.w.r.r.r.r.r.r.r.r.r.i.i.t.e.e.q.^ f 3 d y h C  X>XqXxXqXqXqXqXqX0XqXqXqXiXiXiXiXiXxXiXxXiXiXiXmXxXiXiXiXiXmXmXxXiXmXmXxXxXxXxXxXxXxXnXzXxXbXqXiXiXnXnXxXnXnXBXBXBXBXBXnXxXxXxXiXxXnXnXBXBXFXHXBXBXBXBXFXBXFXFXFXHXHXFXFXFXFX",
"BXBXBXBXBXBXBXBXnXnXBXBXxXxXnXBXBXBXBXHXBXBXBXBXBXBXBXnXxXxXxXHXFXBXBXnXnXnXBXBXnXnXxXnXnXnXnXBXBXBXnXxXxXxXxXmXnXnXnXnXxXxXxXzXBXnXxXnXnXxXxXxXxXxXxXxXxXxXxXxXxXxXxXxXxXxXxXxXxXxXxXxXxXxXxXxXxXxXxXxXxXxXxXxXxXxXxXxXxXxXxXxXxXxXxXxXxXxXiXiXqXgXgXwX2X2X.XN.t.e.q.q.t.N.B.B.N.N.N.N.N.N.N.N.N.N.b.i.i.i.i.i.i.i.i.i.i.e.e.e.r.w.w.w.y.r.r.w.w.q.2.$.#.@.@.@.#.#.#.#.$.2.9.9.9.0.0.r.r.r.r.r.r.r.r.r.r.r.r.r.i.i.t.e.e.q.` b u u y h N E.:X0XxXiX0XiXqXiXqXiXiXiXiXiXiXiXiXiXiXiXiXiXiXmXmXxXiXiXiXxXiXiXiXiXxXxXxXxXxXiXxXxXnXzXxXbXbXiXxXxXBXBXBXBXBXBXBXBXnXxXxXxXxXxXxXmXnXBXBXFXFXBXBXFXBXFXBXFXFXBXBXBXBXBXFXFX",
"BXBXBXBXBXHXHXBXBXmXmXmXmXmXmXBXmXmXmXHXHXHXBXBXBXHXHXHXBXBXBXHXBXBXBXBXmXBXmXmXBXmXmXmXmXmXmXmXBXBXBXBXmXmXmXmXmXBXmXmXxXxXxXmXmXmXmXmXmXmXmXmXmXiXxXxXxXxXiXmXmXxXxXmXmXiXiXiXxXxXxXxXiXiXiXiXxXxXxXiXiXiXiXmXmXxXxXxXxXxXxXmXmXmXiXxXiXiXiXiXqXgXgXgXgXjX1XM.N.m.e.4.2.y.B.B.i.w.i.N.i.d.N.N.N.N.d.i.i.i.i.i.i.i.e.e.i.r.r.r.w.r.w.w.w.y.w.w.w.9.2.$.#.@.@.@.#.#.#.%.$.9.9.9.2.2.9.0.0.0.0.w.w.w.w.r.r.r.r.r.r.i.t.e.e.q._ B 3 < y g h / +X7XiXiX0XiXiXiXiXiXiXiXiXiXiXiXiXiXiXiXiXiXiXiXiXiXiXiXiXvXvXxXxXxXxXxXxXxXxXxXxXxXxXxXxXxXnXiXxXnXBXFXBXFXFXBXBXFXBXBXmXmXmXmXmXmXBXmXmXBXBXBXBXHXHXBXBXBXBXBXBXBXHXHXBXHX",
"BXBXBXBXHXBXmXmXBXmXmXmXmXmXmXBXBXmXmXHXHXHXHXBXBXBXBXBXmXmXmXmXmXBXBXBXmXmXBXBXBXmXmXBXmXmXmXmXBXBXBXmXmXmXmXmXmXBXmXmXxXxXmXxXiXmXmXiXmXmXmXmXmXmXmXmXmXmXmXmXmXmXmXmXmXmXmXmXmXmXmXmXmXmXmXmXmXmXmXmXiXmXmXmXmXiXiXiXiXiXiXmXmXmXmXmXmXiXiXsXmXgXgXgXhXwX1XB.M.N.e.q.$.$.t.N.i.d.N.N.r.i.i.d.N.N.d.i.i.i.i.i.i.i.e.e.i.r.r.w.w.w.w.w.w.w.w.q.9.9.2.$.#.@.@.@.#.#.#.%.$.2.$.2.2.2.2.2.9.0.0.w.w.w.w.r.r.r.r.r.r.e.t.e.y.q.@.J u 3 y g g ( a.*X7XiXqXiXiXiXiXiXqXqXqXqXyXiXiXiXiXiXiXiXiXiXiXiXiXxXiXxXvXxXxXxXxXxXiXiXiXiXiXiXiXiXxXxXxXiXxXnXBXBXBXHXHXHXHXHXHXHXHXBXxXmXmXmXBXBXBXBXmXmXBXBXBXBXFXFXFXHXHXHXHXHXBXHX",
"mXBXBXmXBXmXmXmXmXmXBXmXmXBXBXBXBXBXBXBXHXHXBXBXBXBXBXBXmXBXmXmXmXmXmXmXmXmXmXBXmXmXmXBXBXBXBXBXBXBXBXmXmXmXmXmXmXmXmXmXmXmXmXmXmXmXmXmXmXmXmXHXBXBXmXmXmXmXBXmXBXBXBXBXBXmXmXmXBXBXBXBXmXmXmXmXBXBXBXBXmXmXmXBXmXxXiXiXiXiXxXmXmXmXmXmXmXmXmXmXmXjXgXgXgX8X2XV.m.m.t.q.$.%.q.e.e.i.N.i.y.w.e.i.i.N.d.i.i.i.i.i.i.i.i.i.e.r.w.w.w.w.w.w.w.w.w.q.2.q.2.$.#.@.@.@.@.#.#.%.$.#.#.#.#.2.2.2.9.9.w.w.w.w.w.r.r.w.r.r.r.t.t.e.y.y.%.G d q i p h A 5.7X7XiXiXqXiXiXiXiXqXqXqXqXyXiXiXiXiXvXxXxXvXvXpXpXxXmXmXmXmXBXBXnXxXxXxXxXiXiXiXiXiXiXiXxXxXxXxXxXxXxXxXxXxXxXxXnXnXBXmXmXxXxXxXmXmXmXmXmXmXmXmXmXmXnXnXBXBXBXBXBXBXBXBXBX",
"mXHXBXBXmXmXmXmXmXmXmXmXmXmXBXBXmXBXBXBXBXBXmXmXBXBXBXBXmXmXmXmXmXmXmXmXmXmXmXBXBXBXmXBXBXBXmXBXBXmXmXmXmXmXmXmXmXmXmXmXmXmXBXBXBXBXBXBXBXHXHXBXBXBXBXBXBXBXBXHXHXHXHXHXHXHXHXBXBXHXHXHXHXHXHXHXHXHXHXBXBXBXBXBXBXBXBXBXmXmXmXmXmXmXmXBXBXHXHXmXmXgXgXgXgX8X3XK.m.e.t.e.q.$.2.2.2.2.w.e.w.y.y.r.i.N.d.i.i.i.i.i.i.i.e.e.r.r.w.w.9.0.w.w.w.w.q.2.$.9.2.$.#.@.@.@.@.#.#.%.$.#.#.#.#.#.#.#.2.0.w.w.w.w.w.r.r.w.w.r.r.e.r.e.y.y.%.G c r q y h C 3.0XiXqXmX9XiXiXiXiXiXiXiXiXiXiXiXiXvXxXxXmXmXmXmXmXmXmXmXmXmXBXBXBXBXBXBXBXBXnXnXnXxXxXxXxXxXxXxXxXiXiXqX0X0X7X7X7X7X7X9XiXiXiXqXiXyXiXiXiXiXiXiXiXqXqXqXiXiXiXiXiXiXiXmXmX",
"BXHXHXBXBXmXmXBXBXmXmXmXmXmXmXBXBXBXBXBXBXBXmXmXBXBXmXmXmXBXmXBXBXBXmXmXiXmXmXmXmXmXmXBXmXmXmXBXmXmXmXmXmXmXmXBXBXBXmXmXiXmXmXBXBXBXBXHXHXHXHXBXBXBXBXmXBXBXBXHXHXHXHXHXHXHXHXBXBXHXHXHXHXHXHXHXHXHXHXHXHXBXBXBXBXBXBXBXBXBXmXBXmXmXmXVXVXBXHXmXHXMXMXMXjXwX3X1XN.d.d.e.q.$.q.2.#.@._ #.2.4.4.4.4.y.i.b.b.e.e.e.e.q.w.r.r.r.w.w.q.w.w.w.w.w.9.2.2.9.2.#.#.' _ ] _ _ ' @.#.#.#.#.#.@.#.#.#.9.0.w.0.0.0.r.r.w.w.r.r.r.r.e.e.y.%.G x r q q p N 8.0XiXiXBX0XmXiXiXiXiXiXiXvXvXvXiXmXiXmXmXmXmXmXmXmXmXmXmXmXmXnXnXBXBXBXBXFXFXFXBXBXBXBXxXnXnXxXxXxXxXiXiX0X0X7X7X:X:X:X7X7X7X7X7X7X7X7X7X7X7X7X:X:X:X:X:X:X:X7X7X7X7X9XqXqX",
"BXBXBXmXmXBXHXHXHXmXmXmXmXmXmXmXmXmXBXBXBXBXmXmXBXmXmXmXmXmXmXmXmXmXmXmXxXxXxXiXiXxXmXmXmXmXmXmXmXxXxXmXmXmXmXBXBXBXmXmXiXiXxXmXmXmXmXmXmXHXBXmXmXmXmXmXmXBXBXBXmXBXBXBXBXBXBXBXBXHXHXHXHXHXHXHXHXHXHXHXHXBXBXHXBXHXBXBXBXBXBXBXmXmXmXVXBXBXBXHXmXMXMXjXjXwXwX1XN.m.m.t.q.$.4.$.@._ ] _ @.@.@.@.@.$.2.w.i.w.r.e.e.q.w.w.r.r.w.w.w.w.w.w.w.9.2.2.2.2.#.#.' _ _ ] ] ] _ _ ' @.@.@.@.@.#.#.#.9.0.w.0.0.0.r.r.r.r.r.r.r.r.e.y.y.%.F c r q q y c / E.qXiXxXiXiXiXiXiXiXiXiXxXvXvXiXmXiXmXmXmXmXmXmXmXmXmXmXmXmXnXnXBXBXBXBXBXBXBXnXnXnXBXnXnXnXnXmXBXBXnXnXxXxXxXiXiXiXiXqX7X*X*X*X*X;X;X+X+XoXoXoXoXoXoXoXoXoX+X+X;X;X;X;X;X",
"mXmXmXmXmXmXmXBXmXmXmXBXmXmXmXmXmXmXmXmXBXBXmXmXmXmXmXmXmXmXiXiXiXiXiXiXvXxXiXiXqXqXyXiXiXiXxXmXmXxXxXxXmXmXmXmXBXmXmXxXiXiXiXiXiXiXiXiXxXmXmXiXmXmXiXmXmXmXmXmXmXmXmXmXmXmXmXBXBXHXHXHXHXHXHXHXHXHXHXHXHXBXHXHXBXBXBXBXBXBXHXHXBXBXBXBXBXBXBXHXmXMXMXjXjXwX3X1Xm.m.m.t.q.%.%.%.+.` F F ` ` ` ` ^ _ @.$.2.q.q.9.2.2.4.w.r.r.r.w.w.w.w.w.w.9.2.2.2.#.#.@.' _ _ ] ] ] ] _ _ _ _ _ _ ' #.%.$.9.9.q.9.q.0.w.w.w.y.r.r.r.r.e.e.y.%.` n r 3 q p g A 3.0XxXiXxXiXiXiXiXiXxXxXxXiXmXmXmXmXmXmXmXmXmXmXmXmXmXmXmXBXBXBXBXBXBXBXBXBXBXnXnXnXBXBXBXBXBXBXBXBXBXBXFXFXFXHXHXHXBXmXiX0X0X0X0X9X9X7X7X7X7X7X7X7X7X7X7X9X9X9X9X9X0X9XqX",
"xXmXmXxXiXiXiXiXiXiXmXBXBXmXmXmXmXmXmXmXBXBXmXmXBXmXmXmXmXmXiXiXiXiXiXiXmXiXiXqX9X7X9XqXqXiXiXxXmXmXxXiXiXxXmXmXmXmXxXiXiXiXiXiXiXiXiXiXxXxXiXiXiXiXiXiXiXiXxXmXmXmXmXmXmXmXmXHXBXBXBXHXBXBXBXBXBXBXBXBXBXBXHXHXBXBXmXmXmXHXHXHXBXBXBXBXBXBXBXHXmXMXMXjXjX3X3X1Xm.g.m.t.q.%.%.#._ F G G G G G G G F ` _ @.$.$.#.#.2.2.4.w.r.r.w.r.w.w.w.0.2.2.2.#.#.@.@.#.' _ ] ] ` ] ] _ _ _ _ _ ' #.%.$.9.9.q.9.9.9.r.w.w.y.r.r.r.r.e.e.y.%.` Z f q q d d V '  XxXiXBXiXiXiXiXiXxXxXxXiXmXmXmXmXmXmXmXmXmXmXmXmXmXBXBXBXBXBXFXFXFXBXFXBXFXFXFXFXBXBXBXBXBXBXBXBXnXnXnXnXBXBXBXBXBXBXBXBXmXmXmXmXmXmXmXmXmXxXxXxXxXxXmXxXiXiXiXiXiXiXiX",
"iXmXmXmXmXiXiXiXiXmXmXmXmXmXmXmXmXmXmXmXmXmXmXmXmXmXmXmXmXiXiXiXiXiXiXiXiXiXiXyXuXuXyXyXiXiXiXmXmXiXiXiXyXiXmXmXmXmXiXiXiXiXiXiXiXiXiXxXiXiXiXiXiXxXxXxXiXmXmXmXmXmXmXVXmXmXmXHXBXHXHXHXHXHXHXHXBXBXBXBXBXBXBXBXBXBXmXBXmXmXmXBXBXBXBXBXmXBXHXHXmXMXjXjXjX3X3XK.m.t.y.=.=.&.$.@.F Z Z Z Z Z Z Z Z G ^ ~ ~ ] _ #.$.#.#.#.2.4.4.2.2.2.0.2.9.9.2.$.%.@._ _ _ _ _ _ _ ] ` ` ` ] ` ] _ ] _ #.2.9.9.9.9.9.w.w.w.w.w.w.w.y.y.r.y.y.q.O.D d r 3 q x A / s.iXqXiX9XiXiXxXpXmXmXmXmXmXmXmXmXmXmXmXmXmXmXmXmXmXmXBXBXBXBXBXBXBXBXBXBXFXFXHXFXBXBXBXBXBXBXmXnXnXnXnXnXBXBXBXBXBXBXBXBXBXBXBXBXHXHXHXHXHXBXKXKXBXBXmXmXmXmXmXmXmXmXmX",
"mXmXmXmXmXmXmXmXmXmXmXmXmXmXxXmXmXmXmXmXmXmXmXmXmXmXmXmXmXvXiXiXvXiXiXiXiXiXiXiXiXiXpXpXmXmXmXmXmXiXiXiXyXiXpXpXvXiXiXiXiXiXiXiXiXiXiXxXiXiXiXiXiXxXxXiXiXmXmXmXmXmXmXmXmXmXmXBXBXmXmXmXmXmXmXmXmXmXmXmXmXmXmXmXmXmXmXmXmXmXmXmXmXmXmXvXvXmXmXmXmXMXjXjXjX3X3XK.z.h.=.=.=.%.%._ G c x b b b b n n Z G G G ~ ` _ @.' #.#.#.#.#.#.#.2.2.2.2.#.#._ _ ] ` ` ` ` ` ` ` ` ` F F ` ` ` ] ] _ #.2.2.2.9.9.9.q.w.w.w.w.w.w.y.y.r.y.y.=.O.J x r 3 r d V / n.9XqXiXiXiXiXvXpXmXmXmXmXmXmXmXmXmXmXmXmXmXmXmXmXmXmXBXBXBXBXBXBXBXBXBXBXFXHXHXFXBXBXBXBXBXBXmXnXnXnXnXnXBXBXBXBXBXBXBXBXBXBXBXBXBXBXBXHXmXmXmXmXmXmXmXmXmXmXmXmXmXmXmX",
"BXBXmXmXmXmXmXmXmXmXmXmXmXmXxXmXmXmXmXmXmXmXmXmXmXmXmXmXmXmXvXvXvXiXiXvXxXmXmXmXmXmXmXmXBXmXmXmXiXiXiXiXvXvXvXmXmXvXiXiXiXiXiXiXiXiXiXiXiXiXiXiXmXmXxXmXmXpXvXvXvXvXpXpXvXmXmXmXmXxXiXiXxXxXmXmXsXsXiXiXxXmXiXxXxXmXmXmXmXvXiXiXpXiXiXpXpXiXsXmXmXjXjXjXjX3X3XV.z.y.=.=.=.%.%._ G x f f f f f d g x Z A A G F ^ ] ] ' #.#.#.#.#.#.#.#.#.' _ ] ] ] ` ` ` ` I ` ` I F F F F ` F F F ` _ %.$.$.$.2.9.9.9.q.w.w.w.w.w.r.y.r.y.y.=.O.D x u r u y v D a.0XiXiXiXpXpXmXmXmXmXmXBXmXmXmXmXmXmXmXmXmXmXmXmXmXmXBXBXBXBXBXBXBXBXBXBXFXHXHXFXBXBXBXBXBXBXmXmXmXnXnXnXBXBXBXBXBXBXBXBXBXBXBXBXBXBXBXHXBXmXmXmXmXmXmXmXmXmXmXmXmXmXmX",
"BXmXmXmXmXmXmXmXmXmXmXmXmXmXxXmXmXmXmXmXmXmXmXmXmXmXmXmXmXmXvXvXvXiXiXiXiXxXxXxXvXvXmXmXmXmXmXmXxXiXiXiXmXmXmXmXmXmXmXmXxXiXiXiXiXiXiXiXiXiXiXmXmXxXxXmXiXpXiXiXiXiXiXiXiXvXvXvXiXiXiXiXiXiXiXiXiXiXiXiXiXiXiXiXiXiXiXvXiXpXiXiXiXiXiXiXiXiXiXmXmXjXjXjXjX3X3XV.l.y.=.&.&.=.&.O.F Z f 4 4 4 5 6 6 r x n S G G F ^ ^ _ +.#.' ' _ _ _ _ ] ] ` ` ` ` ` F F F F F F F F F F F ` G G G F _ %.9.$.$.$.2.9.9.9.9.w.w.w.w.y.y.e.y.e.=.O.D c d r u g c A 7.xXiXyX9XiXiXpXvXmXmXmXmXmXmXmXmXmXmXmXmXmXmXmXmXmXmXBXBXBXBXBXBXHXBXBXBXFXFXHXBXBXBXBXBXnXmXmXmXmXmXnXnXBXBXBXBXHXBXBXBXBXBXBXBXBXBXHXHXBXmXmXmXmXmXmXmXmXmXmXmXmXmXmX",
"BXmXmXmXmXmXmXmXmXmXmXmXmXmXmXmXmXmXmXmXmXmXmXmXmXmXmXmXmXmXmXmXmXvXvXvXvXiXvXmXvXvXvXvXmXmXmXmXmXvXpXmXmXmXmXmXmXmXmXVXmXmXmXmXpXpXiXiXiXiXiXmXmXmXmXmXiXxXiXiXiXiXiXiXxXvXvXpXiXpXiXiXxXmXmXmXmXmXxXmXmXmXmXiXiXiXiXiXiXiXiXiXiXpXpXpXpXvXxXxXmXGXjXjXjX3XK.V.l.=.=.&.&.*.O.O.O.H n f : 5 5 5 5 6 f d x J H ^ G F ` +.#.$.#.@._ _ _ _ _ ] ` ` ` ` ` F F F F F ~ ~ ~ ~ ~ ` G Z D G ` #.$.@.#.%.$.9.9.q.q.q.q.w.w.w.w.y.y.e.$.O.G b r r y x N A 3.7XqX9XiXiXiXxXxXvXxXvXxXmXxXmXxXmXmXmXmXmXmXmXmXmXBXBXBXBXBXBXBXBXBXBXBXBXBXBXBXBXBXBXBXmXmXmXnXnXnXnXnXBXBXBXBXBXBXBXBXBXBXmXmXBXBXBXBXmXmXmXmXmXmXmXmXmXmXiXiXxXxXxX",
"mXmXmXmXmXxXiXiXiXmXmXmXmXmXmXmXmXmXmXmXmXmXmXxXxXmXmXmXmXmXmXmXmXvXvXvXpXiXpXmXvXvXvXvXmXmXmXmXmXvXpXmXmXmXmXmXmXmXmXBXBXBXBXHXBXBXVXmXmXmXmXxXmXmXmXxXiXiXiXiXiXiXiXiXiXvXvXvXiXiXpXpXxXmXmXmXxXmXiXmXmXmXmXiXiXiXiXiXiXiXiXiXiXpXpXpXpXvXxXxXxXMXjXjXhX3XK.B.t.=.=.&.&.&.%.@.O._ J v r 5 5 5 5 5 5 6 f b J F H G ^ _ @.$.%.#.@._ _ _ _ _ ] ` ` ` ` F F F F F ~ ^ ^ ~ F ` G D Z Z F _ #.@.#.%.$.$.9.q.q.q.q.w.w.w.w.y.y.e.$.O.G n r w w x N C / oX7XyXiXiXiXiXiXxXxXxXvXvXxXxXiXiXiXmXmXmXmXmXmXmXBXBXBXnXmXnXnXBXBXBXBXBXBXBXBXBXnXnXnXmXmXmXnXnXnXnXmXBXBXBXBXBXBXBXBXBXBXmXnXBXBXBXmXmXmXmXmXmXmXmXmXmXmXsXiXxXxXxX",
"mXmXmXmXmXiXiXiXiXmXmXmXmXmXmXmXmXmXmXiXiXmXmXiXxXmXmXmXmXmXmXmXvXvXpXvXpXiXiXiXiXiXiXvXpXpXiXmXmXmXpXpXpXmXmXmXmXmXmXmXBXBXBXHXBXBXVXmXmXmXmXiXxXxXiXmXxXxXxXxXiXiXiXiXvXmXmXvXmXxXiXiXxXmXiXiXiXiXiXmXmXmXxXiXiXiXiXiXiXvXvXvXvXvXvXvXvXvXxXxXxXnXjXhXfX3XK.C.g.=.=.&.&.%.*.O.O._ G B f 5 5 6 6 6 6 6 6 f n J H G H ` @.%.%.@.@.@.#.#.#._ _ _ ] ] ` ` ` F F F F ^ ` I F F G G Z S G ` _ @.#.%.$.$.2.9.q.w.q.w.w.w.w.y.y.e.$.O.G B r q q g N C ~ a.7XxXyXiXiXiXiXxXxXvXvXmXmXmXmXmXmXmXmXmXmXmXmXmXmXmXmXBXBXmXBXBXBXBXBXBXBXBXBXBXnXnXnXnXmXmXnXnXnXmXmXBXBXBXBXBXBXBXBXBXBXnXnXBXBXBXBXmXmXmXmXmXmXsXsXmXmXsXmXxXxXxX",
"BXmXmXmXmXiXiXiXiXmXmXmXmXmXmXmXmXmXmXiXiXmXmXiXxXmXmXmXmXmXmXmXvXvXpXpXpXiXiXiXiXiXiXiXiXiXiXmXmXmXpXpXpXmXmXmXmXmXmXmXmXmXmXmXvXpXiXiXiXxXiXiXxXiXiXiXiXxXxXxXiXiXiXiXvXmXmXmXmXmXxXxXxXiXiXiXiXiXiXmXmXxXiXiXiXiXiXvXvXvXvXvXvXvXvXvXvXvXxXxXmXjXgXhX3X1XK.M.t.=.=.&.&.O._ ` ` G J n f 5 5 5 5 d f f f 4 l Z G G H ` _ %.%.#.@.#.#.#.#.@._ _ _ ] ` ` ` F F F F F I I I G F G Z b Z F ` _ #.#.$.$.2.9.q.w.q.q.w.y.y.e.r.e.$.+.G Z u q q g C A / 5.+XqXyXiXiXiXiXxXxXBXBXmXmXBXmXmXmXmXmXmXmXmXmXmXmXmXmXBXBXmXnXBXBXBXBXBXBXBXBXBXnXnXnXnXnXmXnXnXnXmXmXBXBXBXBXBXBXBXBXBXBXnXnXBXBXBXBXmXmXmXmXmXmXsXsXmXmXsXmXxXxXxX",
"mXmXmXmXmXxXxXxXvXvXvXvXxXmXmXmXiXmXxXmXmXmXmXmXmXmXmXmXmXpXpXpXvXiXiXiXiXiXiXiXiXiXiXiXiXmXmXmXvXvXvXpXpXpXpXmXmXmXmXmXvXiXiXiXiXiXiXiXxXvXvXvXiXiXiXiXiXiXiXvXvXvXvXmXmXmXmXmXmXvXxXxXxXxXiXiXxXxXxXiXiXiXiXiXiXvXvXvXvXvXvXvXxXxXxXvXvXxXxXxXnXjXgXhX3X1XA.m.h.=.=.&.O.O.I G Z n b l l x k l b n b b b f f b Z G H ` _ @.#.%.$.$.%.#.@._ _ _ ] ] ] ` ^ F F F F I I I I G G G S S S G _ _ _ @.$.$.2.9.q.q.q.w.w.r.r.r.e.y.q.@.^ Z r < q g V ~ 7.oX7XqXiXiXiXxXxXxXxXxXxXmXmXmXmXmXmXmXmXmXmXmXmXmXmXmXmXBXBXBXmXmXmXmXmXBXBXBXmXmXmXmXmXnXnXnXmXmXmXmXnXBXBXBXBXBXBXBXBXmXmXmXmXmXmXmXmXmXmXmXmXmXmXmXmXpXpXpXvXxXxXvX",
"mXmXmXmXmXxXxXvXvXvXvXvXxXmXmXmXiXmXxXxXmXmXmXmXmXmXmXmXmXpXpXpXmXiXiXiXiXiXiXiXiXiXiXiXmXmXmXmXvXvXvXvXpXpXxXmXmXmXmXmXvXiXiXiXiXiXiXiXxXvXvXvXiXiXiXiXiXvXvXvXvXvXvXxXiXiXiXmXvXvXvXpXxXxXiXiXmXxXxXmXmXmXmXBXBXmXBXvXvXvXvXvXxXxXxXvXvXxXvXxXnXjXgXhX3X1XV.M.h.&.&.%.O.I J b f 5 , > > c n Z Z J J Z Z g f b Z G ` _ +.#.%.$.$.$.%.#.@._ _ ] ] ] ] ` F F G G G F G G G G G D S B Z G ` ` _ _ $.$.$.9.q.q.q.w.w.y.y.y.y.q.q.%.` A g < ; y A '  X7XqXiXiXiXiXvXvXxXxXxXxXmXmXmXmXmXmXmXmXmXmXmXmXmXmXmXmXmXmXBXmXmXmXmXmXmXmXmXmXmXmXmXmXnXnXnXmXmXmXmXnXBXBXBXBXBXBXBXBXmXmXmXmXmXmXmXmXmXmXmXmXmXmXmXmXpXpXpXiXiXvXvX",
"mXmXmXmXmXxXxXxXvXvXiXiXxXmXmXmXiXxXiXiXmXxXxXmXmXmXmXmXmXxXpXpXxXmXmXxXxXxXxXxXiXxXxXxXmXmXmXmXvXvXiXiXiXxXxXxXvXvXvXvXvXiXxXiXiXiXiXiXiXvXvXvXpXvXiXiXxXxXvXvXvXvXvXvXiXiXiXiXiXvXvXpXvXxXxXxXxXxXxXmXmXmXmXBXmXmXmXmXmXvXmXvXvXxXxXvXvXxXxXxXmXjXgXwX3X1XV.M.e.%.&.%.` J b 6 : - - - - r v D G G G G J n g g b Z ` _ @.#.%.$.$.$.%.#.@._ _ ] ] ] ] ` F F G J D J J G J D J Z B n Z J F F ] #.%.%.$.$.9.q.q.q.q.w.w.q.q.q.q.&.+.^ B y < h / s.9XqXiXiXiXiXvXvXvXxXxXxXxXmXmXmXmXxXiXiXmXmXmXmXmXmXmXmXmXmXmXmXmXmXmXmXmXmXmXmXmXmXmXmXmXmXnXnXnXmXnXnXnXBXBXBXBXBXBXBXBXmXmXmXmXmXmXmXmXmXmXmXmXxXxXmXmXxXpXpXiXiXiXmX",
"mXvXpXpXiXxXxXxXpXiXiXiXiXiXvXmXiXxXiXxXmXxXxXiXpXpXxXxXxXiXpXpXxXmXmXmXmXxXxXxXiXxXxXxXmXmXmXmXvXvXiXiXiXxXxXxXvXvXvXvXvXiXxXxXiXiXiXiXiXvXvXvXvXvXiXvXvXvXvXvXvXvXvXiXiXiXiXiXiXiXiXpXxXxXxXxXmXxXxXiXiXiXiXiXiXiXmXmXmXmXmXmXxXxXlXvXvXxXxXxXmXjXgXjX3X1XV.m.e.%.%.O.` B r - - - - - - - f B G G G G J A b x g B ^ ' #.#.%.2.$.$.%.#.@._ _ ] ] ` ] ` F G G Z Z Z Z Z Z Z Z Z b b Z Z D G ` #.%.%.%.$.9.q.w.q.q.q.q.9.9.$.4.&.@.` A v g V 8.oXxXiXiXiXiXxXmXvXvXxXxXxXxXxXxXxXiXiXiXiXiXmXxXmXmXmXmXmXmXmXmXmXmXmXmXmXmXmXmXmXmXmXmXmXmXmXmXmXnXnXnXnXnXBXBXBXBXBXBXBXBXmXmXmXpXmXmXmXmXmXmXmXmXxXxXmXmXxXpXpXiXiXiXmX",
"xXpXpXpXxXiXxXiXiXpXpXiXiXiXiXxXmXmXxXiXiXiXiXvXpXpXxXxXvXiXiXvXxXxXxXvXvXmXmXxXxXxXxXxXmXmXmXmXxXiXiXiXiXxXxXvXvXiXiXiXiXxXxXxXiXiXiXiXiXiXiXiXiXiXiXiXxXxXxXxXiXiXiXiXiXvXvXvXvXvXxXxXiXxXmXmXmXxXxXmXxXiXiXiXiXHXHXBXBXmXmXiXvXiXiXpXpXiXiXxXmXjXgXjXjX3X.Xb.e.q.$.^ B d 3 , 3 > - : : - 3 x Z D A A A A Z B N N ~ #.w.2.2.2.2.w.q.$.#.' _ _ ] ` ^ F F F G Z Z Z Z Z Z n Z B b x S Z Z ` ` ` _ _ @.%.$.q.q.9.9.9.9.9.2.2.4.$.+.` D C N ' @XiXxXiXiXxXxXxXxXxXxXxXxXxXxXxXxXxXxXxXiXiXiXmXmXmXmXmXmXmXmXmXmXmXmXmXmXmXmXmXmXmXiXmXmXmXmXxXxXnXnXnXnXnXzXBXBXBXBXBXBXBXmXmXmXxXpXpXvXvXvXmXxXmXmXmXmXmXmXmXmXmXmXvXvXmX",
"iXiXiXiXiXiXxXiXiXpXpXiXiXiXiXxXmXmXxXiXiXiXiXxXiXiXiXiXiXiXiXiXiXiXiXiXiXxXxXiXiXiXiXiXiXiXiXiXiXiXiXiXiXiXiXiXiXiXiXiXiXiXxXxXiXiXiXiXiXiXiXiXiXiXiXiXxXxXiXiXiXiXiXiXiXvXvXvXvXvXvXxXiXxXxXmXiXiXiXiXxXiXiXiXiXiXiXiXiXiXiXiXiXiXiXiXiXiXiXiXqXwXwXwXwX3XB.e.4.4._ D c u e 1 , > - - : : > e x V V A A G D A A A ^ #.r.4.2.2.2.4.2.#.' @.' _ ] ] ^ ~ ^ F G J Z Z Z Z Z S B n b x n Z Z ` ` ` _ _ _ %.9.9.9.9.9.9.2.$.2.$.$.%._ ` G ~ ' n.qXzXxXiXxXxXxXxXxXxXxXxXxXnXnXnXnXBXBXBXBXmXmXmXmXmXmXmXmXmXmXmXmXmXmXmXxXxXiXiXiXiXiXiXiXxXxXxXxXxXxXxXxXxXxXxXxXxXxXvXvXvXxXxXxXiXiXiXiXiXiXmXxXmXmXmXmXmXmXmXmXmXmXvXvXmX",
"iXiXiXiXiXiXiXiXxXiXiXiXiXiXiXxXmXmXiXiXiXiXxXxXiXiXiXiXiXiXiXiXiXiXiXiXiXiXiXiXiXiXiXiXiXiXiXiXiXiXiXiXiXiXiXiXiXiXiXiXiXiXiXiXiXiXiXiXiXiXiXiXiXiXiXiXiXiXiXiXiXiXiXiXiXvXvXvXvXvXiXxXiXiXmXmXmXmXiXiXmXiXiXiXiXiXyXyXqXiXiXiXsXsXiXiXiXuXyXiXwXwXwXwXwX2XN.w.2._ D v u y r q > > - - : - > 1 i N ~ / ' ' ' ' ' ' #.w.i.i.r.4.2.0.4.3.#.#.' _ _ _ ` ^ ` ` F G Z Z Z Z S Z n b b b b Z A F G F ` ` ] #.2.9.9.9.2.2.2.$.2.%.%.@._ ^ D / 7.7XxXzXxXxXxXzXxXxXxXxXxXxXmXnXnXmXmXBXBXBXmXmXmXmXmXmXmXmXmXmXmXiXiXmXmXmXiXiXxXxXiXiXiXiXiXxXxXxXxXxXxXxXxXxXxXxXxXxXxXxXxXxXxXiXiXiXiXiXiXiXiXxXmXmXmXmXmXmXmXmXmXmXmXmXmXmX",
"iXiXiXiXiXiXiXiXxXiXiXiXiXiXiXxXmXmXiXiXiXiXxXxXiXiXiXiXiXiXiXiXiXiXiXiXiXiXiXiXiXiXiXiXiXiXiXiXiXiXiXiXiXiXiXiXvXvXiXiXiXiXiXiXiXiXiXiXiXiXiXiXiXiXiXiXiXiXiXiXiXiXiXiXiXvXvXvXvXvXiXiXiXiXmXmXmXmXiXiXmXiXiXiXiXiXiXiXiXiXiXiXiXsXuXuXuXuX0X0XwXwXwXwXwX1Xi.4.#.D v d y y y e > > - - : $ , i q C 8.p.a.s.s.s.s.a.}.@XoX@X Xa.p.s.r.4.2.#.#.' _ ' ] ` ] ` F G J J Z S n Z b b n b b S J A S Z F G I ] @.$.$.2.2.2.2.$.2.%.%.+.` G Z ~ 7.0XxXnXxXxXxXzXxXnXnXnXxXmXmXmXxXxXxXmXmXmXmXmXiXmXmXmXmXmXmXmXmXxXiXiXxXxXxXxXmXmXiXiXiXiXiXxXxXxXxXxXxXxXxXxXxXiXiXiXiXiXiXiXiXiXiXiXiXiXiXiXiXxXmXmXmXmXmXmXmXmXmXmXmXmXmXmX",
"iXiXiXiXiXiXiXiXiXiXiXiXiXiXiXmXmXxXiXiXiXiXiXiXiXiXiXiXiXiXiXiXiXiXiXiXiXiXiXiXiXiXiXiXiXiXiXiXiXiXiXmXmXmXmXmXmXxXiXiXiXiXiXiXiXiXiXiXiXvXvXiXxXiXiXxXiXiXiXiXiXiXiXmXmXiXiXiXiXiXiXiXiXxXxXvXxXxXiXiXiXiXxXiXiXiXiXiXiXiXpXpXiXuXiXiXyXiXiX0XwX4XeX2XwXN.w.' D c g x v u w e e $ % : : % i 2 < ( oX9XlX:X:X:X:X9X0XqXiXqX7X+XXX Xa.s.5.3.3.3.2.2.2.#.#.] _ ` G G J Z Z n n n n n n n Z b n Z S Z ` #.%.#.#.$.$.2.$.$.#.#._ ` ` ~ V V 3. X9XxXzXqXzXxX0XnXnXmXmXxXxXxXxXxXxXxXxXxXxXxXpXmXmXmXmXmXmXmXmXmXmXpXiXiXvXmXvXvXiXvXxXxXvXvXpXxXxXxXxXxXxXxXxXxXlXlXxXxXxXxXxXiXiXiXiXiXiXiXxXmXmXBXVXVXVXVXBXmXmXmXmXmXmXmX",
"iXiXiXiXiXiXiXiXiXiXiXxXiXiXiXmXmXmXiXiXiXiXiXiXiXiXiXiXxXxXxXxXiXiXiXiXiXiXiXiXiXiXiXiXiXiXiXiXiXiXiXmXmXmXmXmXmXxXiXiXiXiXiXiXiXiXiXiXiXvXvXxXiXxXiXxXvXiXxXxXiXxXxXxXmXiXiXiXiXiXiXiXiXiXxXvXxXxXiXiXiXiXxXiXiXiXiXiXiXiXyXpXiXiXiXiXiX4X7XqXqXjX8X2X.X2.] A x d d g c u i q e > : : : 2 < 2 p 5.9XyXiXyXqXqXqXqXqXiXiXmXiX9X:X*XoX@X Xa.a.a.i.i.i.r.w.#.%.@.] G G J Z Z Z Z Z Z n n b b b b b Z ` _ _ #.#.#.#.2.$.%.#.$.O.^ G ~ V N / a.:X0XqXiXxXxXiXxXxXxXxXxXxXxXxXmXmXmXmXmXmXmXmXmXmXmXmXmXmXmXmXmXmXiXiXxXvXxXvXiXiXiXxXxXxXxXpXxXxXxXxXxXxXxXxXxXlXlXxXxXxXxXxXiXiXxXxXmXmXmXBXmXmXmXmXBXVXVXBXmXmXmXmXmXmXmX",
"iXiXiXmXxXmXmXmXmXmXmXmXmXmXmXmXiXiXiXiXiXiXiXiXiXiXiXiXiXmXmXmXxXxXxXxXxXiXiXvXxXiXiXiXiXiXiXxXxXmXmXmXmXmXmXBXmXmXxXxXiXiXiXxXvXvXvXvXvXvXvXvXiXiXxXxXvXmXmXmXmXmXxXxXmXmXmXmXiXiXiXiXiXiXiXiXxXxXxXiXiXiXiXiXiXiXiXiXiXiXiXyXqX9X9X9XqXqXqX7X7X8X2X$Xb._ D N g d d x g u i q e r 3 2 % 2 2 y / >XyXyXyXiXiXiXiXiXiXiXiXiXiXiXqXwX9X7X7X*X*X*X2X7X2X+X.Xi.i.w.2.` ^ G Z Z Z Z Z B b b c c x f f Z F ` _ #.#.#.#.9.$.%.#.%.+.^ Z D A V ~ 7.oXbXCXxXiXiXiXxXiXiXiXiXiXiXxXmXmXmXmXmXmXmXmXmXmXmXmXpXpXpXxXxXvXvXxXiXiXiXiXvXvXiXxXxXxXxXpXxXxXxXxXxXxXxXxXxXxXxXlXlXxXxXxXiXiXmXxXmXmXmXBXBXBXBXBXmXmXmXmXmXmXmXmXmXmXmX",
"mXmXmXmXmXmXmXmXmXmXmXmXmXmXmXmXxXiXiXiXiXiXiXiXxXxXiXiXiXmXmXmXxXmXmXxXxXxXvXvXxXiXiXiXiXiXiXxXxXxXmXmXmXmXmXBXmXmXxXxXiXiXiXxXvXvXvXvXvXvXvXiXiXiXiXxXvXmXmXmXmXmXiXiXiXmXmXmXiXiXiXiXiXiXiXxXxXxXxXiXiXiXiXiXiXiXiXiXiXiXiXiXiX*X*X*XoX@X@X@X@X8X#Xt.+.^ Z V N v v c u u e 3 r k r > % & q ( }.iX9X0XyXiXiXiXiXiXxXiXiXiXiXiXiXiXiXiXiXiXiXqXqXiXqXwXwX+XeX.Xi.2.$._ G G D D D J Z Z B l r > r S G F ` @.' ' ' 2.$.%.#.O._ ` Z V A ~ +.oX0XbXbXzXqX0XxXiXiXiXiXiXiXmXmXmXmXiXiXiXiXiXiXiXiXvXpXpXiXiXiXxXvXvXiXiXiXiXiXiXiXvXxXxXxXxXpXxXxXxXxXxXxXxXxXxXxXxXlXxXxXxXxXiXiXmXmXmXiXiXxXmXmXBXmXmXmXmXmXmXmXmXmXmXmXmX",
"mXmXmXmXmXmXmXmXmXmXmXmXmXmXmXmXmXmXiXmXxXiXiXxXiXiXmXmXmXxXiXmXmXxXxXnXnXmXmXiXiXiXiXiXiXiXiXiXiXiXmXmXmXBXBXBXBXBXmXiXxXxXxXmXmXvXiXiXiXiXiXiXiXiXiXxXxXxXiXmXiXmXxXxXxXiXiXiXxXiXiXiXiXxXmXxXxXxXxXiXxXxXiXiXiXiXiXqX0XyX}.7.8.' ' ' / ^ D A D A G G D B B V V Z B v d d u r r e , % & p A 7.qX7X9XqXqXqXqXiXiXiXiXxXmXmXmXmXsXsXiXiXiXmXmXmXxXxXmXmXjX7X7X$XN.B.b.2.~ A Z Z A A Z B B b > X , B n Z G _ _ _ _ $.%.#.@.+.+.^ B N N ~ 8.>X9XqX:XyXbXiXbXiXiXiXiXxXmXxXxXxXxXxXxXxXxXxXxXxXxXxXiXpXpXpXpXiXiXiXiXiXiXiXiXxXxXmXmXxXxXiXiXxXxXxXxXxXxXvXxXxXxXxXxXxXxXxXxXiXiXiXiXiXiXiXiXxXmXmXmXxXxXxXvXxXxXmXmXmXmXmX",
"iXiXiXmXmXmXmXmXmXmXmXmXmXmXmXmXmXmXmXmXxXmXxXxXiXmXmXmXmXxXiXmXmXxXxXnXnXmXmXxXiXiXiXpXxXiXiXxXmXmXmXmXmXBXBXBXBXmXmXiXxXmXmXmXmXvXiXiXiXiXxXxXxXxXxXxXxXmXmXmXmXmXmXmXmXmXmXiXmXxXiXiXxXxXmXmXxXxXmXmXxX0X0X0X0XvXiX7X:X3./ V h g h c c c c v V Z Z B n v v N N c v v x v x u e e < < q / p.yXxX7X9XqXqXqXqXiXiXiXiXiXiXiXiXiXiXiXiXiXiXiXiXiXiXqXqXqXqX7XqXwX2X.X2.G x r e q r l k k d x > $ : r f x Z ` _ _ _ %.#.@._ @.O.^ D N N A ~ / a.zXyX9XqXbXiXiXiXiXiXiXiXiXiXxXxXxXxXxXxXxXvXvXxXxXvXvXvXvXvXiXiXiXiXiXiXiXiXiXiXxXxXiXiXiXiXiXiXxXxXxXxXxXxXxXxXxXlXxXxXlXxXiXiXiXiXiXiXiXiXiXiXiXiXiXiXxXvXiXiXxXxXiXiXiX",
"iXxXxXmXmXmXmXmXmXmXmXmXmXmXmXmXmXBXBXmXmXBXBXmXmXmXmXmXmXmXmXmXBXBXBXBXBXBXBXmXmXmXmXvXxXmXmXmXmXmXmXBXBXBXBXBXBXBXmXmXmXmXmXmXmXmXmXmXmXmXmXmXmXmXmXmXmXmXmXmXmXmXmXmXmXmXmXmXmXmXmXmXmXmXmXmXmXmXmXmXxXxXxXxXxXzX:Xp.8.A c i w q w i y d u u x v v n B v v v v x v v x v l u e r < < p |.,XlX0X7X9XqXwXqXqXiXiXiXiXiXqXqXqXqXqXqXqX0XqXqXqXqXqXqXqXqXqX7X8X+X X2.D d > ; & % - 3 3 5 5 f 6 > 4 4 5 t l Z ` ] _ @.@.O._ @._ ^ ~ B N A A c A p.bX0X9XqXiXqXiXiXiXiXiXiXiXiXiXiXiXiXiXiXiXiXiXiXiXiXpXpXiXiXiXiXiXiXiXiXiXiXiXiXiXiXiXiXiXiXiXiXiXiXiXiXiXiXxXxXxXiXiXiXiXiXiXiXiXiXiXiXiXiXyXyXyXyXiXiXiXiXiXiXiXiXiXiX",
"mXBXBXBXmXmXmXmXmXmXmXmXmXmXmXBXmXBXBXmXmXBXBXmXmXmXmXmXmXmXmXmXBXBXBXBXBXBXBXmXmXmXmXmXmXmXmXBXBXBXmXBXBXBXBXBXBXBXmXmXmXmXmXmXmXmXmXmXmXmXmXBXmXmXmXBXmXmXmXmXmXmXxXmXmXmXmXmXmXmXmXBXmXmXmXmXxXxXxXzXxXiXyXyXyXXX8.A p p 0 0 y i q 1 1 > < r x c d d x n N N N N B N c d u r r u 2 ; i oX;X7X7X7X9XwXwXqXqXiXqXqXqXqXqXqXqXqX9X9X9X9X9X9X0X0X0X0X0X0X0XqX+Xs.' A r ; 2 2 - - > > , 5 5 r f k k 6 t t r x J F ^ @.+._ _ +.` ^ ^ Z B A ~ V ; h 7.:X0X7XqXiXiXiXiXqXqXqXqXqXqX0X9X9X0X0XyXyXyX0X0XyXyXyXyX0XyXyXyXiXiXiXiXiXiXiXiXiXiXiXiXiXiXiXiXiXiXiXiXiXiXxXxXiXiXiXiXiXiXyXyXiXiXiXqX0X9X9X9X0X0XyXiXiXiXiXiXqXqXiX",
"mXBXBXBXBXBXBXBXmXmXmXmXmXBXBXHXmXmXmXBXBXBXmXmXBXnXnXnXmXnXnXnXnXnXnXnXBXBXBXBXBXBXnXBXBXBXnXBXBXnXnXBXBXBXBXFXHXHXHXBXBXmXBXBXBXnXnXnXBXBXBXBXBXBXBXBXBXnXnXxXxXmXnXmXnXmXmXnXmXnXnXnXnXnXxXxXzXzXxXxXzXyXvXqXa.~ h 0 < < ; 2 < % & & ; a e r u 1 3 5 r k z z z v c x x r 5 > 2 < * % p |.*X7X9X9X9X9X9X9X9X9X7X7X7X7X7X7X7X9X7X7X7X7X7X7X7X7X7X:X7X7X*X7X5.A w < q < ; % % % % 1 3 5 e u t t t r 5 3 , r c A F ~ ` ' ] ` _ ^ ] ~ N V ~ N 0 ; h 8.oXiX+X7X7X0XiX7X9X9XqX9X9X9X9X9X9X9X9XuXuXuX9X9X9X9X9X9X9XyXyXyXyXiXiXyXyXyXyXyXyXyXiXiXiXiXiXiXiXiXiXiXiXiXiXiXiXiXiXqXqXqXqXqXqXqX0X9X9X9X9X9X9XqXqXqXqXqXqXqXqXqX",
"mXBXBXBXmXmXBXBXmXmXmXmXmXBXBXBXBXmXmXBXBXmXmXmXBXBXBXBXBXnXnXnXnXnXnXnXnXBXBXBXBXBXBXBXBXBXBXBXBXHXFXBXBXBXBXFXHXBXBXBXBXmXBXBXBXnXnXnXBXBXBXBXBXBXBXBXBXnXnXnXnXBXBXBXBXnXmXnXmXmXnXnXnXnXxXzXzXxXxXzXzXvXzX}./ p 0 < & ; ; & ; 2 2 < < < 2 2 : > 1 1 3 e i i i 1 1 < < ; ; & @ % % w A  X+X:X7X7X7X7X4X4X4X*X+X+X+X*X*X*X*X4X*X:X+X+X*X*X*X*X*X}.oXoXE.' V q < ; % & % % & % % 2 > 1 1 3 3 3 3 3 3 5 3 q g N V D F ~ ~ ^ ] ^ ~ ~ G A N g 0 ; 0 N ~ 3.a.:X:X7X9X4X7X9X9X9X9X9X9X9X9X9X9XuXuXyX9X9X9X9X9X9X9XyXuXyXyXyXyXyXyXyXyXyXyXyXyXyXyXyXyXyXyXyXyXqXqXiXiXiXiXqXqXqXqXqXqXqXqXqXqX0X9X0X0X0X0XqXqXqXqXqX0XqXqXqX",
"mXmXBXBXmXmXmXBXBXmXmXBXBXBXmXBXBXBXmXBXBXmXmXBXBXBXBXBXBXBXBXFXFXBXBXBXBXBXBXBXBXBXBXBXBXBXBXBXBXHXFXFXFXFXFXFXFXBXBXBXBXBXBXBXBXmXnXnXnXBXBXBXBXBXBXBXBXnXnXnXnXBXBXBXBXnXnXnXnXnXnXnXnXnXnXnXxXxXbXbXlXzXa.( 0 w p i % < q < g x y y a 0 2 ; % ; ; - - ; 2 2 ; ; 2 < < & & & * ; q c / a.a.a.a.E.E.E.E.a.a.a.a.a.a.E.E.E.(.(.E. Xa.a.a.}.}. X}.a. Xs.' C q * * % * @ # & & & % % % ; ; ; - ; - ; 2 < < q d x c V D ~ G ~ ~ ~ ~ A ~ A h g h h h c V / 7.oX+X*X*X*X*X7X7X7X7X7X7X9X9X9X9X9X9X9X9X9X9X9X9X9X9X9X9X9XuXyXyXyXyXyXyXyXyXyXyXyX0X9X9X0X0X0X9X9X0XqXyXyXqXqXqXqXqXqXqXqXqXqXqXqXqXqXqXqXqXqXqXqXqX0X0X9X9X9X",
"mXBXBXBXmXmXmXBXBXmXmXBXmXmXmXBXmXmXmXBXBXBXmXBXBXBXBXBXBXBXBXFXFXBXBXBXBXBXBXBXBXBXBXBXBXBXBXBXBXHXHXFXFXBXBXBXBXBXBXBXBXBXBXBXmXmXxXnXnXxXxXnXnXnXnXmXmXmXnXnXnXBXBXBXBXnXnXnXnXnXnXnXnXnXnXxXxXxXbXbXbXqX' C c ( ~ A c v A A +.+.D V w w w w q 0 < 2 ; q q q q y y g h g g g g y h C / 8.8.' 8.8.8.3.3.3.3.3.3.5.5.5.5.u.u.u.u.w.5.5.5.u.u.u.5.3.3.^ N q ; ; ; * % * @ & & & & * & & & & @ # # # * % ; * ; < w d c N N A N A / ' ' ~ A ' ' ' 3.5.7.a.XXXXXXoX;X*X*X*X4X*X*X5X5X7X7X7X7X7X7X7X7X7X7X7X9X7X9X9X9X9X9XuXuXuXuX9X0XyXyX9XuX9X9X9X9X9X9X9X9X9X9X0XqXqX0X0X0XqXqXqXqXqXqXqXqXqXqXqXqXqXqXqXqX0X0X0X9X9X9X7X",
"mXmXmXmXmXmXmXmXBXmXmXmXmXmXBXBXBXBXmXmXmXmXmXmXnXBXHXFXFXFXFXFXFXCXCXCXCXFXFXFXFXFXFXFXFXFXFXFXFXFXFXnXBXBXBXBXBXnXnXnXnXnXnXnXmXxXxXxXxXxXxXxXxXxXxXnXnXnXnXBXBXBXBXFXFXnXnXnXBXBXBXBXnXnXnXxXxXxXiXqXgX0Xs.3.7.a.s.3.8.' 7.8.s.7.' ' A ~ ~ / / D D D D ~ ~ ~ ~ ' ' ' ' +.+.+.+.' ' 8.3.' ' ' ' | 8.3.3.3.3.3.3.3.3.3.3.3.3.3.3.3.3.3.8.8.8.8.8.' / V 0 ; g h c w 0 ; % ; ; % * * % ; ; ; & * . * @ * * & ; ; ; w p h h j h A / 8.3.8.3.3.3.u.p.E.E.E.E.E.}.XXoXOXOXOX;X*X*X*X*X*X*X5X5X7X7X7X5X7X>X7X7X7X7X9X9X9X9XuXuXuX9X9X0XyXyXyXyXyX0X9X9X9X9X9X9X9X9X0X9XqXqXqXqXqXqXqXqXqXqXqXqXqXqXqXqXqXqXqXqX0X9X9X0X0X9X7X",
"mXmXmXBXmXmXmXmXmXmXmXmXmXmXmXmXmXmXmXmXmXmXmXnXmXBXBXBXHXFXFXnXBXCXCXCXCXBXBXBXBXBXBXBXBXBXBXBXBXBXnXnXnXBXBXnXnXxXxXxXxXnXnXnXxXxXxXxXxXxXxXxXxXxXxXxXxXxXxXnXnXBXBXBXBXnXnXnXBXnXnXnXnXnXxXxXxXxXiXiXqX0X8X8X0X9X8X7X7X7XqX+X8X:X XoXa.}.n.a.a.}.}.n.n.n.}.}.}.}.}. X Xa.a.a.i.s.s.s.p.p.s.s.s.p.p.p.p.p.u.u.u.5.5.5.5.5.5.5.5.5.3.3.3.3.3.3.3.' ' ~ N A A ~ / ( C h q h h h h h h h c h h g y y p h h h g y w h h j N C A / ' ' 3.5.p.5.5.p.p.E.E.E.E.E.}.XXoXOXOXOXOX;X;X*X*X*X*X*X*X-X-X*X-X>X:X>X>X7X7X9X9X9X9X9X9X9X9X9X9X9X9X9X9X9X9X9X9X9X9X9X0X0X9X0X0XqXqXqXqXqXqXqXqX0X0XqXqXqXqXqXqXqXqXqXqX0X9X9X0X0X0X0X",
"mXmXmXmXmXmXmXmXmXmXmXmXmXmXxXmXmXmXmXmXmXmXnXnXmXBXBXBXnXnXnXnXnXnXnXnXnXnXnXnXnXnXnXnXnXnXnXnXnXmXmXnXnXnXnXnXnXxXxXxXxXnXnXnXxXxXxXxXxXxXxXxXxXxXxXxXxXxXxXnXxXxXxXnXnXnXnXnXnXnXnXnXnXxXxXxXxXiXiXiXxXzXxXqX7X0X0XqXqXqXqX:X+X7X:X7X7X:X+X+XoX7X7X7X>X+X+X+XoXoX@XoX@X X X X X@XoX@X}.a.a.a.a.a.a.a.a.a.a.a.a.a.a.a.p.p.p.p.p.p.s.s.u.s.u.5.5.5.u.3.' 3.8.8.8.3.' ~ A ~ ~ ~ ~ ~ / / / ' ' ' / / / / ' ' ' ' ' ' ' ' | ' 5.5.5.3.3.p.p.p.p.p.p.E.E.E.E.E.(.XXoXOXOXOXOX&X&X;X;X;X;X;X*X*X*X*X*X*X*X5X5X7X7X7X7X9X9X9X9X7X7X7X7X9X9X9X9X9X9X9X9X9X0X0X0X0X0X0X0XqXqXqXqXqXqXqXqX0X0XqXqXqXqXqXqXqXqXqXqX0X0XqXqXqXqXqX",
"mXmXmXmXmXxXxXxXiXmXmXmXmXxXiXxXiXmXmXmXmXmXnXnXnXBXBXBXnXmXxXxXxXxXxXxXxXxXxXxXxXxXxXxXxXxXxXnXnXxXxXxXxXnXnXxXxXxXxXxXxXnXnXnXxXxXxXxXxXxXxXxXxXxXxXxXxXxXxXnXxXxXxXxXzXnXnXnXnXnXnXnXxXxXxXxXiXiXiXiXxXHXiXqXqXiXqXqX0X8X7X0X7X9X0X7X7X7X9XqXqX9X7X7X7X7X:X:X*X+X+X+X+XoXOXOXOX@X+XOXa.@X@X@X@XXXXXOXXXXX X X X(.E.E.E.E.a.a.a.a.s.s.s.p.s.s.s.u.s.s.5.u.p.s.5.u.3.5.5.3.3.5.5.3.3.5.5.3.3.3.3.3.3.3.3.3.3.5.5.5.5.u.p.5.E.5.5.p.5.a.p.p.p.a.E.E.E.E.E.E.E.XXXXoXoXoXoXoXoXoXOX&X&X;X;X;X*X*X*X*X-X-X5X-X5X5X7X7X7X7X7X7X5X5X5X7X7X9X9X9X9X9X9X9X0X0X0X0X0X0X0X9X0X0X0X0X0X0X0X0X0X0X0X9X9XqXqXqXqXqXqX0X0XqXqXqXqXiX",
"xXmXmXmXmXxXxXxXiXmXmXmXxXxXiXiXiXxXxXnXnXnXnXnXnXBXBXBXBXBXxXmXxXxXxXxXxXxXxXxXxXxXxXnXnXnXnXnXnXnXnXxXxXxXxXxXxXxXxXxXzXzXzXzXxXxXxXxXxXxXxXxXxXxXxXxXxXnXnXnXnXnXnXnXnXnXnXnXnXxXxXxXxXxXxXxXxXxXxXxXxXxXiXqXqXqXqX0X0X0XqXqX0X0X7X7X7X9X9X9X9X9X9X9X9X7X7X*X+X+X+X+X+X+X+X+XOXOXOXOXOXoXoXoXoXXXXXXX@X X X X X X X X X X X X X X X X X X X X Xa.a.s.s.s.s.s.p.p.p.s.s.s.p.s.p.p.p.a.a.a.p.p.p.p.p.p.u.u.u.u.p.p.p.p.p.p.p.a.a.E.E.E.E.E.E.E.E.E.E.E.E.E.(.(.(.XXXXoXoXoXoX&XOX;X;X;X;X*X*X*X*X*X*X*X*X-X*X5X5X5X5X7X5X5X5X5X5X7X7X7X7X7X7X9X9X9X9X9X9X0X0X0X9X0X0X0X0X0X0X0X0X0X0X0X0X0X0X0X0X0X0X0X0XqXqXqXqXqXqXiX",
"iXmXmXmXxXxXiXiXiXmXmXmXmXmXmXmXmXnXnXnXnXnXnXnXnXBXBXBXBXBXnXmXxXxXxXxXxXxXxXxXxXxXxXxXxXnXnXxXxXnXnXxXxXxXxXxXxXxXxXxXxXxXxXxXxXxXiXxXiXiXiXxXxXxXxXxXxXnXnXnXnXnXxXxXxXxXxXxXxXxXxXxXxXiXqXqXqXxXxXxXxXiXqXqX0XqX0X9X9X0XqXqX0X0X8X7X7X9X9X9X0X9X9X9X9XqX0X7X7X:X:X:X*X*X*X+X+X+X+X+X+X+X+X+X+X+X+X+XoXXXoXXXXXXXXXXXXXXXXXOXXXXXXXXXXXXXXXXX X X X X(.(.(.(.E.a.s.s.s.a.a.a.a.E.E.E.E.E.E.E.E.E.E.E.E.a.a.a.a.E.E.E.E.E.E.E.E.E.E.(.E.(.(.(. X X X X X X XXXXXXXoXoXoX&X&X;X;X;X;X*X*X*X*X*X*X*X*X*X*X*X*X*X*X*X*X5X5X5X5X7X7X7X7X9X9X7X7X7X7X9X9X9X9X0X0X9X9X9X9X9X9X9X9X0X0X0X0X9X9X9X9X9X9X0X0X0X0XqXqX0X0XqXqXqX",
"iXiXmXmXxXxXiXmXmXmXmXmXmXmXmXBXBXnXnXmXnXnXnXnXnXBXBXBXBXBXnXmXxXxXxXmXmXxXxXxXxXxXxXxXxXxXxXxXxXxXxXxXxXxXxXiXiXiXiXiXiXiXxXxXiXiXiXiXiXiXiXxXxXxXxXxXxXnXnXnXxXxXxXxXxXiXiXxXiXiXiXiXiXqXqXqXqXqXqXiXiXqX0X9X7X0X0X0X0X0X0XqXqX0X0X0X0X0X0X0X0X0X9X9X0X0X0X7X7X7X7X7X7X7X7X:X:X*X*X*X*X*X+X+X+X*X*X+X+X+X+X+X+X+X+X+X+X+X+XOXOXOXOX+X+X+X+X+XOXoXoXOXOXOXOXXXOX(.(.a.a.a.E.(.E.Q.Q.(.(.(.(.(.(. X X X(.(.(.(. X X X X X X X(.(. XXXXXoXXXXXXXXXXXXXoXoXoXoXOXOXOXOX;X*X*X*X*X;X*X*X*X*X*X*X*X*X*X*X*X*X*X*X5X:X4X5X7X7X5X5X7X7X7X7X9X9X7X7X7X7X9X9X9X9X0X9X9X9X9X9X9X9X9X9X9X0X0X9X9X9X9X9X9X9X0X0X0X0XqXqXqXqX0X9X9X",
"iXiXmXmXxXiXiXmXmXmXmXmXmXmXBXBXmXnXxXxXxXxXxXxXxXzXzXnXmXBXnXmXiXiXiXxXxXxXxXxXxXxXxXxXxXxXxXxXxXxXxXiXiXiXiXiXiXiXiXiXiXiXiXiXiXiXiXiXiXiXiXiXiXxXxXxXxXxXxXxXxXxXxXiXqXqXqXiXiXiXqXqXqXqXqXqXqXqXqXqXqX0X0X7X7X9X0X0X0X0X0XqXqX0X0X0X0X0X0X0X0X0X9X9X9X7X7X:X+X7X7X7X7X7X7X7X7X7X7X7X7X*X*X:X:X:X*X*X*X*X+X+X+X*X+X+X*X+X+X+X+X+X+X+X+X+X+X+X+X+X+X+X+X+XoXOXOX(. X X X(.(.(.(. X XXXXXXX(.XXXXXXXXXXXXXXXXXXXXXXXXoXoXXXXXXXXXoXoX&XoXoXoXoXoXoXoXOXOXOXOXOXOX+X;X*X*X*X*X*X*X:X:X*X5X-X*X*X*X*X*X*X*X*X*X7X:X4X5X7X7X5X5X7X7X7X7X9X9X7X7X7X7X9X9X9X9X0X9X9X9X9X9X9X9X9X9X9X9X0X9X9X9X9X9X9X9X0X0X0X0XqXqXqX0X9X9X9X",
"iXiXiXxXxXxXxXmXmXmXmXBXBXmXmXBXmXBXxXxXxXxXxXxXxXzXzXxXzXBXzXxXiXiXiXiXiXxXxXxXxXxXiXiXiXxXxXxXiXxXxXxXxXiXiXiXiXiXiXiXiXiXiXiXiXiXiXiXiXiXiXiXiXxXiXxXiXiXxXxXzXzXxXxXiXiXxXxXqXqXqXqXqXqXqXqXqXqXqXqXqXqX0X0X0X0X0X0X0X0XqXqX0X0X0X0X0X0X0X0X0X0X0X0X7X7X7X7X7X9X9X9X9X7X7X7X7X7X7X9X9X:X:X:X7X7X:X:X*X*X*X+X*X:X7X7X4X4X*X*X*X*X*X+X*X*X*X+X+X+X+X+X*X*X*X*X*X+XOXXX XXXOX;X*X*X;X*X;X;X;X;X;XOXOXOX+X;X;X*X*X+X+X+X+X+X+X+X;X;X;X;X;X;X+X+X+X+X+X;X;X;X;X*X*X*X*X*X*X*X*X*X*X:X>X*X*X*X*X*X4X*X*X4X-X*X-X5X5X5X5X7X7X7X7X7X7X7X7X7X7X7X7X7X7X9X9X9X9X0X9X9X9X9X9X9X9XqX0X0X0X9X9X9X9X9X9X9X9X9X9X9X9X9X9X0X0X0X9X9X",
"iXiXxXxXxXmXmXxXiXmXmXmXmXmXmXmXxXxXxXxXxXxXxXxXxXxXxXxXxXxXxXiXiXiXiXiXiXiXxXiXiXiXiXiXiXiXiXiXiXxXxXxXxXiXiXiXiXiXxXxXiXiXiXiXiXiXiXiXiXiXiXiXiXiXiXiXiXiXiXiXxXxXxXiXiXiXxXiXqXiXqXqXqXqXqXqXqXqXiXqXqXqXqXqX0X0X0XqXqX0XqXqX0X0X0X0X0X0X0X0X0X0X0X0X9X9X7X7X7X9X9X9X9X7X7X9X9X9X9X0X7X7X7X7X7X7X7X7X7X7X7X7X7X7X7X7X7X4X4X4X4X4X4X4X4X4X4X*X*X*X*X*X*X4X4X4X4X*X*X+X+X+X*X*X*X4X4X4X*X*X*X*X*X*X*X*X*X*X*X*X*X*X*X*X*X*X*X*X*X*X*X*X*X*X*X*X*X*X*X*X*X*X*X*X*X*X*X*X*X*X*X*X*X:X>X5X5X5X5X7X7X4X4X7X7X-X-X5X5X5X5X7X7X7X7X7X7X7X7X7X7X7X7X7X7X9X9X9X9X0X9X9X9X9X9X9X0XqX0X0X9X9X9X9X9X9X9X9X9X9X9X9X9X0X9X9X0X0X0XqX",
"mXmXmXmXmXxXiXmXmXiXiXmXmXmXmXxXxXxXxXxXxXxXxXxXxXxXxXxXiXiXiXiXiXiXiXiXiXiXiXiXiXiXiXiXiXiXiXiXxXxXxXxXxXiXiXiXiXiXxXxXiXiXiXiXiXiXiXiXiXiXiXiXiXiXiXiXiXiXiXqXqXqXqXiXiXqXqXiXqXqXqXqXqXqXiXqXqXqXqXqXqX0XqXqX0X0X0XqXqXqXqXqXqXqXqXqXqX0X0X0X0X0X0X0X0X0X0X0X0X0X0X0X0X9X9X0X0X0X9X9X9X9X9X9X9X9X9X9X9X7X7X7X7X7X7X7X7X7X7X7X7X7X7X7X7X7X7X7X7X7X7X7X7X7X7X7X7X4X4X*X*X*X4X4X*X*X4X4X4X4X*X*X*X*X*X*X*X*X*X*X4X:X:X4X*X*X*X*X*X*X*X*X*X4X4X4X*X:X:X4X4X7X7X9X7X7X7X4X4X*X*X*X*X>X>X5X5X7X7X7X7X9X9X9X9X7X7X7X7X7X7X7X7X7X7X7X9X9X9X9X9X7X7X9X9X9X9X0X9X0X0X0X0X0X0X0XqX0X0X0X0X0X0X0X0X0X0X0X0X0X0X0X9X0XqXqX0XqXqXqX",
"mXmXmXmXmXmXmXmXiXiXiXxXxXxXiXiXxXxXxXxXxXxXxXxXxXxXxXxXiXiXiXiXiXiXiXiXiXiXiXiXiXiXiXiXiXiXiXiXxXxXxXxXxXiXiXiXiXiXxXxXiXiXiXiXiXiXiXiXiXiXiXiXxXxXiXiXiXiXqX0X0X0X0XqXqXiXqXiXqXiXxXxXxXxXiXiXqXqXqXiXqXqX0X0X0XqXqXqXqXqXqXqXqXqXqXqXqX0X0X0X0X0X0X0X0X0X0X0X0X0X0X0X0X9X9X0X0X0X0X9X9X0X9X0X0X0X0X0X0X9X9X9X7X7X7X7X7X7X9X9XwXwX9X9X9X9X7X7X7X7X7X7X7X7X7X7X7X7X7X7X4X*X4X4X4X5X5X4X4X4X*X*X*X4X*X4X4X*X*X*X4X:X:X4X*X*X*X*X4X4X*X*X4X4X4X4X4X7X7X7X7X7X9X9X9X9X9X9X7X5X5X5X-X>X>X7X7X7X7X9X9X9X9X9X9X9X7X9X7X7X7X7X7X7X7X7X7X9X9X9X9X7X7X9X9X9X9X0X9X0X0X0X9X9X9X0XqX0X0X0X0X0X0X0X0X0X0X0X0X0X0X0X9XqXqXqXqXqXqXqX",
"xXmXmXmXmXmXmXiXxXvXiXvXxXiXiXiXiXiXiXxXiXlXlXxXxXxXlXlXlXiXiXlXxXiXiXiXiXiXiXxXxXxXiXxXiXiXiXiXiXiXiXxXiXxXxXxXxXxXxXxXiXiXiXiXiXiXxXiXiXiXiXiXxXxXxXiXiXiXqXqX0X0X0XiXiXiXiXiXiXxXxXxXiXxXxXxXiXiXiXiXqXqXqXqXqXqXiXiXqXqXqXiXqXqXqXqXqX0X0X0X0XqXqXqXqXqXqXqXqX0X9X9X9X9X9X9X0X9X9X0X0X0X0X0X0X0XqX9X9X9X9X9X9X9X9X9X9X9X9X9X0X0X9X9X9X9X9X7X9X9X9X9X7X7X7X9X9X9X9X9X9X9X7X7X4X5X5X5X5X5X*X4X4X7X7X7X7X7X7X7X7X7X7X7X7X7X7X7X7X7X7X7X7X7X7X7X7X7X7X7X7X7X9X9X9X9X9X7X9X9X7X7X7X7X7X7X7X7X7X9X9X9X9X9X9X7X7X7X7X7X7X9X9X9X9X9X9X9X9X9X9X9X9X9X9X9X9X9X9X0X0X0X0X0X0X0X0X0X0X0X0XyX0X0X0X0XyX0X0X0X0X0X0X0XqXqX0X0X0X9X",
"xXmXiXmXmXmXmXpXxXvXvXvXxXiXiXiXiXiXiXiXiXlXlXxXxXxXlXlXlXlXlXlXxXiXiXiXiXiXiXxXiXxXiXxXiXiXiXiXiXiXiXiXiXxXxXxXxXxXxXxXxXiXiXiXxXxXxXxXxXxXiXxXxXxXxXiXiXiXxXxXxXiXiXiXiXiXiXiXiXxXxXxXxXxXxXxXxXiXiXiXiXqXqXqXiXiXiXiXqXqXqXqXqXqXqXqXqX0X0X0X0X0X0X0X0XqXqXqXqX0X9X9X9X9X9X9X9X9X9X0X0X0X0X0X0XqXqXqX0X9X9X9X9X9X9X9X9X9X9X9X0XqX0X9X9X9X9X7X7X7X9X9X7X7X7X9X9X9X9X9X9X9X9X9X7X7X7X7X7X7X5X7X7X7X9X9X9X9X9X9X9X9X9X7X7X7X9X9X9X7X7X7X7X9X9X9X9X9X9X9X9X9X0X9X9X9X9X9X9X9X9X9X9X9X9X9X9X9X9X9X9X9X9X0X9X9X9X9X9X9X9X0X0X0X0XyX9X9X9X9X9X9X9X9X9X0X0X9X9X0X0X0X0X0X0X0X0X0X0X0XyXyX0X0X0X0XuX9X0X0X0X0X0X0XqXqX0X0X0X9X",
"xXiXxXxXvXvXpXpXiXiXvXvXvXiXiXiXiXiXiXiXiXlXxXxXxXxXxXlXlXlXlXlXxXiXiXiXiXxXxXxXxXxXxXxXiXiXiXiXiXiXiXiXiXxXxXxXxXxXxXxXxXxXxXxXxXxXxXxXxXxXxXxXxXxXxXiXiXiXxXxXxXiXiXiXiXiXiXiXiXxXxXxXxXxXxXxXxXxXiXxXxXiXiXiXiXiXiXqXqXqXqXqXqX0X0X0X0XqXqXqXqX0X0X0X0XqXqXqXqX0X0X0X0XqXqX0XqX0X0XqXqXqXqXqXqXqXqXqXqXqXqXqXqXqXqXqXqXqXqX0X0XqXqX0X0X0X0X9X9X9X9X9X9X9X7X9X9X9X9X9XyX9X9X9X9X9X9X9X9X9X7X9X9X9X9X9X9X0X0X9X0X0X9X9X9X9X9X9X9X9X9X9X9X9X9X9X9X0X0X0X0X0X0X0X9X0X0X0XqX0XyXyXyXyXyX0X0X9X9X9X9X9X9X9X9X0X0X0X0X0X0XqXqXyXyXyXyXyXuXyX0XyXyXyXyX0XyXyX0XqXqXqXqXyXyXyXyXyXyXyXyXyXyXyXyXyXyXqXqX0X0X0X0X9X9XqX0X0X0XyX",
"iXiXxXxXvXvXpXpXiXiXvXvXvXiXiXiXiXiXiXiXiXlXxXxXxXxXxXxXlXlXlXlXxXiXiXiXlXxXxXxXxXxXiXiXiXiXiXiXiXiXiXiXiXxXxXxXxXxXxXxXxXxXxXxXxXxXxXxXxXxXxXxXxXxXxXiXiXiXiXiXiXiXiXiXiXiXiXiXiXxXxXxXxXxXxXxXxXxXxXxXxXiXiXiXiXiXiXqXqX0XqXqX0X0X0X0X9XqXqXqXqXiXiXiXiXqXqXqXqX0X0X0X0XqXqX0XqX0X0XqXqXqXqXqXqXqXqXqXqXqXqXqXiXiXiXyXqXqXqXqX0XqXqXqXqXqXqXqXqXqXqXqX9X9X9X9X9X9X9XqXyX9X9X9X9X9X9X9X9X9X9X9X9X9X9X9X0X0X0X9X0X0X9X9X9X9X9X9X9X9X9X9X9X9X9X9X9X0X0X0X0X0X0X9X9X0X9X9X9X0XyXyXyXyXyXyXyX9X9X9X9X9X9X9X9X0X0XqXyXqXqXyXqXyXyXiXyXyXuXyXyXyXyXyXyXyXyXyX0XqX0XqXqXyXyXyXyXyXyXyXyXyXyXyXyXyXyXqXqX0X0X0X9X9X0X0X0X0X9XyX",
"iXiXiXiXiXvXvXvXiXiXvXvXvXiXiXiXiXiXiXiXiXxXxXxXlXlXlXlXxXxXxXxXlXlXlXlXxXxXxXxXxXxXxXxXiXiXiXxXxXxXxXxXxXiXiXiXiXxXxXxXxXxXxXxXxXxXxXxXxXxXxXxXxXxXlXlXiXiXiXiXiXiXiXiXiXiXiXlXxXxXxXxXxXxXxXxXxXxXxXiXiXiXiXiXiXiXqXqXiXqXqXqXqXyXyXyXyXqXqXqXqXiXiXiXiXiXqXqXqXqXqXqXqXqXqXqXqXqXqXqXqXqXqXqXqXqXqXqX0XqXqXiXiXyXqXqXqXqXqXqXqXqXqXqXqXqXqXqXqXqXqXqX0XqXqXqXqXyXyXyXyXyXyXyXyXyXyXyXyX0X0X0X0X0X0X0X0X0X0X0X0X9X9X9X9X9X9X9X9X9X9X9X9X0X0X0X0XqXqXqXqXqXqXqX0X0X0X0XqX0X0XyXyXyXyXyX0X0X9X9X9X9X9X0X0X0X0XqXqXqXqXqXqXiXiXyXyXyX0XyXyXyXyXyXyXyXyXyXyXqX0XqXqXyXyXyXyXyXyXyXyXyXyXyXyXyXyXqXqXqX0X0X0X9X9X0X0XyXyXyX",
"iXiXiXiXiXvXvXvXiXiXvXvXvXiXiXiXiXiXiXiXiXxXxXxXlXlXlXlXxXxXxXxXlXlXlXlXxXxXxXxXxXxXxXxXiXiXiXxXxXxXxXxXxXiXiXiXiXxXxXxXxXxXxXxXiXiXiXiXiXiXiXiXiXlXlXlXiXlXlXlXxXxXxXlXlXlXlXlXxXxXxXxXxXxXxXxXxXxXxXiXiXiXiXiXiXiXiXiXiXiXiXiXiXiXiXiXiXqXqXqXqXqXqXqXqXqXqXiXiXqXqXqXqXqXqXqXqXqXqXqXqXqXqXqXqXqXqXqX0X9XqXyXyXyXqXqXqXqXqXqXqXqXqXqXqXqXqXqXqXqXqXqX0XqXqXqXqXyXyXyXyXyXyXyXyXyXyXyXyX0X0X0X0X0X9X0X0X0X0X0X0X9X9X9X9X9X9X9X9X9X9X9X9X0X0X0X0XqXqXqXqXqXqXqXqXqXqXqXqXyX0XyXyXyXyXyXyXqXqXqXqXqXqXqXqXqXqXqXqXqXqXqXqXiXiXiXyXyX0XyXyX0XyXyXyXyXyXyXyXqXqXqXqXiXiXyXyXyXyXyXyXyXyXyXyXyXyXqXqXqXqXqXqX0X0X0X0XyXyX0X",
"iXiXiXiXiXiXvXvXiXiXvXvXiXiXiXiXiXiXiXiXiXxXxXxXlXlXxXlXxXxXxXxXlXlXxXlXxXxXxXxXxXxXxXxXxXxXxXxXxXxXxXxXxXxXxXxXxXxXxXxXxXxXxXxXiXiXiXiXiXiXiXxXxXlXlXlXlXiXiXiXiXxXiXlXlXxXxXxXxXxXxXxXxXxXxXxXxXxXxXiXiXiXiXiXiXiXiXxXxXiXiXiXiXiXiXiXiXiXiXiXqX0X9XqXqXiXiXiXiXiXiXiXiXiXiXqXqXqXqXqXqXqXqXqXqXqXqXqXqXqXqXyXiXiXiXiXqXqXqXqXqXqXqXqXqXqXqXqXqXqXqXqX0X0X0XqXqXyXyXyXyXyXyXyXyXyXyXyXyX0X0X0X0X0X0X0X0XqXqXqXqXqXqXqXqXqXqXqXqXqXqXqXqXqXqXqXqXqXqXqXqXqXqXqXqXqXqXiXiXiXiXiXiXiXiXiXiXiXiXiXiXiXiXiXiXiXiXqXqXqXqXqXqXiXiXiXyXiXyXyXyXiXiXyXyXyXyXiXiXiXiXiXiXiXiXiXiXiXiXiXiXyXyXiXiXiXiXiXiXiXiXiXiXqXqXqXyXyXyXyX",
"iXiXiXiXiXiXvXvXxXvXvXvXxXiXiXiXiXiXiXiXiXxXxXxXlXlXxXxXxXxXiXxXlXlXxXxXxXxXxXxXxXxXxXxXxXxXxXxXxXxXxXxXxXxXxXxXxXxXxXxXxXxXxXxXxXxXxXxXlXxXxXxXxXlXlXlXiXiXiXiXiXiXiXlXlXxXxXxXxXxXxXxXxXxXxXxXxXxXxXiXiXiXiXiXiXiXiXxXxXxXxXxXxXiXiXiXiXiXiXiXiXqXqXiXiXiXiXxXiXiXiXiXiXiXqXqXqXqXqXqXqXqXqXqXqXqXqXqXqXqXqXyXqXiXiXiXqXqXqXqXqXqXqXqXqXqXqXqXqXqXqXqX0X0X0XqXqXyXyXyXyXyXyXyXyXyXyXyXyX0X0X0X0X0X0X0X0XqXqXqXqXqXqXqXqXqXqXqXqXqXqXqXqXqXqXqXqXqXqXqXqXqXqXqXqXiXiXiXiXiXiXiXiXyXyXyXyXiXiXiXiXiXiXiXiXiXiXiXiXqXqXqXqXiXiXiXyXiXyXyXyXiXiXyXyXyXyXiXiXiXiXiXiXiXiXiXiXiXiXiXiXyXyXiXiXiXiXiXiXiXiXiXiXiXiXiXiXyXiXiX"
};
